;Header Start

;FLAVOR:Marlin
;TIME:6666
;Filament used: 0m
;Layer height: 0.2


;header_type: 3dp
;thumbnail: data:image/png;base64,iVBORw0KGgoAAAANSUhEUgAAASwAAACWCAYAAABkW7XSAAARaUlEQVR4Xu2dP6gdxRfH56VQU+SpqBFjHgFjYdKEpDBpYqVYKIjamMpnJQhaiY2kEhuJWAiKlbFKpSBEwT+VNv4BIYWpjKDRIuYVaopohPd+fNff3ty3b3fuzOz82+dnIURk5py537P3k9m9Z85Zunbt2obhQgEUQIEJKLAEsCYQJZaIAijQKACwuBFQAAUmowDAmkyoWCgKoADA4h5AARSYjAIAazKhYqEogAIAi3sABVBgMgoArMmEioWiAAoALO4BFECBySgAsBKH6oMPPmg8XL582Tz00EPmnnvuSewR8zkV+Oyzzxp3V65caf5+4okncrr/z/kCWIlD/uabbzYeLl68OPO0f//+Bl66AFjiACQw30Kq/fvGG280u3fvbjw9//zzCTxislUAYCW+F1pg/fbbb+bvv//e4k3w0sXuK3EgRpj/8ccfzYULF0z7d9cUwBohrudUgOUpmO9wPRL++uuvRsC6/fbbm/+2Xe3ui52Xr9Jxx3d3UUPW7777brO2ttbssPTfPBLGjUPXGsBKq69pgZXYDeYrUABgpQ8CwEqsMcBKLHBF5gFW+mAArMQaf/311+abb75J7AXzNShw//33m6NHj9awlG27BoCVOLQAK7HAFZkHWOmDAbASawywEgtckXmAlT4YACuxxvpVsE0eTewK84UV0C+Eeo/FlU4BgJVO28YywEoscEXmAVb6YACsxBoDrMQCV2QeYKUPBsBKr7Fps90zuMJFQQU4lpNefICVXmMrsHRcZ2Njw9x0000ZVjLsQuvQEZMarxrW9tdff5mlpSWrRgAr/d0DsNJrbAWWjuysrq7OgNX3gl5fWB3rOX78eNBqlQem4yPtpRfDhw4d2mSrhcL8uCBnCSbt2rVrCyi+/PLLWYUEuez7TK5L0TGcf/75p3e4fvnbu3evOX/+vDl37hzAchU10TiAlUjYebO2bHcB65VXXpkN73t8FEz0pX322WeDVtv1/+eff5qXX345yFYtk86cObMFwqHn+F566SWzsrLS+9Ha91KCmg1YZLnnuTMAVgadSwOrmwu2HYD16quvmuXl5U27xhBgqQLDu+++OysP070d2sc8gJXhi+LgAmA5iDR2iA1YgseJEydmdbGGXtDfcMMNwTssgDUcQVdgvfPOO80j6NB7PnZYY78lbvMBlptOo0bZst27wBqCmwoAvvbaa0Hr+C8AKzTL3AdY165dG9Q/1H9QQP/DkwBWhuADrPgidx8JQ4FhA9b8rkk7LIAVP46+FgGWr2IB4xcBS1+2tmRyjh2WXuK/+OKLAZ+knimnTp3a9Hg2Blh6gT//Pqz9lACrnni3KwFYGWJiy3YXPJRi0AJrCG7dXxN9lt21CbCuq6eX6Ur7WASskydPDr6YlzWy3H3uyPCxACtcO+eZNQJLX7Apl2GOtcMCWM63cRUDAVaGMMQC1jPPPBMEma5/7bC2G7BCdzg2YM0/ZrLDyvBFcXABsBxEijHEdp5wPmXB9kgIsP6NhF6U613ffIpBKLBs6QotsBb9kqg1cSwnxrdksQ2AtVijKCMWAevBBx9s3qVoN9TXWac9yxa6mG7+ULeDT1vH6cCBA6EukszTbvDzzz/fkv/UPX+p9Qssvpfad+kcZ9/jsWwqR07Hcobec7X+AJav8mHjAVaYbt6zbMBSjtX6+rrZt2+ft91YE5QPpqvv5XMsHyF2Sq9L/1DoB49bbrnFqg3AComu/xyA5a9Z0Ay65wTJNolJZLnnCxPAyqQ1wMokdAE3ACuf6AArk9YAK5PQBdwArHyiA6xMWtM9J5PQBdyEZtkXWOrkXQKsTCEEWJmELuAGYOUTHWBl0hpgZRK6gJvQHLACS528S4CVKYR0z8kkdAE3ACuf6AArk9YAK5PQBdwArHyiA6xMWgOsTEIXcAOw8okOsPJpTX/CjFrndEWWez61AVY+ra3A0tm+9jzb0HlCHVPRmcOQS2fh5q95fyH2Ss7p6qM8qPYspM+6dPZQtvrqtM/bVEsxW89GgOWj+rixAGucfl6zFx2Abtt4pSji101cVdsw9UOc4vXFF180LbfaKzRx06W0jKA2VJG09Q+w8t1FACuf1k1JlL5KDFqCa4mZ+R6GPkvfTsA6ffr0liaqIS2+YgArFJY+sWPsdQUAVsa7wRVYQy/oVTUgtCYWwNoaaFuvwflaWLYdFsDK+AUyxgCsjHrbkkfna7YPAavbEsxn6V3feoelWk9TvGLtsGzF+9pf/vqKBc5rBrDy3kEAK6PeACuO2DmBtajjM8dy4sTU1QrAclUqwjhXYMlV3wt67bDmW4L5LGk77bD0iLa2tjb7+KHQcNlhASyfuyz9WICVXuOZh0X9CduW9WoS2k1DkBFVv9RP7CGX2ojNp0So7O977723yZQeb1544YUQ88nmvP/++1u0ePrpp83BgwdnPlVCWWDxvfR5lUqiEsnd66mnnmoemRcBi6RRX9XHjQdY4/Tzmm3Ldm/fT2n3oD+xr/37928yqVrm3Uv9EY8dOxbb9Sh7Kh/98ccfb7Lh8llGOf3/5Pb9lK3jM8CKobS7DYDlrtXokYuA9f3335s9e/aYO++8s/df/dELWGBAcFhZWUntxst+qTVpN3vp0iWzY8cOqyYAyyucowcDrNESuhtYBKzff//dqBtMSWDt3r3bmtXt/mnHj1THHP16WgKiAGt8/FJYAFgpVLXYHMp215fzjz/+MFevXm06tNx8882ZV2aMdjMA61/ZW2Dt3LnT2qKeLPe8tynAyqv34HlCAUsvePVF0UvgvhfBqZcqYOrMXAnfQ59NayoBb8VBf/S+7PDhw4PSA6zUd+Vm+wArr95UbMisd2p3ACu1wgArr8Idb3TPKSp/VOdkuUeV08kYOywnmeINAljxtCxtCWDljwDAyqw5zSgyC57QHcBKKO6AaYCVWXOAlVnwhO5CjwQlXNK2Nw2wMocYYGUWPKE7gJVQXHZY+cXt8wiw6ohDjFWQ5R5DRT8b7LD89Bo9mu45oyWsxgDAyh8KgJVZc4CVWfCE7gBWQnF5JMwvbp/HRcCa7/4yVP89pEOM1tK1F2qntJIxPocqiQ51wml1sY2RBgAr/53ADiu/5oPZ7t0SyLGL+HVzwO677z6jOllTugSRjz76aNOSQ7LNbcX7WnsaYystE+J3SlrXuFaAVSAqtgPQqknVQmQIWNoBdGtCuXyMy5cvb9plCVg1nRt0+Qyq43XlypXZUGlxxx13uEzdNEYFDIdgBLC85cw2AWBlk/q6I1dgPffcc1se48ZUHVXfw7ZZq1bTV82zgBxeLpVK8OSTT87maMelnZDvJdA9+uijvdPeeOON5v+fPHmSSg2+wiYeD7ASC9xnfuh4jio2tDsslUnWn5iXdm7zwDp79uxgn8SYfmPaErDmqycIWCHlkW1rOn78uPnkk0+swCLLPWZU3W0BLHetoo20nSfUY9qpU6eMvojzdcujOcfQQgX0uCiwC46qD9Z3AayFMiYZALCSyGo3akse/eqrr5qmC4899pjZt29fgdXh8qeffjIffvihUSMKgFXX/QCwCsTDBixV/VxfX29WVapUcgFJqnHZVhpdWlpqKr8uLy/3ro1jOWVCBrAK6A6wCoju6BJgOQpVaBjAKiD8ooaqquuuq1Rt9wKSVONyHlja4Q4ll5I0WiZkAKuA7rZsd3WJAVgFgvJ/l6ohr+5Fyk/TPxgAq1ws+jwDrALxWASsH374YbbDmlpiZwE5o7oUrLTL0jusI0eOAKyo6o43BrDGa+htwQYs5WKFtqP3XggTrAooH4sdVl03CcAqFI+hbPdCy8GtpwKcI/QULNJwgBVJSF8zAMtXsbrGA6wy8QBYZXSnP2Eh3WO5BVixlPSzA7D89Io2mnZf0aTMbohjOdklnzkEWIW0B1iFhI/gFmBFEDHQBMAKFG7sNJpRjFWw3HyAVU57gFVIe4BVSPgIbjlHGEHEQBMAK1C4sdMA1lgFy80HWOW0B1iFtLcBS8mjbaG92Emk8wX89NFVd2tKV471K2HU1oCCc4Tl7hiAVUh7W7b7rl27zOrqqnn44YejZ713m07ErtaZWk4Ba76efez1C1Zvv/22OXPmzGBpGYCVOsrD9gFWIe0XnSfUGUKVSNYXdGqdbQpJOtqtKo1qR3vixAlz4MABjuWMVjS+AYAVX1Nni0PZ7qrY8Prrrzd21IiCyqPOko4aqEqjb731VlMaWQ0qOEc4Ss4kkwFWElndjA4BS/0JtbtSmWT9hA6w3PQcO0rA+vbbb5tKDTZgkeU+Vunw+QArXLvRM23AUomZ2267rfEBsEZL7WRAwNIlYNmK9wEsJzmTDAJYSWR1M2oDluoybWxsNIao7e6m55hRbaVR2dixY4dZWVnpNUfS6BiVx88FWOM1DLYwdDxHj4QAK1jWoIkAK0i27JMAVnbJrzu0NVS9dOnSbIdFbff0QQJY6TWO4QFgxVAx0MZQ8qgSRwFWoKiB09pa7pq+c+dO+hEG6ph6GsBKrbDF/iJg/fLLL81s7bC6td31BXvggQc2JVG6fBT5VA5Yex06dMjbhoufFGMuXLhgzp07NzOt90lHjx71cvXpp5+atbW1LXq2tdxl7N577x0EFsdyvOSOPhhgRZfU3aDteM7Zs2c3gcXdKiPHKqBs94MHD/aaAVhj1R03H2CN02/UbA5Aj5KvyGSO5RSRfeYUYBXU33Y8p+CycG1RAGCVvT0AVkH9AVZB8QNdA6xA4SJNA1iRhAw1Q/ecUOXKzANYZXRvvQKssvrTPaew/r7uOZbjq1jc8QArrp7e1thheUtWdALAKiq/AVhl9WeHVVh/H/ecI/RRK81YgJVGV2ertPtylqr4QIBVPATssEqHwHaesK3nvmfPnqbyaDfbvfTat4t/nRpQHSxdSgxdXl7u/WgAq3zE2WEVjsFQ8qgqNpw+fbrJdlchP9UxV5kZrvgK6Nym/nEQtB5//HFz7NgxgBVf5igWAVYUGcON2M4TtsdzBCztrgBWuM62mQKWqjUIWHv37h0EFsdy0ujvYxVg+aiVYOwiYN11111NmWRdVB5NEABjTFtpVMDSTvbw4cO9jgBWGv19rAIsH7USjLUB67vvvjN6f9VeACtBAOaAJeu20jIkjabR38cqwPJRK8FY2/Gcn3/+eVbEjx1WAvGNaR4F9UjYXgArjc6xrAKsWEoG2rEB6+LFi2Z9fX1mmdrugSJbpnWBdeutt9JANb7M0SwCrGhShhsaynYHWOGaus6cB5a65ahY4lBaA4+ErqqmGwew0mnrbNnWUPXq1aszO9R2d5bUeeB8aeRFwOJYjrOsyQYCrGTSuhu2AUv9Cdurr1SyuxdG9ikwXxpZwDpy5Mhgx2eAVf4eAljlYzB4nvD8+fNNQiNXPgVWV1d7gUWWe74Y2DwBrAriwHnCCoKwYAkAq44YAawK4gCwKggCwKo/CMZw+LmGKNGMooYo2NfADquOGLHDqiAOAKuCICxYAsdy6ogRwKogDgCrgiAArPqDwCNhHTECWHXEwbYKkkbriBE7rAriQLuvCoKwYAkAq44YAawK4gCwKggCwKo/CDwS1hMjuufUE4u+lTzyyCNNmWqusgqwwyqr/8w7wKokEAPL4FhOHfEBWHXEgXZflcRhaBkAq44AAaw64gCwKolD3zJIGq0nOACrklhwPKeSQPQsA2DVExuAVUksAFYlgQBY9QaCXwnriQ3Jo/XEorsSdlj1xIYdViWxAFiVBKJnGZwjrCc2AKuSWACsSgIBsOoNBI+E9cQGYNUTi+5KOJZTT2zYYVUSC47nVBKInmUArHpiA7DqiQUrQQEUWKAAwOIWQQEUmIwCAGsyoWKhKIACAIt7AAVQYDIKAKzJhIqFogAKACzuARRAgckoALAmEyoWigIoALC4B1AABSajAMCaTKhYKAqgAMDiHkABFJiMAgBrMqFioSiAAv8DdppwC5bsbOgAAAAASUVORK5CYII=
;file_total_lines: 85405
;estimated_time(s): 13765.550000000001
;nozzle_temperature(°C): 222
;build_plate_temperature(°C): 65
;work_speed(mm/minute): 3600
;max_x(mm): 36.20642852783203
;max_y(mm): 17.984220504760742
;max_z(mm): 115.36944580078125
;min_x(mm): -36.20642852783203
;min_y(mm): -17.984220504760742
;min_z(mm): 0

;Header End

; G-code for 3dp engraving
; Generated by Snapmaker Luban 3.15.0
; Sat Jun 26 2021 15:1:42

M82 ;absolute extrusion mode
;Start GCode begin
M104 S222
M140 S65
G28 ;home
G90 ;absolute positioning
G1 X-10 Y-10 F3000
G1 Z0 F1800
M109 S222;Wait for Hotend Temperature
M190 S65;Wait for Bed Temperature
G92 E0
G1 E20 F200
G92 E0
;Start GCode end
G92 E0
G1 F1500 E-6.5
;LAYER_COUNT:577
;LAYER:0
M107
G0 F1800 X24.492 Y41.414 Z0.3
;TYPE:SKIRT
G1 F1500 E0
G1 F1080 X24.975 Y41.179 E0.0268
G1 X25.486 Y41.019 E0.05351
G1 X26.016 Y40.936 E0.08028
G1 X26.303 Y40.925 E0.09461
G1 X98.697 Y40.926 E3.70636
G1 X99.232 Y40.966 E3.73312
G1 X99.755 Y41.085 E3.75988
G1 X100.254 Y41.28 E3.78661
G1 X100.719 Y41.548 E3.81339
G1 X101.139 Y41.881 E3.84013
G1 X101.505 Y42.273 E3.86688
G1 X101.808 Y42.715 E3.89362
G1 X102.043 Y43.198 E3.92042
G1 X102.203 Y43.709 E3.94713
G1 X102.286 Y44.239 E3.9739
G1 X102.297 Y44.526 E3.98822
G1 X102.297 Y80.475 E5.78173
G1 X102.257 Y81.01 E5.80849
G1 X102.138 Y81.533 E5.83525
G1 X101.943 Y82.032 E5.86198
G1 X101.675 Y82.497 E5.88876
G1 X101.342 Y82.917 E5.9155
G1 X100.95 Y83.283 E5.94225
G1 X100.508 Y83.586 E5.96899
G1 X100.025 Y83.821 E5.99579
G1 X99.514 Y83.981 E6.0225
G1 X98.984 Y84.064 E6.04927
G1 X98.697 Y84.075 E6.06359
G1 X26.303 Y84.075 E9.67535
G1 X25.768 Y84.035 E9.70211
G1 X25.245 Y83.916 E9.72887
G1 X24.746 Y83.721 E9.7556
G1 X24.281 Y83.453 E9.78238
G1 X23.861 Y83.12 E9.80912
G1 X23.495 Y82.728 E9.83587
G1 X23.192 Y82.286 E9.86261
G1 X22.957 Y81.803 E9.88941
G1 X22.797 Y81.292 E9.91612
G1 X22.714 Y80.762 E9.94288
G1 X22.703 Y80.475 E9.95721
G1 X22.703 Y44.525 E11.75077
G1 X22.743 Y43.99 E11.77753
G1 X22.862 Y43.467 E11.80429
G1 X23.057 Y42.968 E11.83102
G1 X23.325 Y42.503 E11.8578
G1 X23.658 Y42.083 E11.88454
G1 X24.05 Y41.717 E11.91129
G1 X24.492 Y41.414 E11.93803
G0 F1800 X24.872 Y41.663
G1 F1080 X25.34 Y41.473 E11.96323
G1 X25.833 Y41.36 E11.98846
G1 X26.303 Y41.325 E12.01198
G1 X98.697 Y41.326 E15.62373
G1 X99.201 Y41.366 E15.64895
G1 X99.692 Y41.485 E15.67416
G1 X100.159 Y41.68 E15.6994
G1 X100.589 Y41.945 E15.7246
G1 X100.972 Y42.275 E15.74983
G1 X101.298 Y42.662 E15.77507
G1 X101.559 Y43.095 E15.80029
G1 X101.749 Y43.563 E15.82549
G1 X101.862 Y44.056 E15.85073
G1 X101.897 Y44.526 E15.87424
G1 X101.897 Y80.475 E17.66774
G1 X101.857 Y80.979 E17.69297
G1 X101.738 Y81.47 E17.71817
G1 X101.544 Y81.937 E17.7434
G1 X101.278 Y82.367 E17.76863
G1 X100.948 Y82.75 E17.79385
G1 X100.561 Y83.076 E17.81909
G1 X100.128 Y83.337 E17.84432
G1 X99.66 Y83.527 E17.86952
G1 X99.167 Y83.64 E17.89475
G1 X98.697 Y83.675 E17.91826
G1 X26.303 Y83.675 E21.53002
G1 X25.799 Y83.635 E21.55524
G1 X25.308 Y83.516 E21.58044
G1 X24.841 Y83.322 E21.60567
G1 X24.411 Y83.056 E21.6309
G1 X24.028 Y82.726 E21.65612
G1 X23.702 Y82.339 E21.68137
G1 X23.441 Y81.906 E21.70659
G1 X23.251 Y81.438 E21.73179
G1 X23.138 Y80.945 E21.75702
G1 X23.103 Y80.475 E21.78054
G1 X23.103 Y44.525 E23.57409
G1 X23.143 Y44.021 E23.59931
G1 X23.262 Y43.53 E23.62452
G1 X23.456 Y43.063 E23.64975
G1 X23.722 Y42.633 E23.67497
G1 X24.052 Y42.25 E23.7002
G1 X24.439 Y41.924 E23.72544
G1 X24.872 Y41.663 E23.75066
G1 F1500 E17.25066
;MESH:/Users/x/Library/Application Support/snapmaker-luban/Tmp/alphacasetest1 2_01999088.stl
G0 F1800 X26.908 Y43.851
G0 X26.908 Y45.13
G0 X98.036 Y79.814
G0 X98.106 Y79.884
;TYPE:WALL-INNER
G1 F1500 E23.75066
G1 F1080 X26.894 Y79.884 E27.30345
G1 X26.894 Y45.116 E29.03803
G1 X98.106 Y45.116 E32.59081
G1 X98.106 Y79.884 E34.32539
G0 F1800 X98.506 Y80.284
;TYPE:WALL-OUTER
G1 F1080 X26.494 Y80.284 E37.91808
G1 X26.494 Y44.716 E39.69258
G1 X98.506 Y44.716 E43.28527
G1 X98.506 Y80.284 E45.05977
G0 F1800 X98.306 Y80.284
G0 X97.716 Y79.494
;TYPE:SKIN
G1 F1080 X27.284 Y79.494 E48.57363
G1 X27.284 Y45.506 E50.2693
G1 X97.716 Y45.506 E53.78317
G1 X97.716 Y79.494 E55.47884
G0 F1800 X97.535 Y46.058
G1 F1080 X97.163 Y45.686 E55.50508
G0 F1800 X96.597 Y45.686
G1 F1080 X97.535 Y46.623 E55.57123
G0 F1800 X97.535 Y47.189
G1 F1080 X96.032 Y45.686 E55.67727
G0 F1800 X95.466 Y45.686
G1 F1080 X97.535 Y47.755 E55.82325
G0 F1800 X97.535 Y48.32
G1 F1080 X94.9 Y45.686 E56.00913
G0 F1800 X94.335 Y45.686
G1 F1080 X97.535 Y48.886 E56.23491
G0 F1800 X97.535 Y49.452
G1 F1080 X93.769 Y45.686 E56.50062
G0 F1800 X93.203 Y45.686
G1 F1080 X97.535 Y50.017 E56.80623
G0 F1800 X97.535 Y50.583
G1 F1080 X92.638 Y45.686 E57.15174
G0 F1800 X92.072 Y45.686
G1 F1080 X97.535 Y51.149 E57.53719
G0 F1800 X97.535 Y51.714
G1 F1080 X91.506 Y45.686 E57.96253
G0 F1800 X90.941 Y45.686
G1 F1080 X97.535 Y52.28 E58.42777
G0 F1800 X97.535 Y52.846
G1 F1080 X90.375 Y45.686 E58.93295
G0 F1800 X89.809 Y45.686
G1 F1080 X97.535 Y53.412 E59.47806
G0 F1800 X97.535 Y53.977
G1 F1080 X89.243 Y45.686 E60.06307
G0 F1800 X88.678 Y45.686
G1 F1080 X97.535 Y54.543 E60.68798
G0 F1800 X97.535 Y55.109
G1 F1080 X88.112 Y45.686 E61.35282
G0 F1800 X87.546 Y45.686
G1 F1080 X97.535 Y55.674 E62.05756
G0 F1800 X97.535 Y56.24
G1 F1080 X86.981 Y45.686 E62.80221
G0 F1800 X86.415 Y45.686
G1 F1080 X97.535 Y56.806 E63.58678
G0 F1800 X97.535 Y57.371
G1 F1080 X85.849 Y45.686 E64.41126
G0 F1800 X85.284 Y45.686
G1 F1080 X97.535 Y57.937 E65.27563
G0 F1800 X97.535 Y58.503
G1 F1080 X84.718 Y45.686 E66.17994
G0 F1800 X84.152 Y45.686
G1 F1080 X97.535 Y59.068 E67.12415
G0 F1800 X97.535 Y59.634
G1 F1080 X83.587 Y45.686 E68.10825
G0 F1800 X83.021 Y45.686
G1 F1080 X97.535 Y60.2 E69.1323
G0 F1800 X97.535 Y60.765
G1 F1080 X82.455 Y45.686 E70.19624
G0 F1800 X81.89 Y45.686
G1 F1080 X97.535 Y61.331 E71.30007
G0 F1800 X97.535 Y61.897
G1 F1080 X81.324 Y45.686 E72.44385
G0 F1800 X80.758 Y45.686
G1 F1080 X97.535 Y62.462 E73.62752
G0 F1800 X97.535 Y63.028
G1 F1080 X80.192 Y45.686 E74.85113
G0 F1800 X79.627 Y45.686
G1 F1080 X97.535 Y63.594 E76.11463
G0 F1800 X97.535 Y64.16
G1 F1080 X79.061 Y45.686 E77.41807
G0 F1800 X78.495 Y45.686
G1 F1080 X97.535 Y64.725 E78.76141
G0 F1800 X97.535 Y65.291
G1 F1080 X77.93 Y45.686 E80.14465
G0 F1800 X77.364 Y45.686
G1 F1080 X97.535 Y65.857 E81.56783
G0 F1800 X97.535 Y66.422
G1 F1080 X76.798 Y45.686 E83.0309
G0 F1800 X76.233 Y45.686
G1 F1080 X97.535 Y66.988 E84.53387
G0 F1800 X97.535 Y67.554
G1 F1080 X75.667 Y45.686 E86.07677
G0 F1800 X75.101 Y45.686
G1 F1080 X97.535 Y68.119 E87.65958
G0 F1800 X97.535 Y68.685
G1 F1080 X74.536 Y45.686 E89.28228
G0 F1800 X73.97 Y45.686
G1 F1080 X97.535 Y69.251 E90.94492
G0 F1800 X97.535 Y69.816
G1 F1080 X73.404 Y45.686 E92.64746
G0 F1800 X72.839 Y45.686
G1 F1080 X97.535 Y70.382 E94.38989
G0 F1800 X97.535 Y70.948
G1 F1080 X72.273 Y45.686 E96.17226
G0 F1800 X71.707 Y45.686
G1 F1080 X97.535 Y71.513 E97.99453
G0 F1800 X97.535 Y72.079
G1 F1080 X71.142 Y45.686 E99.8567
G0 F1800 X70.576 Y45.686
G1 F1080 X97.535 Y72.645 E101.75881
G0 F1800 X97.535 Y73.211
G1 F1080 X70.01 Y45.686 E103.70084
G0 F1800 X69.444 Y45.686
G1 F1080 X97.535 Y73.776 E105.68278
G0 F1800 X97.535 Y74.342
G1 F1080 X68.879 Y45.686 E107.70462
G0 F1800 X68.313 Y45.686
G1 F1080 X97.535 Y74.908 E109.76639
G0 F1800 X97.535 Y75.473
G1 F1080 X67.747 Y45.686 E111.86805
G0 F1800 X67.182 Y45.686
G1 F1080 X97.535 Y76.039 E114.00962
G0 F1800 X97.535 Y76.605
G1 F1080 X66.616 Y45.686 E116.19113
G0 F1800 X66.05 Y45.686
G1 F1080 X97.535 Y77.17 E118.41253
G0 F1800 X97.535 Y77.736
G1 F1080 X65.485 Y45.686 E120.67383
G0 F1800 X64.919 Y45.686
G1 F1080 X97.535 Y78.302 E122.97506
G0 F1800 X97.535 Y78.867
G1 F1080 X64.353 Y45.686 E125.3162
G0 F1800 X63.788 Y45.686
G1 F1080 X97.415 Y79.313 E127.68876
G0 F1800 X96.849 Y79.313
G1 F1080 X63.222 Y45.686 E130.06133
G0 F1800 X62.656 Y45.686
G1 F1080 X96.283 Y79.313 E132.4339
G0 F1800 X95.718 Y79.313
G1 F1080 X62.09 Y45.685 E134.80653
G0 F1800 X61.524 Y45.685
G1 F1080 X95.152 Y79.313 E137.17917
G0 F1800 X94.586 Y79.313
G1 F1080 X60.958 Y45.685 E139.55181
G0 F1800 X60.393 Y45.685
G1 F1080 X94.021 Y79.313 E141.92444
G0 F1800 X93.455 Y79.313
G1 F1080 X59.827 Y45.685 E144.29708
G0 F1800 X59.261 Y45.685
G1 F1080 X92.889 Y79.313 E146.66972
G0 F1800 X92.324 Y79.313
G1 F1080 X58.696 Y45.685 E149.04235
G0 F1800 X58.13 Y45.685
G1 F1080 X91.758 Y79.313 E151.41499
G0 F1800 X91.192 Y79.313
G1 F1080 X57.564 Y45.685 E153.78763
G0 F1800 X56.999 Y45.685
G1 F1080 X90.627 Y79.313 E156.16027
G0 F1800 X90.061 Y79.313
G1 F1080 X56.433 Y45.685 E158.5329
G0 F1800 X55.867 Y45.685
G1 F1080 X89.495 Y79.313 E160.90554
G0 F1800 X88.929 Y79.313
G1 F1080 X55.302 Y45.685 E163.27814
G0 F1800 X54.736 Y45.685
G1 F1080 X88.364 Y79.313 E165.65078
G0 F1800 X87.798 Y79.313
G1 F1080 X54.17 Y45.685 E168.02342
G0 F1800 X53.605 Y45.685
G1 F1080 X87.232 Y79.313 E170.39602
G0 F1800 X86.667 Y79.313
G1 F1080 X53.039 Y45.685 E172.76865
G0 F1800 X52.473 Y45.685
G1 F1080 X86.101 Y79.313 E175.14129
G0 F1800 X85.535 Y79.313
G1 F1080 X51.908 Y45.685 E177.51389
G0 F1800 X51.342 Y45.685
G1 F1080 X84.97 Y79.313 E179.88653
G0 F1800 X84.404 Y79.313
G1 F1080 X50.776 Y45.685 E182.25917
G0 F1800 X50.21 Y45.685
G1 F1080 X83.838 Y79.313 E184.6318
G0 F1800 X83.273 Y79.313
G1 F1080 X49.645 Y45.685 E187.00444
G0 F1800 X49.079 Y45.685
G1 F1080 X82.707 Y79.313 E189.37708
G0 F1800 X82.141 Y79.313
G1 F1080 X48.513 Y45.685 E191.74972
G0 F1800 X47.948 Y45.685
G1 F1080 X81.576 Y79.313 E194.12235
G0 F1800 X81.01 Y79.313
G1 F1080 X47.382 Y45.685 E196.49499
G0 F1800 X46.816 Y45.685
G1 F1080 X80.444 Y79.313 E198.86763
G0 F1800 X79.879 Y79.313
G1 F1080 X46.251 Y45.685 E201.24026
G0 F1800 X45.685 Y45.685
G1 F1080 X79.313 Y79.313 E203.6129
G0 F1800 X78.747 Y79.313
G1 F1080 X45.119 Y45.685 E205.98554
G0 F1800 X44.554 Y45.685
G1 F1080 X78.181 Y79.313 E208.35814
G0 F1800 X77.616 Y79.313
