;FLAVOR:Marlin
;TIME:13997
;Filament used: 6.76356m
;Layer height: 0.16
;MINX:17.874
;MINY:17.344
;MINZ:0.2
;MAXX:107.133
;MAXY:107.659
;MAXZ:47.08
;Generated with Cura_SteamEngine 4.12.1
M82 ;absolute extrusion mode
M104 S208.0 ;Set Hotend Temperature
M140 S58.0 ;Set Bed Temperature
G28 ;home
G90 ;absolute positioning
G1 X-10 Y-10 F3000 ;Move to corner 
G1 Z0 F1800 ;Go to zero offset
M109 S208.0 ;Wait for Hotend Temperature
M190 S58.0 ;Wait for Bed Temperature
G92 E0 ;Zero set extruder position
G1 E20 F200 ;Feed filament to clear nozzle
G92 E0 ;Zero set extruder position
G92 E0
G92 E0
G1 F1500 E-6.5
;LAYER_COUNT:294
;LAYER:0
M107
G0 F1440 X39.533 Y51.946 Z0.2
;TYPE:SUPPORT
G1 F1500 E0
G1 F1080 X46.473 Y51.946 E0.23083
G1 X46.473 Y67.546 E0.74968
G1 X39.533 Y67.546 E0.98051
G1 X39.533 Y51.946 E1.49937
G0 F1440 X39.9 Y52.106
G1 F1080 X39.9 Y67.386 E2.00758
G0 F1440 X39.692 Y66.5
G1 F1080 X46.312 Y66.5 E2.22776
G0 F1440 X45.22 Y67.386
G1 F1080 X45.22 Y52.106 E2.73598
G0 F1440 X46.313 Y53.2
G1 F1080 X39.693 Y53.2 E2.95616
G0 F1440 X39.693 Y55.86
G1 F1080 X46.313 Y55.86 E3.17634
G0 F1440 X46.313 Y58.52
G1 F1080 X39.693 Y58.52 E3.39652
G0 F1440 X39.692 Y61.18
G1 F1080 X46.312 Y61.18 E3.61671
G0 F1440 X46.312 Y63.84
G1 F1080 X39.692 Y63.84 E3.83689
G0 F1440 X42.56 Y67.386
G1 F1080 X42.56 Y52.106 E4.3451
G1 F1500 E-2.1549
;MESH:all-fixed.stl
G0 F1440 X39.298 Y52.106
G0 X38.013 Y52.106
G0 X37.633 Y68.746
;TYPE:WALL-INNER
G1 F1500 E4.3451
G1 F1080 X18.714 Y68.746 E4.97435
G1 X18.714 Y50.746 E5.57303
G1 X37.633 Y50.746 E6.20228
G1 X37.633 Y68.746 E6.80097
G0 F1440 X38.033 Y69.146
G1 F1080 X18.314 Y69.146 E7.45682
G1 X18.314 Y50.346 E8.08211
G1 X38.033 Y50.346 E8.73797
G1 X38.033 Y69.146 E9.36326
G0 F1440 X38.433 Y69.546
;TYPE:WALL-OUTER
G1 F1080 X17.914 Y69.546 E10.04572
G1 X17.914 Y49.946 E10.69762
G1 X38.433 Y49.946 E11.38009
G1 X38.433 Y69.546 E12.03199
G0 F1440 X38.233 Y69.546
G0 X37.963 Y69.076
G0 X37.453 Y51.029
;TYPE:SKIN
G1 F1080 X37.349 Y50.925 E12.03688
G0 F1440 X36.783 Y50.925
G1 F1080 X37.453 Y51.595 E12.06839
G0 F1440 X37.453 Y52.161
G1 F1080 X36.218 Y50.925 E12.12651
G0 F1440 X35.652 Y50.925
G1 F1080 X37.453 Y52.726 E12.21122
G0 F1440 X37.453 Y53.292
G1 F1080 X35.086 Y50.925 E12.32256
G0 F1440 X34.52 Y50.925
G1 F1080 X37.453 Y53.858 E12.46052
G0 F1440 X37.453 Y54.423
G1 F1080 X33.955 Y50.925 E12.62505
G0 F1440 X33.389 Y50.925
G1 F1080 X37.453 Y54.989 E12.81621
G0 F1440 X37.453 Y55.555
G1 F1080 X32.823 Y50.925 E13.03399
G0 F1440 X32.258 Y50.925
G1 F1080 X37.453 Y56.12 E13.27835
G0 F1440 X37.453 Y56.686
G1 F1080 X31.692 Y50.925 E13.54933
G0 F1440 X31.126 Y50.925
G1 F1080 X37.453 Y57.252 E13.84693
G0 F1440 X37.453 Y57.818
G1 F1080 X30.561 Y50.925 E14.17113
G0 F1440 X29.995 Y50.925
G1 F1080 X37.453 Y58.383 E14.52193
G0 F1440 X37.453 Y58.949
G1 F1080 X29.429 Y50.925 E14.89936
G0 F1440 X28.864 Y50.925
G1 F1080 X37.453 Y59.515 E15.30338
G0 F1440 X37.453 Y60.08
G1 F1080 X28.298 Y50.925 E15.73401
G0 F1440 X27.732 Y50.925
G1 F1080 X37.453 Y60.646 E16.19125
G0 F1440 X37.453 Y61.212
G1 F1080 X27.167 Y50.925 E16.6751
G0 F1440 X26.601 Y50.925
G1 F1080 X37.453 Y61.777 E17.18554
G0 F1440 X37.453 Y62.343
G1 F1080 X26.035 Y50.925 E17.72261
G0 F1440 X25.469 Y50.925
G1 F1080 X37.453 Y62.909 E18.2863
G0 F1440 X37.453 Y63.474
G1 F1080 X24.904 Y50.925 E18.87657
G0 F1440 X24.338 Y50.925
G1 F1080 X37.453 Y64.04 E19.49346
G0 F1440 X37.453 Y64.606
G1 F1080 X23.772 Y50.925 E20.13697
G0 F1440 X23.207 Y50.925
G1 F1080 X37.453 Y65.171 E20.80706
G0 F1440 X37.453 Y65.737
G1 F1080 X22.641 Y50.925 E21.50377
G0 F1440 X22.075 Y50.925
G1 F1080 X37.453 Y66.303 E22.2271
G0 F1440 X37.453 Y66.868
G1 F1080 X21.51 Y50.925 E22.97701
G0 F1440 X20.944 Y50.925
G1 F1080 X37.453 Y67.434 E23.75354
G0 F1440 X37.453 Y68
G1 F1080 X20.378 Y50.925 E24.5567
G0 F1440 X19.813 Y50.925
G1 F1080 X37.452 Y68.565 E25.38641
G0 F1440 X36.886 Y68.565
G1 F1080 X19.247 Y50.925 E26.21612
G0 F1440 X18.893 Y51.137
G1 F1080 X36.321 Y68.565 E27.03588
G0 F1440 X35.755 Y68.565
G1 F1080 X18.893 Y51.703 E27.82901
G0 F1440 X18.893 Y52.269
G1 F1080 X35.189 Y68.565 E28.59553
G0 F1440 X34.624 Y68.565
G1 F1080 X18.893 Y52.835 E29.33544
G0 F1440 X18.893 Y53.4
G1 F1080 X34.058 Y68.565 E30.04876
G0 F1440 X33.492 Y68.565
G1 F1080 X18.893 Y53.966 E30.73545
G0 F1440 X18.893 Y54.532
G1 F1080 X32.927 Y68.565 E31.39554
G0 F1440 X32.361 Y68.565
G1 F1080 X18.893 Y55.097 E32.02903
G0 F1440 X18.893 Y55.663
G1 F1080 X31.795 Y68.565 E32.6359
G0 F1440 X31.23 Y68.565
G1 F1080 X18.893 Y56.229 E33.21618
G0 F1440 X18.893 Y56.794
G1 F1080 X30.664 Y68.565 E33.76985
G0 F1440 X30.098 Y68.565
G1 F1080 X18.893 Y57.36 E34.2969
G0 F1440 X18.893 Y57.926
G1 F1080 X29.533 Y68.565 E34.79735
G0 F1440 X28.967 Y68.565
G1 F1080 X18.893 Y58.491 E35.2712
G0 F1440 X18.893 Y59.057
G1 F1080 X28.401 Y68.565 E35.71842
G0 F1440 X27.835 Y68.565
G1 F1080 X18.893 Y59.623 E36.13903
G0 F1440 X18.893 Y60.188
G1 F1080 X27.27 Y68.565 E36.53306
G0 F1440 X26.704 Y68.565
G1 F1080 X18.893 Y60.754 E36.90046
G0 F1440 X18.893 Y61.32
G1 F1080 X26.138 Y68.565 E37.24124
G0 F1440 X25.573 Y68.565
G1 F1080 X18.893 Y61.885 E37.55545
G0 F1440 X18.893 Y62.451
G1 F1080 X25.007 Y68.565 E37.84303
G0 F1440 X24.441 Y68.565
G1 F1080 X18.893 Y63.017 E38.104
G0 F1440 X18.893 Y63.583
G1 F1080 X23.876 Y68.565 E38.33836
G0 F1440 X23.31 Y68.565
G1 F1080 X18.893 Y64.148 E38.54612
G0 F1440 X18.893 Y64.714
G1 F1080 X22.744 Y68.565 E38.72726
G0 F1440 X22.179 Y68.565
G1 F1080 X18.893 Y65.28 E38.8818
G0 F1440 X18.893 Y65.845
G1 F1080 X21.613 Y68.565 E39.00974
G0 F1440 X21.047 Y68.565
G1 F1080 X18.893 Y66.411 E39.11106
G0 F1440 X18.893 Y66.977
G1 F1080 X20.482 Y68.565 E39.18577
G0 F1440 X19.916 Y68.565
G1 F1080 X18.893 Y67.542 E39.23389
G0 F1440 X18.893 Y68.108
G1 F1080 X19.35 Y68.565 E39.25539
G1 F1500 E32.75539
;MESH:swing.stl
G0 F1440 X38.019 Y69.132
G0 X38.019 Y70.411
G0 X49.147 Y81.675
G0 X50.072 Y82.565
G0 X56.945 Y94.497
G0 X57.331 Y95.026
G0 X57.787 Y95.497
G0 X60.052 Y96.982
;TYPE:WALL-INNER
G1 F1500 E39.25539
G1 F1080 X60.752 Y97.054 E39.27879
G1 X61.455 Y97.029 E39.30219
G1 X62.151 Y96.905 E39.3257
G1 X62.821 Y96.685 E39.34916
G1 X63.453 Y96.375 E39.37257
G1 X64.036 Y95.981 E39.39598
G1 X64.56 Y95.507 E39.41948
G1 X65.011 Y94.966 E39.4429
G1 X65.383 Y94.369 E39.4663
G1 X65.67 Y93.722 E39.48984
G1 X65.861 Y93.044 E39.51327
G1 X65.959 Y92.348 E39.53664
G1 X65.958 Y91.642 E39.56013
G1 X65.858 Y90.945 E39.58355
G1 X65.664 Y90.268 E39.60697
G1 X65.376 Y89.624 E39.63043
G1 X65 Y89.026 E39.65393
G1 X64.546 Y88.489 E39.67732
G1 X64.021 Y88.02 E39.70073
G1 X63.437 Y87.626 E39.72416
G1 X62.804 Y87.318 E39.74758
G1 X62.141 Y87.102 E39.77077
G1 X61.437 Y86.98 E39.79453
G1 X60.732 Y86.956 E39.81799
G1 X60.033 Y87.031 E39.84138
G1 X59.348 Y87.203 E39.86487
G1 X58.694 Y87.469 E39.88835
G1 X58.086 Y87.822 E39.91173
G1 X57.539 Y88.25 E39.93483
G1 X57.043 Y88.765 E39.95861
G1 X56.629 Y89.336 E39.98207
G1 X56.299 Y89.958 E40.00549
G1 X56.061 Y90.614 E40.0287
G1 X55.915 Y91.311 E40.05239
G1 X55.867 Y92.015 E40.07586
G1 X55.917 Y92.717 E40.09926
G1 X56.063 Y93.399 E40.12246
G1 X56.308 Y94.069 E40.14619
G1 X56.638 Y94.689 E40.16955
G1 X57.054 Y95.259 E40.19302
G1 X57.545 Y95.766 E40.21649
G1 X58.102 Y96.199 E40.23996
G1 X58.712 Y96.55 E40.26337
G1 X59.368 Y96.814 E40.28689
G1 X60.052 Y96.982 E40.31031
G0 F1440 X62.062 Y96.554
G0 X62.685 Y96.351
G0 X63.272 Y96.062
G0 X63.813 Y95.696
G0 X64.299 Y95.256
G0 X64.718 Y94.754
G0 X65.064 Y94.199
G0 X65.33 Y93.599
G0 X67.919 Y79.844
G1 F1080 X69.219 Y80.73 E40.36264
G1 X70.022 Y81.368 E40.39675
G1 X70.756 Y82.047 E40.43001
G1 X71.468 Y82.804 E40.46457
G1 X72.109 Y83.594 E40.49841
G1 X72.676 Y84.407 E40.53138
G1 X73.21 Y85.302 E40.56604
G1 X73.661 Y86.206 E40.59964
G1 X74.05 Y87.152 E40.63366
G1 X74.365 Y88.107 E40.66711
G1 X74.614 Y89.104 E40.70129
G1 X74.786 Y90.087 E40.73448
G1 X74.888 Y91.101 E40.76837
G1 X74.917 Y92.115 E40.80211
G1 X74.87 Y93.155 E40.83674
G1 X74.752 Y94.153 E40.87016
G1 X74.56 Y95.155 E40.9041
G1 X74.306 Y96.1 E40.93664
G1 X73.958 Y97.099 E40.97183
G1 X73.554 Y98.034 E41.00571
G1 X73.082 Y98.937 E41.03959
G1 X72.557 Y99.786 E41.0728
G1 X71.954 Y100.62 E41.10703
G1 X71.308 Y101.388 E41.1404
G1 X70.595 Y102.121 E41.17441
G1 X69.834 Y102.798 E41.20829
G1 X69.022 Y103.421 E41.24233
G1 X68.183 Y103.972 E41.27572
G1 X67.285 Y104.472 E41.3099
G1 X66.363 Y104.902 E41.34374
G1 X65.413 Y105.263 E41.37754
G1 X64.444 Y105.553 E41.41118
G1 X63.451 Y105.772 E41.445
G1 X62.429 Y105.922 E41.47936
G1 X61.433 Y105.995 E41.51258
G1 X60.404 Y105.995 E41.5468
G1 X59.408 Y105.922 E41.58002
G1 X58.386 Y105.772 E41.61437
G1 X57.394 Y105.553 E41.64816
G1 X56.425 Y105.263 E41.6818
G1 X55.452 Y104.894 E41.71641
G1 X54.574 Y104.484 E41.74864
G1 X53.656 Y103.973 E41.78359
G1 X52.825 Y103.427 E41.81666
G1 X52.007 Y102.8 E41.85094
G1 X51.241 Y102.12 E41.88501
G1 X50.53 Y101.388 E41.91895
G1 X49.884 Y100.62 E41.95233
G1 X49.281 Y99.786 E41.98656
G1 X48.763 Y98.947 E42.01935
G1 X48.276 Y98.015 E42.05433
G1 X47.879 Y97.099 E42.08753
G1 X47.531 Y96.1 E42.12272
G1 X47.278 Y95.156 E42.15522
G1 X47.086 Y94.153 E42.18919
G1 X46.968 Y93.155 E42.22261
G1 X46.92 Y92.114 E42.25727
G1 X46.949 Y91.102 E42.29095
G1 X47.05 Y90.102 E42.32437
G1 X47.227 Y89.09 E42.35855
G1 X47.469 Y88.118 E42.39186
G1 X47.793 Y87.138 E42.42619
G1 X48.179 Y86.201 E42.4599
G1 X48.631 Y85.296 E42.49354
G1 X49.157 Y84.413 E42.52773
G1 X49.739 Y83.577 E42.56161
G1 X50.356 Y82.817 E42.59417
G1 X51.078 Y82.047 E42.62927
G1 X51.807 Y81.376 E42.66223
G1 X52.63 Y80.725 E42.69713
G1 X53.919 Y79.844 E42.74906
G1 X53.919 Y19.005 E44.77257
G1 X67.919 Y19.005 E45.23821
G1 X67.919 Y79.844 E47.26173
G0 F1440 X68.319 Y79.633
G1 F1080 X69.462 Y80.413 E47.30775
G1 X70.281 Y81.063 E47.34253
G1 X71.044 Y81.768 E47.37708
G1 X71.772 Y82.543 E47.41245
G1 X72.427 Y83.351 E47.44704
G1 X73.016 Y84.195 E47.48127
G1 X73.56 Y85.108 E47.51662
G1 X74.024 Y86.037 E47.55116
G1 X74.426 Y87.013 E47.58627
G1 X74.749 Y87.995 E47.62065
G1 X75.006 Y89.022 E47.65586
G1 X75.183 Y90.038 E47.69016
G1 X75.288 Y91.078 E47.72493
G1 X75.318 Y92.121 E47.75963
G1 X75.27 Y93.179 E47.79486
G1 X75.147 Y94.219 E47.82969
G1 X74.951 Y95.24 E47.86427
G1 X74.684 Y96.232 E47.89844
G1 X74.333 Y97.239 E47.93391
G1 X73.918 Y98.2 E47.96872
G1 X73.428 Y99.137 E48.00389
G1 X72.889 Y100.009 E48.03799
G1 X72.27 Y100.865 E48.07312
G1 X71.599 Y101.663 E48.1078
G1 X70.873 Y102.41 E48.14245
G1 X70.097 Y103.1 E48.17698
G1 X69.248 Y103.751 E48.21257
G1 X68.392 Y104.313 E48.24663
G1 X67.459 Y104.833 E48.28215
G1 X66.523 Y105.269 E48.3165
G1 X65.544 Y105.641 E48.35133
G1 X64.539 Y105.942 E48.38622
G1 X63.525 Y106.166 E48.42076
G1 X62.475 Y106.32 E48.45606
G1 X61.448 Y106.395 E48.49031
G1 X60.389 Y106.395 E48.52553
G1 X59.362 Y106.32 E48.55978
G1 X58.312 Y106.166 E48.59507
G1 X57.299 Y105.942 E48.62958
G1 X56.294 Y105.641 E48.66447
G1 X55.303 Y105.265 E48.69973
G1 X54.384 Y104.836 E48.73346
G1 X53.451 Y104.317 E48.76897
G1 X52.59 Y103.751 E48.80324
G1 X51.752 Y103.109 E48.83835
G1 X50.964 Y102.409 E48.87341
G1 X50.239 Y101.663 E48.90801
G1 X49.568 Y100.865 E48.94269
G1 X48.949 Y100.009 E48.97782
G1 X48.41 Y99.137 E49.01192
G1 X47.92 Y98.199 E49.04711
G1 X47.504 Y97.239 E49.08191
G1 X47.153 Y96.232 E49.11738
G1 X46.887 Y95.241 E49.15151
G1 X46.691 Y94.219 E49.18612
G1 X46.568 Y93.179 E49.22095
G1 X46.52 Y92.121 E49.25618
G1 X46.549 Y91.078 E49.29088
G1 X46.653 Y90.047 E49.32535
G1 X46.835 Y89.008 E49.36043
G1 X47.085 Y88.006 E49.39478
G1 X47.417 Y87 E49.43001
G1 X47.816 Y86.032 E49.46484
G1 X48.281 Y85.102 E49.49942
G1 X48.817 Y84.201 E49.53429
G1 X49.415 Y83.342 E49.5691
G1 X50.057 Y82.552 E49.60296
G1 X50.797 Y81.762 E49.63896
G1 X51.548 Y81.071 E49.6729
G1 X52.391 Y80.404 E49.70866
G1 X53.519 Y79.633 E49.7541
G1 X53.519 Y18.605 E51.7839
G1 X68.319 Y18.605 E52.27615
G1 X68.319 Y79.633 E54.30595
G0 F1440 X68.231 Y79.679
G0 X65.508 Y92.97
G0 X65.33 Y93.599
G0 X65.064 Y94.199
G0 X64.718 Y94.754
G0 X64.299 Y95.256
G0 X63.813 Y95.696
G0 X63.272 Y96.062
G0 X62.685 Y96.351
G0 X62.062 Y96.554
G0 X60.104 Y96.685
G0 X60.121 Y96.587
G1 F1080 X60.765 Y96.653 E54.32748
G1 X61.413 Y96.63 E54.34905
G1 X62.053 Y96.516 E54.37067
G1 X62.67 Y96.314 E54.39226
G1 X63.252 Y96.028 E54.41383
G1 X63.789 Y95.665 E54.43539
G1 X64.271 Y95.229 E54.45701
G1 X64.686 Y94.731 E54.47857
G1 X65.029 Y94.181 E54.50013
G1 X65.293 Y93.586 E54.52178
G1 X65.469 Y92.962 E54.54334
G1 X65.559 Y92.32 E54.5649
G1 X65.558 Y91.671 E54.58649
G1 X65.466 Y91.029 E54.60806
G1 X65.287 Y90.406 E54.62962
G1 X65.022 Y89.813 E54.65122
G1 X64.676 Y89.263 E54.67283
G1 X64.258 Y88.768 E54.69438
G1 X63.775 Y88.336 E54.71594
G1 X63.237 Y87.973 E54.73752
G1 X62.654 Y87.69 E54.75908
G1 X62.044 Y87.491 E54.78042
G1 X61.396 Y87.379 E54.80229
G1 X60.747 Y87.357 E54.82389
G1 X60.103 Y87.426 E54.84543
G1 X59.473 Y87.584 E54.86703
G1 X58.871 Y87.829 E54.88865
G1 X58.311 Y88.154 E54.91019
G1 X57.807 Y88.548 E54.93146
G1 X57.35 Y89.022 E54.95336
G1 X56.969 Y89.548 E54.97496
G1 X56.666 Y90.121 E54.99652
G1 X56.447 Y90.724 E55.01786
G1 X56.312 Y91.366 E55.03968
G1 X56.268 Y92.014 E55.06128
G1 X56.314 Y92.661 E55.08286
G1 X56.448 Y93.288 E55.10418
G1 X56.674 Y93.905 E55.12604
G1 X56.978 Y94.476 E55.14755
G1 X57.361 Y95.001 E55.16917
G1 X57.813 Y95.468 E55.19078
G1 X58.325 Y95.866 E55.21235
G1 X58.887 Y96.189 E55.23391
G1 X59.491 Y96.432 E55.25556
G1 X60.121 Y96.587 E55.27714
G0 F1440 X60.19 Y96.192
;TYPE:WALL-OUTER
G1 F1080 X60.778 Y96.252 E55.2968
G1 X61.371 Y96.231 E55.31654
G1 X61.955 Y96.127 E55.33627
G1 X62.519 Y95.943 E55.356
G1 X63.051 Y95.681 E55.37572
G1 X63.542 Y95.349 E55.39544
G1 X63.982 Y94.951 E55.41517
G1 X64.361 Y94.496 E55.43487
G1 X64.675 Y93.993 E55.45459
G1 X64.916 Y93.45 E55.47435
G1 X65.077 Y92.88 E55.49405
G1 X65.159 Y92.293 E55.51376
G1 X65.158 Y91.7 E55.53348
G1 X65.074 Y91.113 E55.55321
G1 X64.91 Y90.544 E55.5729
G1 X64.668 Y90.002 E55.59264
G1 X64.352 Y89.5 E55.61237
G1 X63.97 Y89.047 E55.63208
G1 X63.529 Y88.652 E55.65177
G1 X63.037 Y88.321 E55.6715
G1 X62.504 Y88.062 E55.6912
G1 X61.947 Y87.88 E55.71069
G1 X61.355 Y87.778 E55.73067
G1 X60.762 Y87.758 E55.75041
G1 X60.173 Y87.821 E55.77011
G1 X59.598 Y87.965 E55.78983
G1 X59.048 Y88.189 E55.80958
G1 X58.536 Y88.486 E55.82927
G1 X58.075 Y88.846 E55.84872
G1 X57.658 Y89.279 E55.86871
G1 X57.31 Y89.76 E55.88846
G1 X57.033 Y90.284 E55.90817
G1 X56.833 Y90.834 E55.92764
G1 X56.709 Y91.421 E55.94759
G1 X56.669 Y92.013 E55.96733
G1 X56.711 Y92.605 E55.98707
G1 X56.833 Y93.177 E56.00652
G1 X57.04 Y93.741 E56.0265
G1 X57.318 Y94.263 E56.04617
G1 X57.668 Y94.743 E56.06593
G1 X58.081 Y95.169 E56.08567
G1 X58.549 Y95.533 E56.10539
G1 X59.062 Y95.828 E56.12507
G1 X59.614 Y96.05 E56.14486
G1 X60.19 Y96.192 E56.16459
G0 F1440 X60.388 Y96.212
G0 X60.337 Y96.709
G0 X61.417 Y96.669
G0 X62.062 Y96.554
G0 X62.685 Y96.351
G0 X63.272 Y96.062
G0 X63.813 Y95.696
G0 X64.299 Y95.256
G0 X64.718 Y94.754
G0 X65.064 Y94.199
G0 X65.33 Y93.599
G0 X68.437 Y79.834
G0 X68.719 Y79.422
G1 F1080 X69.699 Y80.091 E56.20405
G1 X70.54 Y80.758 E56.23975
G1 X71.332 Y81.489 E56.2756
G1 X72.073 Y82.278 E56.3116
G1 X72.745 Y83.107 E56.3471
G1 X73.356 Y83.983 E56.38262
G1 X73.91 Y84.914 E56.41865
G1 X74.387 Y85.868 E56.45413
G1 X74.802 Y86.875 E56.49035
G1 X75.133 Y87.883 E56.52564
G1 X75.398 Y88.94 E56.56189
G1 X75.58 Y89.984 E56.59713
G1 X75.688 Y91.054 E56.6329
G1 X75.718 Y92.128 E56.66864
G1 X75.67 Y93.203 E56.70443
G1 X75.542 Y94.285 E56.74067
G1 X75.342 Y95.326 E56.77592
G1 X75.062 Y96.364 E56.81168
G1 X74.708 Y97.379 E56.84743
G1 X74.277 Y98.376 E56.88356
G1 X73.781 Y99.327 E56.91923
G1 X73.217 Y100.239 E56.9549
G1 X72.591 Y101.104 E56.99041
G1 X71.89 Y101.938 E57.02665
G1 X71.15 Y102.699 E57.06195
G1 X70.347 Y103.413 E57.09769
G1 X69.483 Y104.075 E57.13389
G1 X68.591 Y104.661 E57.16939
G1 X67.644 Y105.188 E57.20544
G1 X66.683 Y105.636 E57.2407
G1 X65.675 Y106.019 E57.27657
G1 X64.634 Y106.331 E57.31271
G1 X63.599 Y106.56 E57.34797
G1 X62.521 Y106.718 E57.38421
G1 X61.463 Y106.795 E57.41949
G1 X60.374 Y106.795 E57.45571
G1 X59.316 Y106.718 E57.49099
