;Header Start

;FLAVOR:Marlin
;TIME:6666
;Filament used: 0m
;Layer height: 0.15


;header_type: 3dp
;thumbnail: data:image/png;base64,iVBORw0KGgoAAAANSUhEUgAAASwAAACWCAYAAABkW7XSAAAIkklEQVR4Xu3dzXEUiRJF4R5XsAVbsAETsIEVhmAIKwxhMxMN8d6EBonKnyuIrvo6gl1mIp3MPlHquKC/vn379vfNCwEEEHgAAn8R1gNsyZeIAALfCRCWQ0AAgYchQFgPsypfKAIIEJYbQACBhyFAWP9Z1devX2+fP39+mAX6Qs9L4O3bt7c3b96c9xscfGeE9YywPn78OECpBYEsgXfv3hHWf5ASFmFl32WmxQgQ1s8oCeuZ83r//n3s6AxCYErgw4cP09bT9hEWYZ32uB/9GyMsT1ilG75/hnX/8N0LgT9F4P5h+/1HQq+nBDxhPXMRhOVt8qcJENbzGyCsZ7jcYw2iDX/6LXvtv5+wCKv8DiCsMiqFr0TgnsG6//HyI+HhDRDWISIFr0yAsDxhlU/s/oG78GgZl8JXICCDRVjlsyKsMiqFr0SAsAirdVrCoy1cisMEZLAIq3VShNXCpThMgLAIq3VShNXCpThIQKThZZhyWC+wER4NvgONahEgLMJqHcy9WLShjUxDiABhEVb7lAirjUxDiIAMFmG1T4mw2sg0hAgQFmG1T0kWq41MQ4iADBZhtU+JsNrINIQIEBZhjU5JtGGETdOSAGER1uiECGuETdOSgNAoYY1OiLBG2DQtCRAWYY1OSHh0hE3TgoAM1q/hSbr/gg9hLd55WkcECIuwRodzb5LFGqPTOCQgg0VYw9MhrDE4jWMChEVY4+PxhDVGp3FIQKSBsIanc/v+uwn9V8ljfBoHBAiLsAZn82+LaMMKn+YmAcIirObJPC0nrBU+zU0CMliE1TwZwloB07wiQFiEtTogWawVPs0NAjJYx7AERw8YEdbxEanIECCsY46EdcBItOH4iFRkCMhgHXMkLMI6vhIVv4UAYR1jJizCOr4SFb+FgEjDMWbCOmAkPHp8RCoyBAjrmCNhEdbxlaj4LQQI6xgzYR0zugmPFiApWROQwTpGSFjHjAirwEjJngBhHTMkrGNG3/8B9P2zLC8EXouADFaNLGEVOBFWAZKSFQHCquEjrAIn4dECJCUrAoRVw0dYBU6EVYCkZEVAaLSGj7AKnAirAEnJioBIQw0fYRU4CY8WIClZESCsGj7CKnAirAIkJSsChFXDR1g1TrJYRU7KZgRksGrcCKvGibCKnJTNCBBWjRth1TgJjxY5KesTEGmoMyOsIivh0SIoZW0ChFVHRlhFVqINRVDK2gQIq46MsIqsCKsISlmbgNBoHRlhFVkRVhGUsjYBkYY6MsIqspLFKoJS1iZAWHVkhFVkRVhFUMraBAirjoyw6qxksRqslNYJyGDVWRFWnRVhNVgprRMgrDorwqqzEh5tsFJaIyDSUOP0vyrCavASHm3AUloiQFglTP8vIqwGL9GGBiylJQKEVcJEWD1MP6oJa0JNz68ICI327sMTVoMXYTVgKS0REGkoYfKE1cP0o1oWa0JNz68IEFbvPjxhNXgRVgOW0hIBwiph8oTVw/RvtV9bPyWn7zkCMli9u/CE1eMlPNrkpfzXBAirdyGE1eNFWE1eyl8mINLQvw7CajITHm0CU/4iAcLqHwdhNZmJNjSBKSes4A0QVhMmYTWBKX+RgNBo/zgIq8mMsJrAlBNW8AYIqwlTFqsJTPmLBGSw+sdBWE1mhNUEppywgjdAWAOYwqMDaFp+IiCD1T8Kwuozk8UaMNPyMwHC6l8FYfWZEdaAmZanBGSwZhdBWANuwqMDaFqeECCs2UEQ1oAbYQ2gaSGswA0Q1gCiLNYAmpYnBIRGZwdBWANuhDWApoWwAjdAWAOIhDWApuUJAaHR2UEQ1oCb8OgAmhbCCtwAYQ0hCo8OwWn7TsAT1uwQCGvGTRZryE3bDwJCo7NLIKwZN8IactNGWJsbIKwhPVmsIThtN6HR+REQ1pAdYQ3BaSOsxQ0Q1hCeaMMQnLab0Oj8CAhryI6whuC0EdbiBghrCI+whuC0iTQsboCwhvCER4fgtBHW4gYIawjvy5cvt0+fPg27tV2ZgNDofPuENWcni7Vgd+VWodH59glrzo6wFuyu3EpY8+0T1pzdTRZrAe+irUKju8UT1oIfYS3gXbSVsHaLJ6wFP9GGBbyLthLWbvGEteBHWAt4F22Vct8tnrAW/AhrAe+irSINu8UT1oKf8OgC3kVbCWu3eMJa8COsBbyLthLWbvGEteMni7Xkd7V2Gazdxglrx4+wlvyu1k5Yu40T1o6f8OiS35XaRRr22yasJUPh0SXAC7UT1n7ZhLVkKNqwBHihdsLaL5uwlgwJawnwQu1Co/tlE9aSIWEtAV6oXaRhv2zCWjKUxVoCvFA7Ye2XTVhLhoS1BHihdsLaL5uw9gxlsQIMrzBCBmu/ZcLaMySsAMMrjCCs/ZYJa89QeDTA8OwjRBoyGyasAEfh0QDEk48grMyCCSvAUbQhAPHkIwgrs2DCCnAkrADEk48QGs0smLACHAkrAPHkI0QaMgsmrABHWawAxJOPIKzMggkrwJGwAhBPPoKwMgsmrAxHWawQx7OOkcHKbJawMhwJK8TxrGMIK7NZwspwJKwQxzOOEWnIbZWwQiyFR0MgTziGsHJLJawQS9GGEMgTjiGs3FIJK8SSsEIgTzhGaDS3VMIKsSSsEMgTjiGs3FIJK8RSFisE8oRjZLBySyWsEEvCCoE84RjCyi2VsHIsRRuCLM80SgYrt03CyrEkrCDLM40irNw2CSvHkrCCLM8ySqQhu0nCCvIUHg3CPMkowsoukrCCPEUbgjBPMoqwsoskrCBPwgrCPMkoGazsIgkryJOwgjBPMoqwsoskrCBPWawgzJOMksHKLpKwgjwJKwjzJKMIK7tIwsryFG0I83z0cYSV3SBhZXkSVpjno48TGs1ukLCyPAkrzPPRxxFWdoOEleV5Ex4NA33gcTJY+eURVpgpYYWBPvA4wsov7x+V/TjAfgLAhQAAAABJRU5ErkJggg==
;file_total_lines: 9380
;estimated_time(s): 5767.3
;nozzle_temperature(°C): 225
;build_plate_temperature(°C): 65
;work_speed(mm/minute): 5400
;max_x(mm): 40
;max_y(mm): 47.5
;max_z(mm): 120
;min_x(mm): -40
;min_y(mm): -47.5
;min_z(mm): 0

;Header End

; G-code for 3dp engraving
; Generated by Snapmaker Luban 3.15.0
; Tue Aug 03 2021 17:40:47

M82 ;absolute extrusion mode
;Start GCode begin
M104 S225
M140 S65
G28 ;home
G90 ;absolute positioning
G1 X-10 Y-10 F3000
G1 Z0 F1800
M109 S225;Wait for Hotend Temperature
M190 S65;Wait for Bed Temperature
G92 E0
G1 E20 F200
G92 E0
;Start GCode end
;LAYER_COUNT:800
;LAYER:0
M107
G0 F5400 X18.526 Y12.684 Z0.3
;TYPE:SKIRT
G1 F3000 X18.865 Y12.181 E0.03026
G1 X19.267 Y11.728 E0.06048
G1 X19.725 Y11.331 E0.09072
G1 X20.232 Y10.998 E0.12098
G1 X20.778 Y10.734 E0.15124
G1 X21.354 Y10.545 E0.18148
G1 X21.95 Y10.433 E0.21174
G1 X22.5 Y10.4 E0.23922
G1 X102.5 Y10.4 E4.23044
G1 X103.105 Y10.44 E4.26069
G1 X103.699 Y10.559 E4.29091
G1 X104.273 Y10.755 E4.32117
G1 X104.816 Y11.026 E4.35145
G1 X105.319 Y11.365 E4.38171
G1 X105.772 Y11.767 E4.41193
G1 X106.169 Y12.225 E4.44217
G1 X106.502 Y12.732 E4.47243
G1 X106.766 Y13.278 E4.50269
G1 X106.955 Y13.854 E4.53293
G1 X107.067 Y14.45 E4.56319
G1 X107.1 Y15 E4.59068
G1 X107.1 Y110 E9.33025
G1 X107.06 Y110.605 E9.3605
G1 X106.941 Y111.199 E9.39072
G1 X106.745 Y111.773 E9.42098
G1 X106.474 Y112.316 E9.45126
G1 X106.135 Y112.819 E9.48152
G1 X105.733 Y113.272 E9.51173
G1 X105.275 Y113.669 E9.54197
G1 X104.768 Y114.002 E9.57224
G1 X104.222 Y114.266 E9.60249
G1 X103.646 Y114.455 E9.63274
G1 X103.05 Y114.567 E9.66299
G1 X102.5 Y114.6 E9.69048
G1 X22.5 Y114.6 E13.6817
G1 X21.895 Y114.56 E13.71195
G1 X21.301 Y114.441 E13.74217
G1 X20.727 Y114.245 E13.77243
G1 X20.184 Y113.974 E13.80271
G1 X19.681 Y113.635 E13.83297
G1 X19.228 Y113.233 E13.86319
G1 X18.831 Y112.775 E13.89342
G1 X18.498 Y112.268 E13.92369
G1 X18.234 Y111.722 E13.95394
G1 X18.045 Y111.146 E13.98419
G1 X17.933 Y110.55 E14.01444
G1 X17.9 Y110 E14.04193
G1 X17.9 Y15 E18.7815
G1 X17.94 Y14.395 E18.81175
G1 X18.059 Y13.801 E18.84197
G1 X18.255 Y13.227 E18.87223
G1 X18.526 Y12.684 E18.90251
G0 F5400 X18.924 Y12.797
G1 F3000 X19.261 Y12.326 E18.93141
G1 X19.66 Y11.906 E18.96031
G1 X20.113 Y11.544 E18.98924
G1 X20.611 Y11.249 E19.01811
G1 X21.145 Y11.024 E19.04702
G1 X21.705 Y10.876 E19.07592
G1 X22.5 Y10.8 E19.11577
G1 X102.5 Y10.8 E23.10698
G1 X103.078 Y10.84 E23.13589
G1 X103.645 Y10.959 E23.16479
G1 X104.19 Y11.155 E23.19369
G1 X104.703 Y11.424 E23.22259
G1 X105.174 Y11.761 E23.25148
G1 X105.594 Y12.16 E23.28038
G1 X105.956 Y12.613 E23.30931
G1 X106.251 Y13.111 E23.33819
G1 X106.476 Y13.645 E23.3671
G1 X106.624 Y14.205 E23.396
G1 X106.7 Y15 E23.43584
G1 X106.7 Y110 E28.17541
G1 X106.66 Y110.578 E28.20431
G1 X106.541 Y111.145 E28.23322
G1 X106.345 Y111.69 E28.26211
G1 X106.076 Y112.203 E28.29101
G1 X105.739 Y112.674 E28.31991
G1 X105.34 Y113.094 E28.34881
G1 X104.887 Y113.456 E28.37774
G1 X104.389 Y113.751 E28.40661
G1 X103.855 Y113.976 E28.43552
G1 X103.295 Y114.124 E28.46442
G1 X102.5 Y114.2 E28.50427
G1 X22.5 Y114.2 E32.49548
G1 X21.922 Y114.16 E32.52439
G1 X21.355 Y114.041 E32.55329
G1 X20.81 Y113.845 E32.58219
G1 X20.297 Y113.576 E32.61109
G1 X19.826 Y113.239 E32.63998
G1 X19.406 Y112.84 E32.66888
G1 X19.044 Y112.387 E32.69781
G1 X18.749 Y111.889 E32.72669
G1 X18.524 Y111.355 E32.7556
G1 X18.376 Y110.795 E32.7845
G1 X18.3 Y110 E32.82434
G1 X18.3 Y15 E37.56391
G1 X18.34 Y14.422 E37.59281
G1 X18.459 Y13.855 E37.62172
G1 X18.655 Y13.31 E37.65061
G1 X18.924 Y12.797 E37.67951
G0 F5400 X19.323 Y12.916
G1 F3000 X19.657 Y12.478 E37.70699
G1 X20.052 Y12.094 E37.73448
G1 X20.498 Y11.77 E37.76198
G1 X20.986 Y11.515 E37.78945
G1 X21.506 Y11.332 E37.81695
G1 X22.047 Y11.227 E37.84445
G1 X22.5 Y11.2 E37.86709
G1 X102.5 Y11.2 E41.8583
G1 X103.05 Y11.24 E41.88581
G1 X103.588 Y11.359 E41.9133
G1 X104.103 Y11.555 E41.9408
G1 X104.584 Y11.823 E41.96827
G1 X105.022 Y12.157 E41.99575
G1 X105.406 Y12.552 E42.02323
G1 X105.73 Y12.998 E42.05073
G1 X105.985 Y13.486 E42.0782
G1 X106.168 Y14.006 E42.10571
G1 X106.273 Y14.547 E42.1332
G1 X106.3 Y15 E42.15584
G1 X106.3 Y110 E46.89541
G1 X106.26 Y110.55 E46.92292
G1 X106.141 Y111.088 E46.95041
G1 X105.945 Y111.603 E46.9779
G1 X105.677 Y112.084 E47.00537
G1 X105.343 Y112.522 E47.03285
G1 X104.948 Y112.906 E47.06034
G1 X104.502 Y113.23 E47.08784
G1 X104.014 Y113.485 E47.11531
G1 X103.494 Y113.668 E47.14281
G1 X102.953 Y113.773 E47.17031
G1 X102.5 Y113.8 E47.19295
G1 X22.5 Y113.8 E51.18416
G1 X21.95 Y113.76 E51.21168
G1 X21.412 Y113.641 E51.23917
G1 X20.897 Y113.445 E51.26666
G1 X20.416 Y113.177 E51.29413
G1 X19.978 Y112.843 E51.32161
G1 X19.594 Y112.448 E51.34909
G1 X19.27 Y112.002 E51.37659
G1 X19.015 Y111.514 E51.40406
G1 X18.832 Y110.994 E51.43157
G1 X18.727 Y110.453 E51.45906
G1 X18.7 Y110 E51.4817
G1 X18.7 Y15 E56.22127
G1 X18.74 Y14.45 E56.24878
G1 X18.859 Y13.912 E56.27627
G1 X19.055 Y13.397 E56.30376
G1 X19.323 Y12.916 E56.33124
G0 F5400 X19.454 Y13.49
G1 F3000 X19.72 Y13.042 E56.35723
G1 X20.052 Y12.64 E56.38324
G1 X20.442 Y12.294 E56.40925
G1 X20.88 Y12.011 E56.43527
G1 X21.355 Y11.798 E56.46124
G1 X21.858 Y11.661 E56.48725
G1 X22.5 Y11.6 E56.51942
G1 X102.5 Y11.6 E60.51064
G1 X103.02 Y11.64 E60.53666
G1 X103.527 Y11.759 E60.56264
G1 X104.01 Y11.954 E60.58863
G1 X104.458 Y12.22 E60.61462
G1 X104.86 Y12.552 E60.64063
G1 X105.206 Y12.942 E60.66664
G1 X105.489 Y13.38 E60.69266
G1 X105.702 Y13.855 E60.71863
G1 X105.839 Y14.358 E60.74464
G1 X105.9 Y15 E60.77681
G1 X105.9 Y110 E65.51638
G1 X105.86 Y110.52 E65.5424
G1 X105.741 Y111.027 E65.56838
G1 X105.546 Y111.51 E65.59437
G1 X105.28 Y111.958 E65.62036
G1 X104.948 Y112.36 E65.64637
G1 X104.558 Y112.706 E65.67238
G1 X104.12 Y112.989 E65.6984
G1 X103.645 Y113.202 E65.72437
G1 X103.142 Y113.339 E65.75038
G1 X102.5 Y113.4 E65.78255
G1 X22.5 Y113.4 E69.77377
G1 X21.98 Y113.36 E69.79979
G1 X21.473 Y113.241 E69.82577
G1 X20.99 Y113.046 E69.85176
G1 X20.542 Y112.78 E69.87775
G1 X20.14 Y112.448 E69.90376
G1 X19.794 Y112.058 E69.92977
G1 X19.511 Y111.62 E69.95579
G1 X19.298 Y111.145 E69.98176
G1 X19.161 Y110.642 E70.00777
G1 X19.1 Y110 E70.03995
G1 X19.1 Y15 E74.77951
G1 X19.14 Y14.48 E74.80553
G1 X19.259 Y13.973 E74.83152
G1 X19.454 Y13.49 E74.8575
G0 F5400 X19.853 Y13.588
G1 F3000 X20.118 Y13.176 E74.88194
G1 X20.446 Y12.813 E74.90635
G1 X20.829 Y12.508 E74.93078
G1 X21.257 Y12.27 E74.95521
G1 X21.717 Y12.104 E74.97961
G1 X22.198 Y12.015 E75.00401
G1 X22.5 Y12 E75.0191
G1 X102.5 Y12 E79.01031
G1 X102.988 Y12.04 E79.03474
G1 X103.463 Y12.159 E79.05917
G1 X103.912 Y12.353 E79.08357
G1 X104.324 Y12.618 E79.10801
G1 X104.687 Y12.946 E79.13242
G1 X104.992 Y13.329 E79.15685
G1 X105.23 Y13.757 E79.18128
G1 X105.396 Y14.217 E79.20568
G1 X105.485 Y14.698 E79.23008
G1 X105.5 Y15 E79.24517
G1 X105.5 Y110 E83.98474
G1 X105.46 Y110.488 E84.00917
G1 X105.341 Y110.963 E84.0336
G1 X105.147 Y111.412 E84.058
G1 X104.882 Y111.824 E84.08244
G1 X104.554 Y112.187 E84.10685
G1 X104.171 Y112.492 E84.13127
G1 X103.743 Y112.73 E84.1557
G1 X103.283 Y112.896 E84.1801
G1 X102.802 Y112.985 E84.20451
G1 X102.5 Y113 E84.21959
G1 X22.5 Y113 E88.21081
G1 X22.012 Y112.96 E88.23524
G1 X21.537 Y112.841 E88.25967
G1 X21.088 Y112.647 E88.28407
G1 X20.676 Y112.382 E88.30851
G1 X20.313 Y112.054 E88.33292
G1 X20.008 Y111.671 E88.35734
G1 X19.77 Y111.243 E88.38178
G1 X19.604 Y110.783 E88.40617
G1 X19.515 Y110.302 E88.43058
G1 X19.5 Y110 E88.44566
G1 X19.5 Y15 E93.18523
G1 X19.54 Y14.512 E93.20966
G1 X19.659 Y14.037 E93.23409
G1 X19.853 Y13.588 E93.25849
G0 F5400 X20.252 Y13.694
G1 F3000 X20.515 Y13.321 E93.28126
G1 X20.838 Y13 E93.30398
G1 X21.213 Y12.741 E93.32672
G1 X21.627 Y12.551 E93.34945
G1 X22.068 Y12.436 E93.37218
G1 X22.5 Y12.4 E93.39381
G1 X102.5 Y12.4 E97.38503
G1 X102.954 Y12.44 E97.40776
G1 X103.394 Y12.558 E97.43049
G1 X103.806 Y12.752 E97.45321
G1 X104.179 Y13.015 E97.47598
G1 X104.5 Y13.338 E97.4987
G1 X104.759 Y13.713 E97.52144
G1 X104.949 Y14.127 E97.54416
G1 X105.064 Y14.568 E97.5669
G1 X105.1 Y15 E97.58853
G1 X105.1 Y110 E102.3281
G1 X105.06 Y110.454 E102.35083
G1 X104.942 Y110.894 E102.37356
G1 X104.748 Y111.306 E102.39628
G1 X104.485 Y111.679 E102.41905
G1 X104.162 Y112 E102.44177
G1 X103.787 Y112.259 E102.46451
G1 X103.373 Y112.449 E102.48723
G1 X102.932 Y112.564 E102.50997
G1 X102.5 Y112.6 E102.5316
G1 X22.5 Y112.6 E106.52281
G1 X22.046 Y112.56 E106.54555
G1 X21.606 Y112.442 E106.56828
G1 X21.194 Y112.248 E106.591
G1 X20.821 Y111.985 E106.61377
G1 X20.5 Y111.662 E106.63649
G1 X20.241 Y111.287 E106.65923
G1 X20.051 Y110.873 E106.68195
G1 X19.936 Y110.432 E106.70469
G1 X19.9 Y110 E106.72632
G1 X19.9 Y15 E111.46589
G1 X19.94 Y14.546 E111.48862
G1 X20.058 Y14.106 E111.51135
G1 X20.252 Y13.694 E111.53407
G0 F5400 X20.651 Y13.809
G1 F3000 X20.91 Y13.48 E111.55496
G1 X21.227 Y13.206 E111.57586
G1 X21.59 Y12.997 E111.59676
G1 X21.987 Y12.861 E111.6177
G1 X22.5 Y12.8 E111.64347
G1 X102.5 Y12.8 E115.63469
G1 X102.917 Y12.84 E115.65559
G1 X103.319 Y12.958 E115.67649
G1 X103.691 Y13.151 E115.6974
G1 X104.02 Y13.41 E115.71829
G1 X104.294 Y13.727 E115.73919
G1 X104.503 Y14.09 E115.76009
G1 X104.639 Y14.487 E115.78103
G1 X104.7 Y15 E115.8068
G1 X104.7 Y110 E120.54637
G1 X104.66 Y110.417 E120.56727
G1 X104.542 Y110.819 E120.58817
G1 X104.349 Y111.191 E120.60908
G1 X104.09 Y111.52 E120.62997
G1 X103.773 Y111.794 E120.65087
G1 X103.41 Y112.003 E120.67177
G1 X103.013 Y112.139 E120.69271
G1 X102.5 Y112.2 E120.71848
G1 X22.5 Y112.2 E124.7097
G1 X22.083 Y112.16 E124.7306
G1 X21.681 Y112.042 E124.7515
G1 X21.309 Y111.849 E124.77241
G1 X20.98 Y111.59 E124.7933
G1 X20.706 Y111.273 E124.8142
G1 X20.497 Y110.91 E124.8351
G1 X20.361 Y110.513 E124.85603
G1 X20.3 Y110 E124.88181
G1 X20.3 Y15 E129.62138
G1 X20.34 Y14.583 E129.64228
G1 X20.458 Y14.181 E129.66318
G1 X20.651 Y13.809 E129.68409
G0 F5400 X21.048 Y13.936
G1 F3000 X21.303 Y13.655 E129.70302
G1 X21.612 Y13.435 E129.72194
G1 X21.959 Y13.283 E129.74084
G1 X22.5 Y13.2 E129.76815
G1 X102.5 Y13.2 E133.75937
G1 X102.877 Y13.24 E133.77828
G1 X103.237 Y13.358 E133.79718
G1 X103.564 Y13.548 E133.81605
G1 X103.845 Y13.803 E133.83498
G1 X104.065 Y14.112 E133.8539
G1 X104.217 Y14.459 E133.8728
G1 X104.3 Y15 E133.90011
G1 X104.3 Y110 E138.63968
G1 X104.26 Y110.377 E138.65859
G1 X104.142 Y110.737 E138.67749
G1 X103.952 Y111.064 E138.69636
G1 X103.697 Y111.345 E138.71529
G1 X103.388 Y111.565 E138.73422
G1 X103.041 Y111.717 E138.75312
G1 X102.5 Y111.8 E138.78042
G1 X22.5 Y111.8 E142.77164
G1 X22.123 Y111.76 E142.79055
G1 X21.763 Y111.642 E142.80945
G1 X21.436 Y111.452 E142.82832
G1 X21.155 Y111.197 E142.84725
G1 X20.935 Y110.888 E142.86618
G1 X20.783 Y110.541 E142.88508
G1 X20.7 Y110 E142.91238
G1 X20.7 Y15 E147.65195
G1 X20.74 Y14.623 E147.67087
G1 X20.858 Y14.263 E147.68977
G1 X21.048 Y13.936 E147.70864
G0 F5400 X21.257 Y14.356
G1 F3000 X21.445 Y14.079 E147.72534
G1 X21.693 Y13.856 E147.74198
G1 X21.987 Y13.697 E147.75865
G1 X22.311 Y13.613 E147.77535
G1 X22.5 Y13.6 E147.7848
G1 X102.5 Y13.6 E151.77602
G1 X102.832 Y13.64 E151.7927
G1 X103.144 Y13.757 E151.80933
G1 X103.421 Y13.945 E151.82603
G1 X103.644 Y14.193 E151.84267
G1 X103.803 Y14.487 E151.85934
G1 X103.887 Y14.811 E151.87604
G1 X103.9 Y15 E151.88549
G1 X103.9 Y110 E156.62506
G1 X103.86 Y110.332 E156.64175
G1 X103.743 Y110.644 E156.65837
G1 X103.555 Y110.921 E156.67507
G1 X103.307 Y111.144 E156.69171
G1 X103.013 Y111.303 E156.70839
G1 X102.689 Y111.387 E156.72509
G1 X102.5 Y111.4 E156.73454
G1 X22.5 Y111.4 E160.72575
G1 X22.168 Y111.36 E160.74244
G1 X21.856 Y111.243 E160.75906
G1 X21.579 Y111.055 E160.77576
G1 X21.356 Y110.807 E160.7924
G1 X21.197 Y110.513 E160.80908
G1 X21.113 Y110.189 E160.82578
G1 X21.1 Y110 E160.83523
G1 X21.1 Y15 E165.5748
G1 X21.14 Y14.668 E165.59148
G1 X21.257 Y14.356 E165.60811
G0 F5400 X21.656 Y14.464
G1 F3000 X21.839 Y14.249 E165.62219
G1 X22.075 Y14.095 E165.63625
G1 X22.345 Y14.012 E165.65034
G1 X22.5 Y14 E165.6581
G1 X102.5 Y14 E169.64931
G1 X102.779 Y14.04 E169.66338
G1 X103.036 Y14.156 E169.67744
G1 X103.251 Y14.339 E169.69153
G1 X103.405 Y14.575 E169.70559
G1 X103.488 Y14.845 E169.71968
G1 X103.5 Y15 E169.72744
G1 X103.5 Y110 E174.46701
G1 X103.46 Y110.279 E174.48107
G1 X103.344 Y110.536 E174.49514
G1 X103.161 Y110.751 E174.50922
G1 X102.925 Y110.905 E174.52328
G1 X102.655 Y110.988 E174.53737
G1 X102.5 Y111 E174.54513
G1 X22.5 Y111 E178.53635
G1 X22.221 Y110.96 E178.55041
G1 X21.964 Y110.844 E178.56447
G1 X21.749 Y110.661 E178.57856
G1 X21.595 Y110.425 E178.59262
G1 X21.512 Y110.155 E178.60671
G1 X21.5 Y110 E178.61447
G1 X21.5 Y15 E183.35404
G1 X21.54 Y14.721 E183.3681
G1 X21.656 Y14.464 E183.38217
G0 F5400 X21.94 Y14.785
G1 F3000 X22.053 Y14.599 E183.39302
G1 X22.226 Y14.466 E183.40391
G1 X22.5 Y14.4 E183.41797
G1 X102.5 Y14.4 E187.40919
G1 X102.715 Y14.44 E187.4201
G1 X102.901 Y14.553 E187.43096
G1 X103.034 Y14.726 E187.44184
