;Header Start

;FLAVOR:Marlin
;TIME:6666
;Filament used: 0m
;Layer height: 0.15


;header_type: 3dp
;thumbnail: data:image/png;base64,iVBORw0KGgoAAAANSUhEUgAAASwAAACWCAYAAABkW7XSAAAf3UlEQVR4Xu2dV+wVxffAV8TeUQGxo4KKCnajJhobxPhgb7EkxtgSE3sUEx98MEZ88MkW44MajfIgIcZGsCTGhool2MCC2MAuKIrtn8/8Ofc3zHdmd7bd3b3fM8nmtilnzuz95JyzU9ZatWrVf4km1YBqQDXQAQ2spcDqwCipiKoB1YDRgAJLbwTVgGqgMxpQYHVmqFRQ1YBqQIGl94BqQDXQGQ0osDozVCqoakA1oMDSe0A1oBrojAYUWJ0ZKhVUNaAaUGDpPaAaUA10RgMKrM4MVXcEveOOO5JDDjnEXJpUA1VqQIFVpTaHeV2AiksSwLriiisUXMP8vqiy+wqsKrU5TOtyQeVTg8JrmN4cFXdbgVWxQodLdWJJ2RZVTN8VXDFa0jwhDSiw9N7IpYGioHIbUXDlUrtmXq0BBZbeClEaiHH7oipyMim4imht+JZRYA3fsY/qeRFQTZo0KVm2bFny3XffRbWhQfpcahrWmRVYw3r4/Z3P4/b999//b6e21157Jbzn1U6Aa8GCBQZga621VpS21eqKUtOwzKTAGpbDHgbVq6++mnD5ksBJfsOSEljFqNGGl+RPg5iCK0arwyuPAmt4jbe3tz63z4VTUUiF1OuDVwhiMgmVOV2ahrcGFFjDePwFVCE4iWpGjx6dbL311kPcvapUlwYvF2JqdVWl9W7Wo8Dq5rgVlhp375VXXlljRrqvsroh5WsTcJEk5pXWScD16KOPFtaDFuymBhRY3Ry3wlKfccYZwRgVlRKXcgPnhRsrUTAGXriIV155ZYlWtGjXNKDA6tqIlZAX6wpguQlIYVFxtTGJy4hsAjKRc/HixW0UWWWqSQMKrJoU28Zqbeuq7ZAK6c+Fl1pZbbzT6pNJgVWfbltVM9bVzTffbGRqg8tXhXIEXvPmzauiOq2jAxpQYHVgkKoQcc6cOQnXIKZjjz024dI0+BpQYA3+GJse3nPPPcknn3wysL297bbbBrZv2rH/aUCBNQzuhk8//TS5++67B7qnamUN9PD2OqfAGgbjPOjWFUOowBoGN7IeVT88Bvm6664bFh1Vt3Dwh1ktrAEf4+HgDsoQqpU14DezWliDP8CuOzh+/Phk4sSJyQ8//GA6v2jRop4Sfvzxx9YqZNSoUQkXidctt9wy+fjjj4c8SFArq7VDWIlgamFVosZ2VuKzrlatWpVMmDDBLMH5559/hggOtIBY0/ACSrvuumsPUraga6+9ttkc8IUXXkg23HDDNfqgVlY778WqpFJgVaXJFtbjC7YDrD///DM5++yzzYZ7QMvdreG5555LyNdkWnfddZOjjjpqiAgjR440GwHOnTs3+fnnnxPy2UmB1eSo1d+2Aqt+HTfWgi/YDqB+//33ZO+99zYX6d9//+1ZWytWrEhef/31VgBrjz32SLbZZhsjI1bViBEjzPv33nvPXFhXfO8mdQsbu+Vqb1iBVbuKm2kgFGwXYCEVVpYkrKy///47WbhwYbJkyZJWAcuG1dKlS411RQoBS62sZu65frSqwOqHlhtoI23u1fLly41EY8aM6e3QsNFGG5nvvv/+++Snn35qBbC22GKLZKuttjJy/fbbb+YVmOIKkjbZZBOvZnfZZZfk4osvbkDr2mTdGlBg1a3hBurPmsogwMJCYUsZ+49PfIsniG2IYfEkcL311utpELm//vrrnmwhYFHgkksuSXgiqmmwNKDAGqzxNL3JmtlODAvXkIA1f/px48b1tNBWYIlcQAuY4ia6TwjtoVS3cABvbJ2HNZiDmjWzXZ4UEsTG7QJaYq389ddfZspA2ywsrD6ghbvKQ4IsYDGyGnwfvPtbLawBG9Msd5DuusCSeBDQahOwOPhinXXWMaCSia4CLFxFd0qDO5RqZQ3Yza0W1uANaJY76AILSDG3iYRr2CZgjR071kxlIG5F4ikmLiEWVugJobqFg3dP2z1SC2uAxjfGuqK7MrUBGGywwQbJ+uuvb7QAvHha+O233zbuEiLPDjvsYFxALKwiwFK3cIBu7tVdUWAN0JjGWFdpwBJoifvVtGqYNGrL8scffyQrV640M/MBrW/SqLqFTY9ave0rsOrVb19rzwq228Iwo50lLvzxmXtlp5jTcwCJXU7Awndy/DxgkXlUTFEguZ/TFMR8Kzv4v9lmmxm3kHo33njjaN1q8D1aVa3PqMBq/RDFCRjrDkptAIungawbJBEXAgS8HnjggclOO+0UBFKaRAIrO0/aydICMPIDNfmMG/jEE0+YaqgT9xWQcoAGwfg8wNLge9w91IVcCqwujFKEjLHuIFVhDX355ZfJBx980KuZp3FcRZMPVLHQSmuThwCSeI/FNXny5GS77bYzgItJCqwYLXUjjwKrG+OUKqXPugJKdvwHV82NTaVZPrFqyQKVW0/VbdrQwjqzP9vv1S2MHdF251NgtXt8oqQDWFdddVXy0UcfReWXTGXhkRdWVVhcedsEWrvvvntyzDHHJGeeeWYu/Wjm9mlAgdW+Mckt0b333psALRKWlIDLDab7Ki4CrTRo8GSP+VNMjSB98803qf3J234ssIAUid1VSawrvOiii3LrVgu0SwMKrHaNRyFprr/+em85cQN5TYNXLDRCsNh3331N+/vtt59XDqA1f/78IMDKtk/FuIPiEtqBfFugW2+9tZB+tVB7NKDAas9YFJIEywoLKysJsLC+fPBKg4YLqixApckiFhcAc62vPDLQhmtFZekAC0t3cMjSUrt/V2C1e3wypYsFlluRuI42vHzAAFbi5vEqO4BmChaZAWhx4UIKwFw5bGDmhZQtBnEsLk3d1YACq7tjZyS341dFu2LHvZibZYMp5OYVbSurnLiPQIv3wApI2XO0suoI/a7AKqq59pRTYLVnLApJEopfFaosSRJmk5eZj1W0XV859u3iqjJpHKtKbfa/LgVW/3VeWYtF3cE0ATbffHMDrNhAeGWdcSoSNxCLr8qkwKpSm/2vS4HVf51X1mIdwGLZi6SmoGXHrKoGlrqFld1+jVSkwGpE7dU0WkX8ypYEywoLy079hpb7RJIF0PbynLKaU2CV1WCz5RVYzeq/VOtYWI8++mjyyy+/lKpHCrMXlm+f9H5ByzfPixiWnJhTtpM77rhjcvrpp0evQSzbnpavXgMKrOp12tcasUCeeeYZM9O9LLgkfhXqQJ3gCk1KrQJYgIrtlE855ZQhFmRfB0sbK60BBVZpFbajgnnz5plDUBcvXlwYXFnAoqdVQytmqU2ZOBawOuCAA8yWOZq6rwEFVvfHsNcDoLVs2TIDrHfffTd3z+yAe1rhqqAVAyvkKAIsQMUWy+yhpbDKfSu0toACq7VDU0wwXMOPP/7Y7Nv+xRdfGIsrJvkC7nVCKxZWyJAn8C6gYvvkCRMm6FKcmMHvUB4FVocGK1ZUIMXmfECLhLWVFd8KBdzrgFYeWNF+TBxLQEV+4lXAiu80DZYGFFiDNZ693gAtLC3ZEx1gpcW3YuJXIVXlcRHzwoo2mdaAleVLNqgUVgN6M1vdUmAN8BgDqE8++cScNCMpBK7Y+FVRaBUBld2WG8cS64k4lSS1rAb4Zl7dNQXWgI8xlslbb71lLC1xEemyDa688au80CoLK9qzgeVaVcSrOP2HgzPUDRzsG1qBNdjja3oHtN555x0DLfvYLAEX8S53hntRtaRtDVO0TsoRx2JjPtuiEhcQy4qDKarqQxk5tWy9GlBg1avf1tTOMp5ddtnFHOPlQmu99dYzR2dhCXHScij9+OOPQ35Ky+9m3mKLLYJ1jxo1ashv5BcAYmHJCdC2C4h1hfyHHXZYa3StgtSnAQVWfbptTc0s35k5c6aZk3TIIYeYI7LsuBaCbrrppuaSVIUbV0YBtqUGqNwYFi4gR5W99tprydKlS5PTTjstOeOMM8o0qWU7oAEFVgcGqYyIN910U7JgwYLeacxYWCeccIKxtoCWxLVcYNlt9gteoaeNtnWF+4dF9fnnnyezZs0yx9VTjmvSpEnJzTffXEZdWrblGlBgtXyAyognsKIOOT2Zo95JQIsgNcASFxHLKy3VAa6sKRG2dQWsANSiRYuSp59+2ohqA4vPCq0yd0z7yyqw2j9GuSXEogJWrpXEce9YWFykadOmGWgBIqCVZmW5QpSBVxak7LZ+/fXXhAurCrmxrARWyACw+N6tE0sLeGkaLA0osAZrPI3758JKuih/bgGWQAvLipgQ1kyRQyZi4JUHUvaQSKCfyaM2rMS6om17uoZdVqE1YDc3nsKqVav+G7xuDc8eEVx/7LHHgp0HWCRxCyUjlhbQWn/99c21ySabeOuwQRdqxIVXDKiw/HxJluSsWLEiefvtt81lp5EjR5qPIWDxG/tfaTB+cP4PCqwBGcssWIlFwqvtFkr3p0yZknABLE6oYW1hbHJBBrR8oAqBydcOm/b98MMPyR9//OGFlbiDWcBSaMWOYjfyKbC6MU6pUsbAKgtY/C7QwnIZM2ZMLmhVqcYsWElfxJpLs7BELrW0qhyh5upSYDWn+0pajoWVDSzeu26ha2nxGWhx7Fc/E1YVF8nnBvK9bV3FWFgKrX6OYL1tKbDq1W+tteeBlQssn1vogxZPDseOHVtrP6TyGFiVARZlddpDX4aytkYUWLWptt6KOUCVJ4LMTYpNEnSX/CEri9/FPeQ9B1NkzdGKlSGUj6Pqmb6QZllJWfphB/djXEK73d122y3R8wnLjlgz5RVYzei9VKtsGXPjjTeapSkkG1rsvCCfXZgR9Hb/6GlP8WxoEYhnvV/MFIa8neNpoPQl5AZKna47iPxu0N9d5M2UCHv9JFbWqaeemhx77LF5RdX8DWtAgdXwABRp/u677zb7XC1ZsqT3R0+rR8CFpWQf45XmFkp9Ai0Blg2OIrJLGRuUwIplQlmwoqxrXQEiyrpQCsmGpbj99tsnxx13nAKrzAA2VFaB1ZDiyzR77bXX9orHQosC/LmZ2W6nNLfQhZZMMHVlz2N1uRYdsAFYMbCiXZl7JTJ888030Sf5CKyk7IwZM8oMg5ZtQAMKrAaUXqZJLCssLDvFQgtgMSkUa0lSjJVFXiyto48+2riFoRQCV5rbCaxeeeWVIZNCfW247iBBetxJNzbnK+vCijxqZZW5E5spq8BqRu+FWxV30K0gFlrMGgdYAq1YYAm02MbFTp999pm3L6HJozvvvPMa+dn2xp3BHlKO7Q5K3GvjjTfO1KUPVgqsTLW1MoMCq5XDEhbKdgeLQEu2lOFUGUkxbqHkjXH/JE/MspyYPNK27Q5ywIZsjZw2hCFYSRl1C7v1B1BgdWi8fO5gXmjJE7QiVlYMrJBHluDErD0kfwy0bHcQaxLwZgErC1ZqZXXo5l8tqgKrQ2MWcgfzQMt+5C/QAhhZc5liYUU+28KKgVEMtMQdtKdAsMNEKH4VAysFVodufgVW9wYrzR3MAy3iWJLENcxyC2OBZS9wlp1AYzUdgpttXeEKSgrFr2JhpW5h7Mi0J59aWO0Zi1RJYtxBtwJmwsvscfs3e2tksbLSgu+xsLKtK2kvD7RCwAKCXOIKUnfIHWQpUd6N+/RpYUf+BLofVncGKtYdjIGWOxNcoOWzsmJhZceubBnyACvkGgInNvKTRdEhYBWBlbqF3fkPIKlaWB0Zrzlz5iTPPvtsIWldS8t3PiGuoWtl5YGVz7oSYWOD77ZVJu+pl51QZemOfO/Gr4rCSoFV6JZqrJACqzHV52+4qJVFSy607DgWv2NlcQ6gDZc8wErbnC+vlWVbWlhXsnTH1pgdvyoDK04PuuSSS/IPhpZoRAMKrEbUXrzRMtBiRrkkO44l3wEt2f8qD6xC7qDdy6JW1i+//LKGK+i6gwqr4vdSF0sqsDo4akWhRQAeS4vkcwv5ftddd42aF2WrLc0dtN282CkOUoYpDKwVdJMdcCfAbh8AGzucalnFaqpd+RRY7RqPaGnKQisELDmnUCwtgUHazqOxe7WnWVlYUiT7qSZ7ZOH6udvkSPxKYRV9uwxMRgVWR4eyyDQH6apYWnYci/duXCukGtnxgVfmPIn7+PPPP3uLbL755uZ7oLR48WLzSuLYrpgEsGxw8b4orGiPmBUWlqbuaUCB1b0x60lcFlpvvPGGgQeb/kmyd2MgCC/Jfi/fASt3J1I7wO5zFbHgCKK7rt5PP/3Ua0vey5mE8gOHU2y99dbJAQccUMgNVFh1+GZfLboCq+NjWBRanKTMZn7AY/ny5bm0sO+++xpQfffdd71yaU8CXXABHdqdP39+rnbZGod2iW0x1SFvUssqr8bal1+B1b4xyS1RXmgBK07EkfTVV18lXDEJWE2cOLHnzuWZsmCDC2hhbQEtX2DdlWXbbbdNuCQtXbo0F7QUVjGj2/48Cqz2j1GUhHkmlu6www5D6sTK+uCDD4JtAar99tsvwS0j9pQHVG6lAi5iYBzY+tZbb6VaWy6spL4vvvgiSje4s9OnT4/Kq5narQEFVrvHJ0q6efPmJRdccIGZksCVlkaPHm1Odw4loGW7iNtss00CrHgFVmzYl3d6QqgtwMWGfkALK8u1tkKgkvo4FXrZsmWp/V20aFHCdf/99ycHHnhglD41U3s1oMBq79hESXbXXXcld955Zy9vGrSyYCWViLUFqJjWwB+exPQFwFVlAlI8tZw2bZqplvd8lwWrGGgJrCTvZZddllx66aVViq919VkDCqw+K7zK5lxYSd0+aMXAyp6bhdWD9fLmm2+uEWPCLQRkVSTAhDsoaf/99zdvJ0+enPCkkOkMoSPL7PZ9lpYLK4VWFSPWfB0KrObHoJAEIVhRGU/SsFBkKoIPVjLnyjeBdKuttkq4+E2exn399dcGXpLETXSF9y3p8bmQTz75pAGhQEpemcXO08vvv//eXHYSgPkgZkOL+WDsm+VOi5C6cA1xETV1TwMKrI6NGfEqYMVrKAEsLCSAhQvHzHBSaHa7XQ+wkKC8DSw7D/ACNkALGMWuOyQvcbCFCxcaucaNGzekC7Qvu4j6oOUWsCHGnDLkwjqjLXuzP7cc0MI91LhWt/4ACqwOjVeaVSXdAE72U0DgxdHs/IlZ8JyWbFiRDyuLPbKYfsAcKJK8Mg0CcLlJnh4KxHwwA1RYgO78Lz7TFvOsJH344YeZIySWJPtlAUNJPEXM6rMG4zPV26oMCqxWDUe6MHvvvXemtGJd2RkpR1wL907+wD6AATqgBajsswvtumxQ2a5ezJNDG2KAD2gJAO02ABZy8oqV5U5fEEABZy7WOQIqZu7bibL2pn8h5b333nuZetUM7dCAAqsd45AphUxdyMrIpE5fwqo54ogjeuv4JA9g4AICTHewj7K368H6kYXJMXDKklN+5ymkz9qS34EWsShgK4Cy6wZWL774YtDaS3MLpR59ehg7Ws3nU2A1PwZREjDPKi1uRSXAZvvtt0+tb+rUqSafu7SFmecstXn//ffXWHJjV8YavjrSRx995F0etOeee5rmeLWXAfEdoCIeNnv27FSRKBcKviuw6hjNeutUYNWr30pqj7WuOE6eP/enn35q2rUXFLvg2WuvvXqTLln8LDsqkI8/uX1JWdy3kAXndjR08rObzwcr+iCwkvw8+fvrr7/Mx5ALaNc9fvx485ElPPbUidCAqFtYya1aeyUKrNpVXL6BmGA726Ww7QpxKAm6C7B8AMNa4uIPzT5VNrBsiV2rC9fS93RPysROayA/QXsJ3NvWlE9jWFOAFVgRq3LjVQIoeaUOYl9cTOFgvWVaUrew/H3ajxoUWP3Qcsk20txBIOXu7XT44Yd7W3QBRjmgRR0siJZ4FoXtJ3VidYm76INWzNQGO/YlsAJUuKNcdsJtlekYfM/TQ9xYgZUPUHZ5pji4VhPQStvzS62skjdqH4orsPqg5DJNpLmDPljRlm1lpbUNwFiAbM+7Ij/WFnOwXHDJkztcM+Y7YfHEgMqWAWgRwEd2e92jwEmC/jYwZaLou+++G90e8JGNAu3206ClVlaZO7U/ZRVY/dFz4VZC1tXYsWPX2CLGbSAWWlhWoSkMUqcboBeY8bv8JvOv+CyWlMBMFlvTlg04e+tjfstKTFGI2QfLZ13FQEuBlTUCzf+uwGp+DFIl8M29yoKVVBhyDe0GY4DVFhXFAuull17KFJnYHXvGu0ndwkzVNZpBgdWo+tMb97mDsbCKdQ158uebvNlGteBKZu2OGnIFff3xQUutrDaO/P9kUmC1eHxcdzAPrKRbWa7hIAEryxWMgZYCq8V/CD2qvr2D41pXRWAV4xoOErBiXMEYaKlb2N7/hVpYLR0b27oqA6ss15CAe0zAuw1qIuAeWhsoc66Kymm7h2plFdVi/eUUWPXruFALAiyZEFqoEqtQyDUcBGAVcQV9+rQnmKqVVfaOq6e8AqsevZaqVdzBqmCV5hoOArDyBNqzBkagpVZWlqaa+V2B1YzeU1u9/PLLkyVLlpjJlVUmn5WVtsymyrarqsvdg6usKxiytE4++eTkvPPOq0psraciDSiwKlJkldXcd9995sgt4ipVJxdaXQZWVa6gq2PObNxjjz2SCy+8sGr1a30lNaDAKqnAuoq/9tprZlsUgRavHApRBcTsCaVdBlYVriBwYs970j777GNeR40alRx88MF1Da3WW0IDCqwSyqu7qEDLbceFGL/nAZlYWV2a5S46kNnuRVxBH5xc3Sqs6r6ry9WvwCqnv9pLh6DlaxhoiSWWBTGW/GBZZK0jrL2DORsAWFiaWU/xZEkTkOKKSQqrGC01m0eB1az+o1rnjD37cIWoQqszhSDGvlJsLdNFYLHFjL0TQxE4uTrkoI6sU7Pz6F3z1qMBBVY9eq281jLQ8rmUgEz2U69c2BorZF95DsLIYzlliaOwytJQe35XYLVnLDIlqQJasvULr5wqw/mFcvy8LCy2t4/JFKrmDLIwGzmxqpjWwKk+bFOTdy8un6gKq5oHsOLqFVgVK7Tu6opAy4aULR+Ba7ZAnjZtmvlaACDAagJgAih7DprI//TTT5udSe1zF0XuIvBSWNV9t1ZfvwKrep3WXmMMtEKQcoFF8JodRk888cTeT+6fv06A+QAlgthbKs+aNcsc6ooruPvuuwd1nHaAq11IYVX7bVpLAwqsWtRaf6UutGIA5Ur15ptv9g5n4Mj2gw46aI0sIaulDMDSAOUDFd+9/vrrvSPOABbnK8akELwUVjHaa2ceBVY7xyVKqieeeMI8PXQPNo05ios9059//nlztp+kPNCyBQwBjC2QZSeImGVGvgNabVhJmyeccELwwFdbLo4QsxOHqh566KG65Cbq7mpnJgVWO8clUyoOZDj11FPXAE6o0IQJE4b8xJ/+nXfeGfL9SSedZE5idlORGFFmJ1ZnCJ0kzdPAxx9/fEg17BHvTvOIOeGZiph7Nn/+/FjRNF/LNKDAatmAxIpz7bXXJg8//HBs9l6+tdde28SAcIt82w0DK6AVSlWDK+3Ye2AFtNyEWwmwPvzwQ3P8V9501llnJbfffnveYpq/BRpQYLVgEPKKAKxefvnl5PPPP48uCqhGjhy5xjo5XDn3FBpgdv7553tBYTdWFlxpoKId5Jg7d+4QC4t+yFFgsgqAYHwecGFlXX311ck555wTrT/N2A4NKLDaMQ7RUjz00EPJAw88YGBlx59CFQio+N1deuID1vTp0w0ssGx81o3bTl5wZYGK+rHyuLCwXJcQWNEnSU899VTvfSy4mBoBtNg+RqEVfeu1IqMCqxXDECcEsHrwwQdNkH3BggWphWxQSUZ2IABadnLdQgEWeQAWvzO7PC3FQCsGVDaseI/Ld8stt6zRtHvCDztaYGnZKQZckyZNMvPOzj33XIVW3O3XilwKrFYMQ7YQBNlxBfnjY1mF3EEfqKjdByu+d60srDdfEmjJUVs+iPnAFQIVy4IEPrzy2ZfsTfRsd9DOSzyLaR52+vfff42byKsviZWFzDNmzOhtLZM9EpqjSQ0osJrUfo62p06danIDAJ87GAIVZVjUS5Ddl2xg4QpiYeVJAi7ZCZTPAi5kjQVTqE0sLCwtkusOZkGL30PgAlhcI0aMMNU888wzebqteRvSgAKrIcXnaRbLCgtLjoN///33e8XTQJUFK6lE3EKeDqY9Icwjc1V57ThW1oGvPktL5PCBa8899+ytSVTXsKoRq7ceBVa9+q2kdtu6EncwC1Q0HLu/k1hZdvyqEsErqETiWCF30G0iDVquxaVWVgUD1OcqFFh9Vnje5uzYFRbWl19+maxcubLnyoTqi4UV5QVYofhVXpmrzk8cK80ddNuL2fQQiwsdsR+Y7PygsayqR676+hRY1eu00hrtJ4Nsq8JcKraFkcQSG19iSQx/yA022MD8LK8h4ZhGkDd+VWlHUyojjpU1xQKIk3hlMTfrJGW+llTtfkaf6IgnrsSy1C3s14gWb0eBVVx3fSlJ/IolNPy5jjzySBOAliB0SIDJkyebAyxCTxJdiPH5hhtuCAbm+9LRlEZmz56dPPLII70cNpx8xaZMmWKmYixevDhV9PHjx5ungzNnzjRWFnrDytLUXg0osNo7NkYy4le4guxQQMwlC1g77rhjstNOO5mnYy+88EJU77pgWYilmdUhrCuAhcUEsNOgxVQPNi9kTzB0RRl9Wpil4WZ/V2A1q//U1olfXXPNNQlPs7hIBN3nzJnjLcefFSuBBLD4w2Yt3+kCrKSzMdACVuhBpiukQev4449P2FGCxJNXLtYYynFfLb41hq1oCqwWDz1/UJae2Ps/ESB/8sknvVLb+WTCZJqV1SVYxUILt5kkwOL9iy++OERfzA/jfEYBlkCLgzl0uU57/xQKrPaOTXLbbbcZa8FNBJQ5yt5OWFZ2XgFWyMrqIqyyoIUrzOUCy2dlAayjjjpqiG7ZpkZ3cmjvn+L/AO3CboPZQfwxAAAAAElFTkSuQmCC
;file_total_lines: 60301
;estimated_time(s): 6585.85
;nozzle_temperature(°C): 222
;build_plate_temperature(°C): 65
;work_speed(mm/minute): 1800
;max_x(mm): 14.29553508758545
;max_y(mm): 23.658761978149414
;max_z(mm): 52.47825622558594
;min_x(mm): -14.29553508758545
;min_y(mm): -23.658761978149414
;min_z(mm): 0

;Header End

; G-code for 3dp engraving
; Generated by Snapmaker Luban 3.15.0
; Sun Jul 18 2021 12:9:6

M82 ;absolute extrusion mode
;Start GCode begin
M104 S222
M140 S65
G28 ;home
G90 ;absolute positioning
G1 X-10 Y-10 F3000
G1 Z0 F1800
M109 S222;Wait for Hotend Temperature
M190 S65;Wait for Bed Temperature
G92 E0
G1 E20 F200
G92 E0
;Start GCode end
G92 E0
G1 F1500 E-6.5
;LAYER_COUNT:349
;LAYER:0
M107
;MESH:/Users/x/Library/Application Support/snapmaker-luban/Tmp/charmanderstarter1genflowalist_09419097.stl
G0 F1200 X53.257 Y47.488 Z0.3
;TYPE:WALL-INNER
G1 F1500 E0
G1 F1080 X53.401 Y47.344 E0.01016
G1 X54.127 Y46.618 E0.06138
G1 X54.334 Y46.411 E0.07599
G1 X54.45 Y46.68 E0.08455
G1 X55.867 Y49.965 E0.26303
G1 X55.932 Y50.053 E0.26849
G1 X56.242 Y57.941 E0.66233
G1 X53.148 Y58.088 E0.81686
G1 X49.159 Y52.721 E1.15048
G1 X49.095 Y52.544 E1.15987
G1 X49.409 Y47.769 E1.39861
G1 X49.425 Y47.516 E1.41126
G1 X49.667 Y47.591 E1.41893
G1 X50.855 Y47.963 E1.48104
G1 X51.476 Y46.054 E1.58119
G1 X51.579 Y45.737 E1.59782
G1 X51.81 Y45.978 E1.60732
G1 X53.116 Y47.341 E1.7015
G1 X53.257 Y47.488 E1.70802
G0 F1200 X53.263 Y46.916
;TYPE:WALL-OUTER
G1 F1080 X54.261 Y45.918 E1.77843
G1 X54.468 Y45.711 E1.79304
G1 X54.583 Y45.98 E1.80159
G1 X54.584 Y45.981 E1.80166
G1 X56.216 Y49.765 E2.00725
G1 X56.327 Y49.916 E2.0166
G1 X56.658 Y58.322 E2.4363
G1 X52.954 Y58.498 E2.6213
G1 X48.803 Y52.913 E2.96847
G1 X48.69 Y52.602 E2.98498
G1 X49.043 Y47.236 E3.25327
G1 X49.059 Y46.983 E3.26592
G1 X49.301 Y47.058 E3.27359
G1 X50.597 Y47.463 E3.34133
G1 X51.303 Y45.294 E3.45513
G1 X51.406 Y44.977 E3.47176
G1 X51.637 Y45.218 E3.48126
G1 X53.263 Y46.916 E3.59855
G0 F1200 X53.404 Y46.775
G0 X54.204 Y47.092
;TYPE:SKIN
G1 F1080 X55.526 Y50.16 E3.76522
G1 X55.546 Y50.188 E3.76694
G1 X55.837 Y57.569 E4.13546
G1 X53.337 Y57.688 E4.26033
G1 X49.507 Y52.533 E4.58073
G1 X49.491 Y52.489 E4.58306
G1 X49.782 Y48.036 E4.8057
G1 X51.107 Y48.45 E4.87495
G1 X51.749 Y46.477 E4.97847
G1 X53.251 Y48.046 E5.08683
G1 X54.204 Y47.092 E5.15411
G0 F1200 X53.886 Y47.663
G1 F1080 X54.532 Y48.309 E5.19968
G1 X54.56 Y48.337
G0 F1200 X53.603 Y47.946
G1 F1080 X54.96 Y49.303 E5.29543
G1 X54.988 Y49.331
G0 F1200 X55.368 Y50.277
G1 F1080 X53.32 Y48.229 E5.43993
G1 X53.292 Y48.201
G0 F1200 X51.568 Y47.608
G1 F1080 X55.415 Y51.455 E5.71135
G0 F1200 X55.391 Y50.866
G1 F1080 X51.707 Y47.181 E5.97131
G1 X51.679 Y47.153
G0 F1200 X51.429 Y48.035
G1 F1080 X55.438 Y52.044 E6.25417
G0 F1200 X55.461 Y52.633
G1 F1080 X51.29 Y48.462 E6.54846
G0 F1200 X50.809 Y48.546
G1 F1080 X55.485 Y53.222 E6.87837
G0 F1200 X55.508 Y53.811
G1 F1080 X49.986 Y48.289 E7.26798
G0 F1200 X49.913 Y48.781
G1 F1080 X55.531 Y54.4 E7.6644
G0 F1200 X55.555 Y54.989
G1 F1080 X49.878 Y49.312 E8.06494
G0 F1200 X49.843 Y49.843
G1 F1080 X55.578 Y55.578 E8.46957
G0 F1200 X55.601 Y56.167
G1 F1080 X49.809 Y50.374 E8.87827
G0 F1200 X49.774 Y50.906
G1 F1080 X55.625 Y56.756 E9.29105
G0 F1200 X55.648 Y57.345
G1 F1080 X49.74 Y51.437 E9.70789
G0 F1200 X49.705 Y51.968
G1 F1080 X55.157 Y57.419 E10.09252
G0 F1200 X54.616 Y57.445
G1 F1080 X49.807 Y52.636 E10.43183
G1 X49.779 Y52.608
G0 F1200 X51.444 Y54.838
G1 F1080 X54.076 Y57.47 E10.61753
G0 F1200 X53.537 Y57.496
G1 F1080 X53.08 Y57.04 E10.64974
G1 F1500 E4.14974
G0 F1200 X55.914 Y50.059
G0 X57.195 Y50.008
G0 X68.032 Y49.329
G0 X69.15 Y49.974
G0 X71.744 Y47.588
G0 X71.743 Y47.488
;TYPE:WALL-INNER
G1 F1500 E10.64974
G1 F1080 X71.884 Y47.341 E10.6599
G1 X73.191 Y45.977 E10.75415
G1 X73.422 Y45.736 E10.7708
G1 X73.525 Y46.053 E10.78029
G1 X74.145 Y47.963 E10.88047
G1 X75.332 Y47.591 E10.94253
G1 X75.574 Y47.516 E10.95517
G1 X75.59 Y47.769 E10.96285
G1 X75.906 Y52.544 E11.20159
G1 X75.841 Y52.723 E11.2111
G1 X71.852 Y58.087 E11.54459
G1 X68.757 Y57.94 E11.69918
G1 X69.067 Y50.054 E12.09292
G1 X69.133 Y49.965 E12.09844
G1 X70.55 Y46.68 E12.27693
G1 X70.666 Y46.411 E12.29155
G1 X70.873 Y46.618 E12.3001
G1 X71.599 Y47.344 E12.35132
G1 X71.743 Y47.488 E12.35784
G0 F1200 X71.737 Y46.916
;TYPE:WALL-OUTER
G1 F1080 X73.364 Y45.217 E12.4752
G1 X73.595 Y44.976 E12.49186
G1 X73.698 Y45.293 E12.50134
G1 X74.403 Y47.463 E12.61518
G1 X75.697 Y47.058 E12.68282
G1 X75.939 Y46.983 E12.69546
G1 X75.955 Y47.236 E12.70314
G1 X76.311 Y52.603 E12.97149
G1 X76.197 Y52.915 E12.98806
G1 X72.046 Y58.497 E13.33511
G1 X68.341 Y58.321 E13.52016
G1 X68.672 Y49.917 E13.93976
G1 X68.784 Y49.765 E13.94918
G1 X70.416 Y45.981 E14.15477
G1 X70.417 Y45.98 E14.15485
G1 X70.532 Y45.711 E14.16944
G1 X70.739 Y45.918 E14.17799
G1 X71.737 Y46.916 E14.24841
G0 F1200 X71.875 Y46.772
G0 X70.796 Y47.092
;TYPE:SKIN
