;FLAVOR:Marlin
;TIME:6666
;Filament used: 0m
;Layer height: 0.2

;Generated with Cura_SteamEngine 3.6.0
M82 ;absolute extrusion mode
;Start GCode begin
M104 S200 ;Set Hotend Temperature
M140 S50 ;Set Bed Temperature
M109 ;Wait for Hotend Temperature
M190 ;Wait for Bed Temperature
G28 ;Home
G90 ;absolute positioning
G1 X-4 Y-4
G1 Z0 F3000
G92 E0
G1 F200 E20
G92 E0
;Start GCode end
G92 E0
G1 F1500 E-6.5
;LAYER_COUNT:80
;LAYER:0
M107
G0 F900 X46.119 Y51.347 Z0.3
;TYPE:SKIRT
G1 F1500 E0
G1 F480 X47.21 Y50.424 E0.0713
G1 X47.617 Y50.122 E0.09658
G1 X48.801 Y49.354 E0.16699
G1 X49.236 Y49.109 E0.1919
G1 X50.493 Y48.501 E0.26156
G1 X50.957 Y48.312 E0.28656
G1 X52.295 Y47.861 E0.357
G1 X52.779 Y47.731 E0.382
G1 X54.177 Y47.448 E0.45316
G1 X54.677 Y47.379 E0.47834
G1 X56.035 Y47.279 E0.54628
G1 X56.324 Y47.268 E0.56071
G1 X62.422 Y47.26 E0.86494
G1 X62.986 Y47.299 E0.89314
G1 X63.539 Y47.418 E0.92136
G1 X64.069 Y47.613 E0.94954
G1 X64.567 Y47.881 E0.97775
G1 X65.022 Y48.216 E1.00594
G1 X65.425 Y48.612 E1.03413
G1 X65.769 Y49.061 E1.06235
G1 X66.045 Y49.554 E1.09054
G1 X66.249 Y50.082 E1.11878
G1 X66.377 Y50.632 E1.14695
G1 X66.427 Y51.31 E1.18087
G1 X66.402 Y53.3 E1.28016
G1 X66.391 Y53.552 E1.29274
G1 X66.147 Y56.775 E1.454
G1 X65.977 Y62.206 E1.72508
G1 X66.116 Y67.68 E1.99827
G1 X66.427 Y72.295 E2.22904
G1 X66.436 Y72.595 E2.24401
G1 X66.427 Y73.772 E2.30273
G1 X66.383 Y74.335 E2.33091
G1 X66.259 Y74.887 E2.35913
G1 X66.06 Y75.416 E2.38733
G1 X65.787 Y75.911 E2.41553
G1 X65.448 Y76.363 E2.44372
G1 X65.048 Y76.763 E2.47194
G1 X64.596 Y77.102 E2.50013
G1 X64.1 Y77.374 E2.52835
G1 X63.571 Y77.574 E2.55657
G1 X63.019 Y77.697 E2.58478
G1 X62.403 Y77.741 E2.61559
G1 X55.694 Y77.7 E2.95031
G1 X55.175 Y77.663 E2.97627
G1 X53.672 Y77.457 E3.05196
G1 X53.158 Y77.352 E3.07813
G1 X51.768 Y76.971 E3.15004
G1 X51.284 Y76.804 E3.17558
G1 X49.986 Y76.262 E3.24576
G1 X49.54 Y76.042 E3.27057
G1 X48.34 Y75.355 E3.33955
G1 X47.93 Y75.086 E3.36402
G1 X46.808 Y74.246 E3.43394
G1 X46.419 Y73.914 E3.45946
G1 X45.386 Y72.911 E3.53129
G1 X45.047 Y72.538 E3.55644
G1 X44.172 Y71.443 E3.62637
G1 X43.886 Y71.035 E3.65122
G1 X43.153 Y69.838 E3.72125
G1 X42.916 Y69.39 E3.74654
G1 X42.336 Y68.101 E3.81705
G1 X42.16 Y67.633 E3.842
G1 X41.747 Y66.287 E3.91224
G1 X41.63 Y65.798 E3.93733
G1 X41.389 Y64.41 E4.00761
G1 X41.334 Y63.914 E4.03251
G1 X41.268 Y62.51 E4.10263
G1 X41.276 Y62.007 E4.12773
G1 X41.387 Y60.6 E4.19814
G1 X41.459 Y60.101 E4.2233
G1 X41.748 Y58.71 E4.29417
G1 X41.88 Y58.228 E4.31911
G1 X42.335 Y56.899 E4.38919
G1 X42.554 Y56.381 E4.41725
G1 X43.376 Y54.765 E4.5077
G1 X43.68 Y54.262 E4.53702
G1 X44.497 Y53.112 E4.6074
G1 X44.813 Y52.722 E4.63244
G1 X45.758 Y51.694 E4.70211
G1 X46.119 Y51.347 E4.72709
G0 F900 X46.378 Y51.653
G1 F480 X47.469 Y50.73 E4.79839
G1 X47.835 Y50.458 E4.82114
G1 X49.019 Y49.69 E4.89154
G1 X49.41 Y49.469 E4.91395
G1 X50.667 Y48.861 E4.98361
G1 X51.085 Y48.691 E5.00613
G1 X52.423 Y48.24 E5.07657
G1 X52.859 Y48.123 E5.09909
G1 X54.257 Y47.84 E5.17025
G1 X54.707 Y47.778 E5.19292
G1 X56.065 Y47.678 E5.26085
G1 X56.324 Y47.668 E5.27378
G1 X62.422 Y47.66 E5.57801
G1 X62.957 Y47.699 E5.60477
G1 X63.48 Y47.818 E5.63153
G1 X63.98 Y48.012 E5.65829
G1 X64.445 Y48.279 E5.68504
G1 X64.866 Y48.612 E5.71182
G1 X65.232 Y49.003 E5.73854
G1 X65.536 Y49.445 E5.76531
G1 X65.771 Y49.927 E5.79206
G1 X65.932 Y50.439 E5.81884
G1 X66.015 Y50.969 E5.8456
G1 X66.027 Y51.305 E5.86237
G1 X66.002 Y53.295 E5.96166
G1 X65.992 Y53.522 E5.973
G1 X65.747 Y56.755 E6.13476
G1 X65.576 Y62.209 E6.40699
G1 X65.716 Y67.694 E6.68073
G1 X66.028 Y72.322 E6.91214
G1 X66.036 Y72.592 E6.92562
G1 X66.027 Y73.769 E6.98434
G1 X65.983 Y74.303 E7.01107
G1 X65.86 Y74.825 E7.03783
G1 X65.661 Y75.323 E7.06459
G1 X65.39 Y75.786 E7.09135
G1 X65.053 Y76.203 E7.1181
G1 X64.658 Y76.566 E7.14486
G1 X64.214 Y76.866 E7.1716
G1 X63.73 Y77.097 E7.19835
G1 X63.217 Y77.253 E7.2251
G1 X62.686 Y77.332 E7.25189
G1 X62.405 Y77.341 E7.26591
G1 X55.696 Y77.3 E7.60063
G1 X55.229 Y77.267 E7.62399
G1 X53.726 Y77.061 E7.69968
G1 X53.263 Y76.966 E7.72326
G1 X51.873 Y76.585 E7.79516
G1 X51.438 Y76.435 E7.81812
G1 X50.14 Y75.893 E7.88829
G1 X49.738 Y75.695 E7.91065
G1 X48.538 Y75.008 E7.97964
G1 X48.169 Y74.766 E8.00165
G1 X47.047 Y73.926 E8.07158
G1 X46.697 Y73.627 E8.09454
G1 X45.664 Y72.624 E8.16638
G1 X45.36 Y72.288 E8.18898
G1 X44.485 Y71.193 E8.25891
G1 X44.227 Y70.826 E8.28129
G1 X43.494 Y69.629 E8.35132
G1 X43.281 Y69.226 E8.37406
G1 X42.701 Y67.937 E8.44458
G1 X42.542 Y67.516 E8.46703
G1 X42.129 Y66.17 E8.53727
G1 X42.024 Y65.73 E8.55984
G1 X41.783 Y64.342 E8.63013
G1 X41.734 Y63.895 E8.65256
G1 X41.668 Y62.491 E8.72268
G1 X41.675 Y62.039 E8.74524
G1 X41.786 Y60.632 E8.81565
G1 X41.85 Y60.183 E8.83828
G1 X42.139 Y58.792 E8.90916
G1 X42.258 Y58.358 E8.93161
G1 X42.713 Y57.029 E9.00169
G1 X42.91 Y56.563 E9.02693
G1 X43.732 Y54.947 E9.11738
G1 X44.006 Y54.494 E9.1438
G1 X44.823 Y53.344 E9.21418
G1 X45.108 Y52.993 E9.23673
G1 X46.053 Y51.965 E9.3064
G1 X46.378 Y51.653 E9.32887
G0 F900 X46.636 Y51.958
G1 F480 X47.727 Y51.035 E9.40017
G1 X48.053 Y50.793 E9.42043
G1 X49.237 Y50.025 E9.49083
G1 X49.585 Y49.829 E9.51076
G1 X50.842 Y49.221 E9.58042
G1 X51.213 Y49.07 E9.60041
G1 X52.551 Y48.619 E9.67085
G1 X52.938 Y48.515 E9.69084
G1 X54.336 Y48.232 E9.762
G1 X54.736 Y48.177 E9.78215
G1 X56.094 Y48.077 E9.85008
G1 X56.325 Y48.068 E9.86161
G1 X62.423 Y48.06 E10.16585
G1 X62.927 Y48.099 E10.19107
G1 X63.418 Y48.217 E10.21626
G1 X63.885 Y48.412 E10.24151
G1 X64.316 Y48.677 E10.26675
G1 X64.699 Y49.006 E10.29194
G1 X65.025 Y49.392 E10.31715
G1 X65.287 Y49.825 E10.3424
G1 X65.478 Y50.293 E10.36761
G1 X65.592 Y50.786 E10.39286
G1 X65.627 Y51.3 E10.41856
G1 X65.602 Y53.29 E10.51785
G1 X65.593 Y53.492 E10.52794
G1 X65.347 Y56.735 E10.6902
G1 X65.176 Y62.206 E10.96328
G1 X65.316 Y67.707 E11.23781
G1 X65.629 Y72.349 E11.46993
G1 X65.636 Y72.588 E11.48186
G1 X65.627 Y73.765 E11.54058
G1 X65.583 Y74.269 E11.56582
G1 X65.461 Y74.76 E11.59106
G1 X65.262 Y75.225 E11.6163
G1 X64.993 Y75.653 E11.64152
G1 X64.66 Y76.033 E11.66673
G1 X64.271 Y76.356 E11.69195
G1 X63.836 Y76.614 E11.71718
G1 X63.366 Y76.8 E11.7424
G1 X62.873 Y76.91 E11.7676
G1 X62.407 Y76.941 E11.7909
G1 X55.698 Y76.9 E12.12562
G1 X55.283 Y76.87 E12.14638
G1 X53.78 Y76.664 E12.22207
G1 X53.369 Y76.58 E12.24299
G1 X51.979 Y76.199 E12.3149
G1 X51.592 Y76.066 E12.33532
G1 X50.294 Y75.524 E12.40549
G1 X49.937 Y75.348 E12.42535
G1 X48.737 Y74.661 E12.49433
G1 X48.409 Y74.446 E12.5139
G1 X47.287 Y73.606 E12.58383
G1 X46.976 Y73.34 E12.60424
G1 X45.943 Y72.337 E12.67608
G1 X45.672 Y72.039 E12.69617
G1 X44.797 Y70.944 E12.7661
G1 X44.568 Y70.617 E12.78602
G1 X43.835 Y69.42 E12.85604
G1 X43.646 Y69.062 E12.87624
G1 X43.066 Y67.773 E12.94676
G1 X42.925 Y67.399 E12.9667
G1 X42.512 Y66.053 E13.03694
G1 X42.418 Y65.661 E13.05705
G1 X42.177 Y64.273 E13.12734
G1 X42.134 Y63.876 E13.14726
G1 X42.068 Y62.472 E13.21738
G1 X42.074 Y62.07 E13.23744
G1 X42.185 Y60.663 E13.30786
G1 X42.242 Y60.264 E13.32796
G1 X42.531 Y58.873 E13.39884
G1 X42.637 Y58.488 E13.41877
G1 X43.092 Y57.159 E13.48885
G1 X43.267 Y56.744 E13.51132
G1 X44.089 Y55.128 E13.60177
G1 X44.332 Y54.726 E13.62521
G1 X45.149 Y53.576 E13.69559
G1 X45.402 Y53.263 E13.71566
G1 X46.347 Y52.235 E13.78533
G1 X46.636 Y51.958 E13.8053
G1 F1500 E7.3053
;MESH:/Users/x/Library/Application Support/snapmakerjs/Tmp/FMC Clip 12.5mm_20201020174546648.stl
G0 F900 X50.68 Y52.102
G0 X51.369 Y53.185
G0 X53.473 Y52.917
G0 X57.156 Y52.532
G0 X57.088 Y52.605
;TYPE:WALL-INNER
G1 F1500 E13.8053
G1 F480 X56.875 Y52.62 E13.81595
G1 X55.086 Y52.749 E13.90544
G1 X53.711 Y53.048 E13.97564
G1 X52.396 Y53.539 E14.04567
G1 X51.161 Y54.212 E14.11584
G1 X50.036 Y55.055 E14.18598
G1 X49.042 Y56.049 E14.25611
G1 X48.2 Y57.174 E14.32621
G1 X47.526 Y58.407 E14.39632
G1 X47.035 Y59.725 E14.46649
G1 X46.737 Y61.099 E14.53663
G1 X46.636 Y62.5 E14.60671
G1 X46.737 Y63.901 E14.67679
G1 X47.035 Y65.275 E14.74693
G1 X47.526 Y66.593 E14.8171
G1 X48.2 Y67.826 E14.8872
G1 X49.042 Y68.951 E14.95731
G1 X50.036 Y69.945 E15.02744
G1 X51.161 Y70.788 E15.09758
G1 X52.396 Y71.461 E15.16775
G1 X53.711 Y71.952 E15.23778
G1 X55.085 Y72.251 E15.30793
G1 X56.876 Y72.38 E15.39751
G1 X57.089 Y72.395 E15.40817
G1 X57.089 Y72.182 E15.4149
G1 X57.089 Y72.181 E15.41495
G1 X57.088 Y67.55 E15.64599
G1 X57.088 Y67.35 E15.65597
G1 X57.288 Y67.35 E15.66243
G1 X60.445 Y67.35 E15.81994
G1 X60.445 Y72.35 E16.06939
G1 X61.837 Y72.35 E16.13883
G1 X61.837 Y73.15 E16.17875
G1 X56.511 Y73.15 E16.44446
G1 X55.148 Y73.064 E16.5126
G1 X53.841 Y72.815 E16.57898
G1 X52.571 Y72.402 E16.6456
G1 X51.36 Y71.832 E16.71238
G1 X50.225 Y71.112 E16.77944
G1 X49.206 Y70.269 E16.84542
G1 X48.284 Y69.287 E16.91262
G1 X47.492 Y68.196 E16.97988
G1 X46.856 Y67.041 E17.04566
G1 X46.36 Y65.787 E17.11294
G1 X46.029 Y64.494 E17.17953
G1 X45.861 Y63.171 E17.24606
G1 X45.861 Y61.829 E17.31301
G1 X46.029 Y60.506 E17.37955
G1 X46.36 Y59.213 E17.44614
G1 X46.856 Y57.959 E17.51342
G1 X47.492 Y56.804 E17.5792
G1 X48.284 Y55.713 E17.64646
G1 X49.206 Y54.731 E17.71366
G1 X50.225 Y53.888 E17.77964
G1 X51.36 Y53.168 E17.8467
G1 X52.571 Y52.598 E17.91347
G1 X53.841 Y52.185 E17.9801
G1 X55.148 Y51.936 E18.04648
G1 X56.511 Y51.85 E18.11461
G1 X61.836 Y51.85 E18.38028
G1 X61.837 Y52.45 E18.41021
G1 X61.837 Y52.65 E18.42019
G1 X61.637 Y52.65 E18.42665
G1 X60.645 Y52.65 E18.47614
G1 X60.445 Y52.65 E18.48612
G1 X60.445 Y52.85 E18.49258
G1 X60.446 Y57.45 E18.72208
G1 X60.446 Y57.65 E18.73205
G1 X60.246 Y57.65 E18.73852
G1 X57.088 Y57.65 E18.89607
G1 X57.088 Y52.819 E19.13709
G1 X57.088 Y52.818 E19.13714
G1 X57.088 Y52.605 E19.14387
G0 F900 X56.688 Y53.035
;TYPE:WALL-OUTER
G1 F480 X56.475 Y53.05 E19.15453
G1 X55.143 Y53.146 E19.22115
G1 X53.824 Y53.433 E19.2885
G1 X52.562 Y53.904 E19.3557
G1 X51.378 Y54.549 E19.42297
G1 X50.299 Y55.358 E19.49025
G1 X49.345 Y56.312 E19.55756
G1 X48.537 Y57.391 E19.62481
G1 X47.891 Y58.574 E19.69206
G1 X47.42 Y59.838 E19.75935
G1 X47.134 Y61.156 E19.82664
G1 X47.037 Y62.5 E19.89387
G1 X47.134 Y63.844 E19.96109
G1 X47.42 Y65.162 E20.02838
G1 X47.891 Y66.426 E20.09568
G1 X48.537 Y67.609 E20.16292
G1 X49.345 Y68.688 E20.23017
G1 X50.299 Y69.642 E20.29748
G1 X51.378 Y70.451 E20.36477
G1 X52.562 Y71.096 E20.43203
G1 X53.824 Y71.567 E20.49924
G1 X55.142 Y71.854 E20.56653
G1 X56.476 Y71.95 E20.63326
G1 X56.689 Y71.965 E20.64391
G1 X56.689 Y71.752 E20.65065
G1 X56.689 Y71.751 E20.6507
G1 X56.688 Y67.15 E20.88024
G1 X56.688 Y66.95 E20.89022
G1 X56.888 Y66.95 E20.89668
G1 X60.845 Y66.95 E21.0941
G1 X60.845 Y71.95 E21.34355
G1 X62.214 Y71.95 E21.41185
G1 X62.237 Y72.311 E21.42989
G1 X62.237 Y73.55 E21.49171
G1 X56.502 Y73.55 E21.77783
G1 X55.095 Y73.461 E21.84816
G1 X53.744 Y73.204 E21.91677
G1 X52.422 Y72.774 E21.98613
G1 X51.166 Y72.183 E22.05538
G1 X49.991 Y71.437 E22.12482
G1 X48.928 Y70.558 E22.19364
G1 X47.976 Y69.544 E22.26303
G1 X47.156 Y68.415 E22.33264
G1 X46.492 Y67.209 E22.40133
G1 X45.98 Y65.915 E22.47075
G1 X45.634 Y64.564 E22.54033
G1 X45.461 Y63.197 E22.60907
G1 X45.461 Y61.803 E22.67862
G1 X45.634 Y60.436 E22.74737
G1 X45.98 Y59.085 E22.81694
G1 X46.492 Y57.791 E22.88637
G1 X47.156 Y56.585 E22.95505
G1 X47.976 Y55.456 E23.02467
G1 X48.928 Y54.442 E23.09406
G1 X49.991 Y53.563 E23.16288
G1 X51.166 Y52.817 E23.23231
G1 X52.422 Y52.226 E23.30157
G1 X53.744 Y51.796 E23.37092
G1 X55.095 Y51.539 E23.43953
G1 X56.502 Y51.45 E23.50987
G1 X62.236 Y51.45 E23.79594
G1 X62.237 Y52.67 E23.85681
G1 X62.237 Y52.69 E23.8578
G1 X62.215 Y53.05 E23.8758
G1 X62.195 Y53.05 E23.87679
G1 X61.045 Y53.05 E23.93417
G1 X60.845 Y53.05 E23.94415
G1 X60.845 Y53.25 E23.95061
G1 X60.846 Y57.85 E24.1801
G1 X60.846 Y58.05 E24.19008
G1 X60.646 Y58.05 E24.19654
G1 X56.688 Y58.05 E24.39401
G1 X56.688 Y53.249 E24.63353
G1 X56.688 Y53.248 E24.63358
G1 X56.688 Y53.035 E24.64031
G0 F900 X56.488 Y53.049
G0 X56.536 Y52.24
;TYPE:SKIN
G1 F480 X56.727 Y52.24 E24.64984
G1 X55.03 Y52.362 E24.73473
G1 X53.608 Y52.671 E24.80733
G1 X53.941 Y52.563 E24.82479
G1 X55.189 Y52.325 E24.88818
G1 X56.536 Y52.24 E24.95551
G0 F900 X57.478 Y52.24
G1 F480 X61.446 Y52.24 E25.15348
G1 X61.447 Y52.26 E25.15447
G1 X60.055 Y52.26 E25.22392
G1 X60.056 Y57.26 E25.47337
G1 X57.478 Y57.26 E25.60199
G1 X57.478 Y52.24 E25.85244
G0 F900 X53.583 Y52.679
G1 F480 X52.273 Y53.169 E25.92222
G1 X52.714 Y52.962 E25.94652
G1 X53.583 Y52.679 E25.99212
G0 F900 X52.183 Y53.212
G1 F480 X51.023 Y53.844 E26.05802
G1 X51.546 Y53.511 E26.08895
G1 X52.183 Y53.212 E26.12406
G0 F900 X50.892 Y53.926
G1 F480 X49.814 Y54.733 E26.19124
G1 X50.451 Y54.206 E26.23249
G1 X50.892 Y53.926 E26.25855
G0 F900 X49.764 Y54.775
G1 F480 X48.746 Y55.793 E26.33038
G1 X47.871 Y56.963 E26.40327
G1 X47.171 Y58.245 E26.47614
G1 X46.66 Y59.615 E26.54909
G1 X46.358 Y61.006 E26.6201
G1 X46.411 Y60.589 E26.64107
G1 X46.731 Y59.336 E26.70559
G1 X47.213 Y58.117 E26.77099
G1 X47.818 Y57.019 E26.83354
G1 X48.585 Y55.964 E26.89861
G1 X49.481 Y55.009 E26.96394
G1 X49.764 Y54.775 E26.98226
G0 F900 X48.167 Y57.153
G0 X47.619 Y58.155
G0 X46.346 Y61.103
G1 F480 X46.251 Y62.404 E27.04734
G1 X46.251 Y61.846 E27.07518
G1 X46.346 Y61.103 E27.11255
G0 F900 X46.251 Y62.596
G1 F480 X46.346 Y63.897 E27.17763
G1 X46.251 Y63.154 E27.215
G1 X46.251 Y62.596 E27.24284
G0 F900 X46.358 Y63.994
G1 F480 X46.66 Y65.385 E27.31385
G1 X47.171 Y66.755 E27.3868
G1 X47.871 Y68.037 E27.45968
G1 X48.746 Y69.207 E27.53257
G1 X49.764 Y70.225 E27.60439
G1 X49.481 Y69.991 E27.62271
G1 X48.585 Y69.036 E27.68804
G1 X47.818 Y67.981 E27.75312
G1 X47.213 Y66.883 E27.81566
G1 X46.731 Y65.664 E27.88106
G1 X46.411 Y64.411 E27.94558
G1 X46.358 Y63.994 E27.96655
G0 F900 X47.49 Y66.609
G0 X48.038 Y67.611
G0 X49.814 Y70.267
G1 F480 X50.892 Y71.074 E28.03373
G1 X50.451 Y70.794 E28.05979
G1 X49.814 Y70.267 E28.10104
G0 F900 X51.023 Y71.156
G1 F480 X52.183 Y71.788 E28.16694
G1 X51.546 Y71.489 E28.20205
G1 X51.023 Y71.156 E28.23298
G0 F900 X52.273 Y71.831
G1 F480 X53.583 Y72.321 E28.30276
G1 X52.714 Y72.038 E28.34836
G1 X52.273 Y71.831 E28.37266
G0 F900 X53.608 Y72.329
G1 F480 X55.029 Y72.638 E28.44521
G1 X56.727 Y72.76 E28.53015
G1 X56.536 Y72.76 E28.53967
G1 X55.189 Y72.675 E28.60701
G1 X53.941 Y72.437 E28.6704
G1 X53.608 Y72.329 E28.68786
G0 F900 X57.116 Y72.424
G0 X57.478 Y67.74
G1 F480 X60.055 Y67.74 E28.81643
G1 X60.055 Y72.74 E29.06588
G1 X61.447 Y72.74 E29.13533
G1 X61.447 Y72.76 E29.13632
G1 X57.479 Y72.76 E29.33429
G1 X57.478 Y67.74 E29.58474
G0 F900 X57.871 Y72.578
G1 F480 X57.658 Y72.366 E29.59973
G0 F900 X57.658 Y71.8
G1 F480 X58.436 Y72.578 E29.65462
G0 F900 X59.002 Y72.578
G1 F480 X57.658 Y71.234 E29.74945
G0 F900 X57.658 Y70.668
G1 F480 X59.568 Y72.578 E29.88421
G0 F900 X59.874 Y72.32
G1 F480 X57.658 Y70.103 E30.0406
G0 F900 X57.658 Y69.537
G1 F480 X59.874 Y71.754 E30.19698
G0 F900 X59.874 Y71.188
G1 F480 X57.658 Y68.971 E30.35337
G0 F900 X57.658 Y68.406
G1 F480 X59.874 Y70.622 E30.50972
G0 F900 X59.874 Y70.057
G1 F480 X57.737 Y67.919 E30.66053
G0 F900 X58.303 Y67.919
G1 F480 X59.874 Y69.491 E30.77141
G0 F900 X59.874 Y68.925
G1 F480 X58.868 Y67.919 E30.84239
G0 F900 X59.434 Y67.919
G1 F480 X59.874 Y68.36 E30.87347
G0 F900 X57.116 Y72.424
G0 X55.08 Y72.29
G0 X53.7 Y71.99
G0 X52.38 Y71.497
G0 X51.14 Y70.821
G0 X50.01 Y69.975
G0 X49.012 Y68.977
G0 X48.167 Y67.847
G0 X47.49 Y66.609
G0 X46.997 Y65.286
G0 X46.698 Y63.906
G0 X46.596 Y62.5
G0 X46.698 Y61.094
G0 X46.997 Y59.714
G0 X47.49 Y58.391
G0 X48.167 Y57.153
G0 X49.012 Y56.023
G0 X50.01 Y55.025
G0 X51.14 Y54.179
G0 X52.38 Y53.503
G0 X53.7 Y53.01
G0 X55.081 Y52.71
G0 X57.115 Y52.576
G0 X59.342 Y57.079
G1 F480 X57.656 Y55.394 E30.99239
G0 F900 X57.656 Y55.959
G1 F480 X58.776 Y57.079 E31.07141
G0 F900 X58.211 Y57.079
G1 F480 X57.656 Y56.525 E31.11053
G0 F900 X57.656 Y54.828
G1 F480 X59.875 Y57.047 E31.2671
G0 F900 X59.875 Y56.481
G1 F480 X57.656 Y54.262 E31.42366
G0 F900 X57.656 Y53.696
G1 F480 X59.875 Y55.915 E31.58022
G0 F900 X59.875 Y55.35
G1 F480 X57.656 Y53.131 E31.73678
G0 F900 X57.656 Y52.565
G1 F480 X59.875 Y54.784 E31.89335
G0 F900 X59.874 Y54.218
