;FLAVOR:Marlin
;TIME:6666
;Filament used: 0m
;Layer height: 0.1

;Generated with Cura_SteamEngine 2.7.0

;Start GCode begin
M140 S50
M109 S210
M190 S50
G28 ;Home
G90 ;absolute positioning
G1 X-4 Y-4
G1 Z0 F3000
G92 E0
G1 F200 E20
G92 E0
;Start GCode end

;LAYER_COUNT:204
;LAYER:0
M107
G0 F2400 X59.447 Y56.636 Z0.2
;TYPE:SKIRT
G1 F900 X58.964 Y57.151 E0.02348
G1 X58.509 Y57.741 E0.04826
G1 X58.111 Y58.377 E0.07322
G1 X57.752 Y59.092 E0.09983
G1 X57.482 Y59.765 E0.12395
G1 X57.151 Y60.482 E0.15021
G1 X56.749 Y61.162 E0.17649
G1 X56.281 Y61.798 E0.20275
G1 X55.75 Y62.383 E0.22903
G1 X55.529 Y62.582 E0.23892
G1 X55.975 Y63.004 E0.25934
G1 X56.491 Y63.602 E0.28561
G1 X56.944 Y64.249 E0.31188
G1 X57.461 Y65.221 E0.3485
G1 X57.954 Y66.329 E0.38883
G1 X58.281 Y66.905 E0.41086
G1 X59.039 Y67.931 E0.45329
G1 X59.47 Y68.386 E0.47414
G1 X60.009 Y68.853 E0.49786
G1 X60.552 Y69.235 E0.51994
G1 X61.146 Y69.57 E0.54262
G1 X61.736 Y69.828 E0.56404
G1 X62.258 Y69.994 E0.58226
G1 X63.383 Y70.198 E0.62028
G1 X63.9 Y70.224 E0.6375
G1 X64.421 Y70.195 E0.65486
G1 X65.561 Y69.982 E0.69343
G1 X66.065 Y69.819 E0.71105
G1 X66.668 Y69.552 E0.73298
G1 X67.248 Y69.222 E0.75518
G1 X67.799 Y68.83 E0.77767
G1 X68.331 Y68.364 E0.80119
G1 X68.815 Y67.849 E0.8247
G1 X69.264 Y67.264 E0.84922
G1 X69.67 Y66.617 E0.87463
G1 X70.007 Y65.946 E0.8996
G1 X70.255 Y65.306 E0.92243
G1 X70.58 Y64.05 E0.96558
G1 X70.721 Y62.797 E1.00752
G1 X70.719 Y62.079 E1.0314
G1 X70.644 Y61.285 E1.05793
G1 X70.495 Y60.504 E1.08437
G1 X70.277 Y59.747 E1.11057
G1 X69.991 Y59.019 E1.13659
G1 X69.647 Y58.342 E1.16184
G1 X69.247 Y57.711 E1.18669
G1 X68.792 Y57.126 E1.21134
G1 X68.305 Y56.611 E1.23492
G1 X67.769 Y56.147 E1.2585
G1 X67.226 Y55.765 E1.28058
G1 X66.723 Y55.481 E1.29979
G1 X65.724 Y55.076 E1.33564
G1 X64.793 Y54.856 E1.36746
G1 X63.782 Y54.782 E1.40118
G1 X63.356 Y54.805 E1.41537
G1 X62.213 Y55.018 E1.45404
G1 X61.714 Y55.18 E1.47149
G1 X61.116 Y55.445 E1.49324
G1 X60.53 Y55.778 E1.51566
G1 X59.979 Y56.17 E1.53815
G1 X59.447 Y56.636 E1.56167
G0 F2400 X59.174 Y56.343
G1 F900 X58.657 Y56.894 E1.5868
G1 X58.181 Y57.511 E1.61272
G1 X57.764 Y58.176 E1.63883
G1 X57.385 Y58.933 E1.66699
G1 X57.111 Y59.616 E1.69146
G1 X56.787 Y60.314 E1.71706
G1 X56.393 Y60.974 E1.74262
G1 X55.933 Y61.591 E1.76822
G1 X55.411 Y62.155 E1.79378
G1 X54.914 Y62.591 E1.81577
G1 X55.247 Y62.857 E1.82995
G1 X55.795 Y63.397 E1.85554
G1 X56.284 Y63.991 E1.88113
G1 X56.709 Y64.632 E1.90671
G1 X57.096 Y65.384 E1.93484
G1 X57.597 Y66.511 E1.97586
G1 X57.945 Y67.123 E1.99927
G1 X58.731 Y68.188 E2.0433
G1 X59.195 Y68.676 E2.06569
G1 X59.762 Y69.168 E2.09066
G1 X60.342 Y69.576 E2.11425
G1 X60.968 Y69.929 E2.13815
G1 X61.598 Y70.204 E2.16101
G1 X62.152 Y70.38 E2.18035
G1 X63.338 Y70.596 E2.22044
G1 X63.902 Y70.624 E2.23922
G1 X64.477 Y70.592 E2.25838
G1 X65.657 Y70.372 E2.2983
G1 X66.207 Y70.194 E2.31753
G1 X66.842 Y69.912 E2.34064
G1 X67.469 Y69.556 E2.36462
G1 X68.049 Y69.143 E2.3883
G1 X68.604 Y68.657 E2.41284
G1 X69.122 Y68.105 E2.43802
G1 X69.595 Y67.49 E2.46382
G1 X70.014 Y66.823 E2.49002
G1 X70.376 Y66.1 E2.51691
G1 X70.638 Y65.425 E2.54099
G1 X70.974 Y64.124 E2.58569
G1 X71.121 Y62.824 E2.6292
G1 X71.119 Y62.062 E2.65454
G1 X71.04 Y61.226 E2.68247
G1 X70.885 Y60.415 E2.70993
G1 X70.653 Y59.609 E2.73783
G1 X70.359 Y58.863 E2.7645
G1 X69.994 Y58.142 E2.79138
G1 X69.576 Y57.483 E2.81733
G1 X69.097 Y56.866 E2.84331
G1 X68.58 Y56.321 E2.8683
G1 X68.016 Y55.832 E2.89313
G1 X67.436 Y55.424 E2.91671
G1 X66.898 Y55.12 E2.93727
G1 X65.851 Y54.695 E2.97485
G1 X64.85 Y54.459 E3.00906
G1 X63.789 Y54.381 E3.04444
G1 X63.307 Y54.407 E3.06049
G1 X62.117 Y54.629 E3.10076
G1 X61.572 Y54.806 E3.11982
G1 X60.934 Y55.089 E3.14303
G1 X60.309 Y55.444 E3.16694
G1 X59.729 Y55.857 E3.19062
G1 X59.174 Y56.343 E3.21515
G0 F2400 X58.89 Y56.06
G1 F900 X58.354 Y56.631 E3.2412
G1 X57.851 Y57.285 E3.26864
G1 X57.416 Y57.979 E3.29589
G1 X57.023 Y58.763 E3.32505
G1 X56.74 Y59.467 E3.35029
G1 X56.424 Y60.145 E3.37517
G1 X56.038 Y60.786 E3.40006
G1 X55.586 Y61.382 E3.42494
G1 X55.073 Y61.926 E3.44981
G1 X54.504 Y62.412 E3.47469
G1 X54.239 Y62.594 E3.48539
G1 X54.512 Y62.775 E3.49628
G1 X55.088 Y63.253 E3.52118
G1 X55.609 Y63.79 E3.54606
G1 X56.07 Y64.379 E3.57094
G1 X56.466 Y65.014 E3.59583
G1 X56.73 Y65.546 E3.61558
G1 X57.24 Y66.693 E3.65733
G1 X57.609 Y67.341 E3.68214
G1 X58.423 Y68.445 E3.72776
G1 X58.919 Y68.968 E3.75173
G1 X59.509 Y69.479 E3.77769
G1 X60.129 Y69.915 E3.8029
G1 X60.786 Y70.285 E3.82798
G1 X61.462 Y70.581 E3.85252
G1 X62.058 Y70.771 E3.87333
G1 X63.292 Y70.995 E3.91504
G1 X63.903 Y71.025 E3.93539
G1 X64.52 Y70.991 E3.95594
G1 X65.752 Y70.761 E3.99763
G1 X66.361 Y70.564 E4.01892
G1 X67.021 Y70.272 E4.04292
G1 X67.675 Y69.899 E4.06796
G1 X68.3 Y69.454 E4.09348
G1 X68.888 Y68.94 E4.11946
G1 X69.424 Y68.368 E4.14553
G1 X69.923 Y67.72 E4.17273
G1 X70.365 Y67.015 E4.20041
G1 X70.738 Y66.272 E4.22806
G1 X71.02 Y65.545 E4.25399
G1 X71.368 Y64.199 E4.30023
G1 X71.521 Y62.841 E4.34569
G1 X71.519 Y62.044 E4.37219
G1 X71.435 Y61.166 E4.40153
G1 X71.274 Y60.315 E4.43034
G1 X71.035 Y59.487 E4.459
G1 X70.724 Y58.696 E4.48727
G1 X70.345 Y57.949 E4.51513
G1 X69.899 Y57.246 E4.54282
G1 X69.402 Y56.606 E4.56977
G1 X68.856 Y56.03 E4.59617
G1 X68.269 Y55.521 E4.62201
G1 X67.649 Y55.085 E4.64722
G1 X67.067 Y54.757 E4.66944
G1 X65.978 Y54.314 E4.70854
G1 X64.909 Y54.062 E4.74507
G1 X63.789 Y53.98 E4.78242
G1 X63.258 Y54.009 E4.80011
G1 X62.021 Y54.24 E4.84196
G1 X61.43 Y54.431 E4.86262
G1 X60.752 Y54.731 E4.88728
G1 X60.103 Y55.101 E4.91213
G1 X59.478 Y55.546 E4.93765
G1 X58.89 Y56.06 E4.96362
G0 F2400 X58.622 Y55.763
G1 F900 X58.038 Y56.385 E4.992
G1 X57.526 Y57.049 E5.01989
G1 X57.069 Y57.779 E5.04853
G1 X56.651 Y58.614 E5.07959
G1 X56.368 Y59.318 E5.10483
G1 X56.061 Y59.976 E5.12898
G1 X55.683 Y60.596 E5.15313
G1 X55.239 Y61.171 E5.17729
G1 X54.735 Y61.694 E5.20145
G1 X54.177 Y62.158 E5.22559
G1 X53.57 Y62.559 E5.24978
G1 X53.484 Y62.603 E5.253
G1 X53.776 Y62.76 E5.26402
G1 X54.374 Y63.173 E5.28819
G1 X54.924 Y63.648 E5.31237
G1 X55.417 Y64.181 E5.33651
G1 X55.849 Y64.765 E5.36067
G1 X56.365 Y65.709 E5.39646
G1 X56.886 Y66.879 E5.43905
G1 X57.267 Y67.55 E5.46472
G1 X58.12 Y68.706 E5.5125
G1 X58.644 Y69.258 E5.53782
G1 X59.267 Y69.797 E5.56522
G1 X59.914 Y70.254 E5.59156
G1 X60.608 Y70.644 E5.61804
G1 X61.315 Y70.954 E5.64372
G1 X61.959 Y71.158 E5.66618
G1 X63.247 Y71.392 E5.70972
G1 X63.906 Y71.425 E5.73167
G1 X64.569 Y71.389 E5.75375
G1 X65.855 Y71.148 E5.79727
G1 X66.495 Y70.942 E5.81963
G1 X67.21 Y70.624 E5.84566
G1 X67.888 Y70.238 E5.87161
G1 X68.551 Y69.767 E5.89866
G1 X69.156 Y69.237 E5.92541
G1 X69.736 Y68.619 E5.9536
G1 X70.253 Y67.947 E5.9818
G1 X70.709 Y67.221 E6.01031
G1 X71.105 Y66.43 E6.03974
G1 X71.401 Y65.668 E6.06693
G1 X71.762 Y64.272 E6.11488
G1 X71.921 Y62.859 E6.16218
G1 X71.919 Y62.017 E6.19018
G1 X71.833 Y61.118 E6.22022
G1 X71.664 Y60.224 E6.25048
G1 X71.414 Y59.359 E6.28043
G1 X71.086 Y58.526 E6.3102
G1 X70.694 Y57.753 E6.33903
G1 X70.228 Y57.018 E6.36798
G1 X69.703 Y56.341 E6.39647
G1 X69.137 Y55.744 E6.42383
G1 X68.511 Y55.203 E6.45135
G1 X67.864 Y54.746 E6.4777
G1 X67.248 Y54.4 E6.5012
G1 X66.091 Y53.929 E6.54275
G1 X64.974 Y53.666 E6.58091
G1 X63.797 Y53.579 E6.62017
G1 X63.208 Y53.612 E6.63979
G1 X61.926 Y53.851 E6.68316
G1 X61.279 Y54.06 E6.70578
G1 X60.57 Y54.374 E6.73157
G1 X59.89 Y54.762 E6.75761
G1 X59.227 Y55.233 E6.78466
G1 X58.622 Y55.763 E6.81141
G0 F2400 X58.339 Y55.48
G1 F900 X57.736 Y56.122 E6.8407
G1 X57.199 Y56.819 E6.86997
G1 X56.718 Y57.586 E6.90008
G1 X56.288 Y58.445 E6.93203
G1 X55.997 Y59.169 E6.95798
G1 X55.698 Y59.806 E6.98139
G1 X55.329 Y60.405 E7.00479
G1 X54.894 Y60.959 E7.02821
G1 X54.399 Y61.46 E7.05164
G1 X53.851 Y61.901 E7.07503
G1 X53.256 Y62.277 E7.09844
G1 X52.622 Y62.584 E7.12187
G1 X52.551 Y62.609 E7.12438
G1 X53.045 Y62.816 E7.14219
G1 X53.66 Y63.159 E7.16561
G1 X54.232 Y63.57 E7.18904
G1 X54.753 Y64.042 E7.21242
G1 X55.218 Y64.571 E7.23585
G1 X55.619 Y65.149 E7.25925
G1 X56 Y65.871 E7.2864
G1 X56.53 Y67.061 E7.32972
G1 X56.935 Y67.774 E7.357
G1 X57.809 Y68.959 E7.40597
G1 X58.369 Y69.549 E7.43303
G1 X59.02 Y70.113 E7.46168
G1 X59.701 Y70.593 E7.48939
G1 X60.425 Y71.001 E7.51703
G1 X61.177 Y71.329 E7.54431
G1 X61.868 Y71.549 E7.56843
G1 X63.201 Y71.791 E7.61349
G1 X63.899 Y71.826 E7.63674
G1 X64.619 Y71.786 E7.66072
G1 X65.95 Y71.538 E7.70575
G1 X66.646 Y71.313 E7.73008
G1 X67.384 Y70.985 E7.75694
G1 X68.109 Y70.573 E7.78468
G1 X68.796 Y70.083 E7.81275
G1 X69.439 Y69.52 E7.84117
G1 X70.038 Y68.882 E7.87028
G1 X70.581 Y68.177 E7.89988
G1 X71.06 Y67.413 E7.92987
G1 X71.471 Y66.593 E7.96037
G1 X71.781 Y65.795 E7.98885
G1 X72.157 Y64.34 E8.03883
G1 X72.321 Y62.886 E8.0875
G1 X72.319 Y62 E8.11697
G1 X72.229 Y61.059 E8.14841
G1 X72.054 Y60.135 E8.17969
G1 X71.792 Y59.228 E8.21109
G1 X71.454 Y58.368 E8.24182
G1 X71.039 Y57.549 E8.27236
G1 X70.557 Y56.789 E8.30229
G1 X70.007 Y56.082 E8.33208
G1 X69.412 Y55.454 E8.36086
G1 X68.758 Y54.887 E8.38965
G1 X68.077 Y54.407 E8.41736
G1 X67.418 Y54.036 E8.44251
G1 X66.218 Y53.549 E8.48558
G1 X65.033 Y53.269 E8.52608
G1 X63.804 Y53.179 E8.56707
G1 X63.159 Y53.214 E8.58855
G1 X61.823 Y53.463 E8.63375
G1 X61.142 Y53.684 E8.65757
G1 X60.394 Y54.015 E8.68477
G1 X59.669 Y54.427 E8.71251
G1 X58.982 Y54.917 E8.74057
G1 X58.339 Y55.48 E8.769
G0 F2400 X58.06 Y55.192
G1 F900 X57.433 Y55.859 E8.79945
G1 X56.868 Y56.593 E8.83025
G1 X56.367 Y57.393 E8.86165
G1 X55.927 Y58.27 E8.89428
G1 X55.626 Y59.02 E8.92116
G1 X55.336 Y59.636 E8.94381
G1 X54.975 Y60.213 E8.96645
G1 X54.549 Y60.744 E8.98909
G1 X54.064 Y61.222 E9.01174
G1 X53.526 Y61.64 E9.0344
G1 X52.943 Y61.992 E9.05705
G1 X52.323 Y62.273 E9.07969
G1 X51.674 Y62.479 E9.10234
G1 X51.006 Y62.608 E9.12496
G1 X50.818 Y62.62 E9.13123
G1 X51.003 Y62.631 E9.13739
G1 X51.674 Y62.749 E9.16005
G1 X52.326 Y62.944 E9.18269
G1 X52.95 Y63.215 E9.20532
G1 X53.539 Y63.557 E9.22797
G1 X54.084 Y63.966 E9.25063
G1 X54.576 Y64.436 E9.27326
G1 X55.011 Y64.96 E9.29591
G1 X55.381 Y65.532 E9.31857
G1 X55.634 Y66.034 E9.33727
G1 X56.168 Y67.235 E9.38099
G1 X56.599 Y67.992 E9.40996
G1 X57.504 Y69.219 E9.46067
G1 X58.093 Y69.84 E9.48914
G1 X58.771 Y70.427 E9.51896
G1 X59.486 Y70.931 E9.54806
G1 X60.247 Y71.36 E9.57711
G1 X61.033 Y71.703 E9.60564
G1 X61.766 Y71.936 E9.63122
G1 X63.156 Y72.189 E9.67821
G1 X63.91 Y72.226 E9.70332
G1 X64.66 Y72.185 E9.7283
G1 X66.053 Y71.925 E9.77543
G1 X66.788 Y71.687 E9.80113
G1 X67.562 Y71.344 E9.82929
G1 X68.326 Y70.909 E9.85853
G1 X69.046 Y70.396 E9.88793
G1 X69.718 Y69.808 E9.91763
G1 X70.341 Y69.145 E9.94789
G1 X70.912 Y68.403 E9.97903
G1 X71.412 Y67.607 E10.0103
G1 X71.835 Y66.76 E10.04178
G1 X72.164 Y65.914 E10.07198
G1 X72.55 Y64.42 E10.1233
G1 X72.721 Y62.903 E10.17407
G1 X72.719 Y61.982 E10.20471
G1 X72.625 Y61 E10.23752
G1 X72.442 Y60.036 E10.27015
G1 X72.175 Y59.109 E10.30224
G1 X71.818 Y58.202 E10.33466
G1 X71.383 Y57.343 E10.36668
G1 X70.885 Y56.559 E10.39757
G1 X70.312 Y55.821 E10.42865
G1 X69.688 Y55.163 E10.45881
G1 X69.007 Y54.573 E10.48878
G1 X68.292 Y54.069 E10.51787
G1 X67.599 Y53.679 E10.54432
G1 X66.336 Y53.166 E10.58966
G1 X65.092 Y52.872 E10.63218
G1 X63.803 Y52.777 E10.67517
G1 X63.118 Y52.815 E10.69799
G1 X61.727 Y53.075 E10.74505
G1 X60.991 Y53.312 E10.77077
G1 X60.215 Y53.657 E10.79901
G1 X59.452 Y54.091 E10.82821
G1 X58.732 Y54.604 E10.85761
G1 X58.06 Y55.192 E10.88731
G0 F2400 X57.782 Y54.904
G1 F900 X57.126 Y55.602 E10.91917
G1 X56.541 Y56.362 E10.95107
G1 X56.02 Y57.193 E10.98369
G1 X55.56 Y58.111 E11.01785
G1 X55.255 Y58.871 E11.04508
G1 X54.973 Y59.464 E11.06692
G1 X54.622 Y60.019 E11.08876
G1 X54.206 Y60.528 E11.11063
G1 X53.731 Y60.981 E11.13246
G1 X53.204 Y61.374 E11.15432
G1 X52.634 Y61.7 E11.17616
G1 X52.028 Y61.955 E11.19803
G1 X51.396 Y62.134 E11.21988
G1 X50.747 Y62.235 E11.24173
G1 X50.245 Y62.258 E11.25844
G1 X39.649 Y62.26 E11.61086
G1 X38.993 Y62.22 E11.63272
G1 X38.347 Y62.101 E11.65457
G1 X37.54 Y61.831 E11.68287
G1 X36.967 Y61.588 E11.70357
G1 X36.379 Y61.296 E11.72541
G1 X35.83 Y60.934 E11.74728
G1 X35.33 Y60.508 E11.76913
G1 X34.763 Y59.868 E11.79757
G1 X34.389 Y59.372 E11.81823
G1 X34.026 Y58.824 E11.84009
G1 X33.733 Y58.237 E11.86191
G1 X33.471 Y57.467 E11.88897
G1 X33.393 Y57.164 E11.89937
G1 X33.269 Y56.519 E11.92122
G1 X33.223 Y55.774 E11.94604
G1 X33.256 Y51.717 E12.08098
G1 X33.301 Y51.062 E12.10282
G1 X33.426 Y50.417 E12.12467
G1 X33.628 Y49.791 E12.14655
G1 X33.974 Y49.071 E12.17312
G1 X34.282 Y48.535 E12.19368
G1 X34.643 Y47.986 E12.21553
G1 X35.069 Y47.485 E12.23741
G1 X35.552 Y47.04 E12.25925
G1 X36.261 Y46.55 E12.28792
G1 X36.799 Y46.239 E12.30858
G1 X37.387 Y45.945 E12.33045
G1 X38.006 Y45.725 E12.3523
G1 X38.647 Y45.582 E12.37414
G1 X39.478 Y45.514 E12.40188
G1 X45.939 Y45.485 E12.61677
G1 X47.205 Y44.074 E12.67982
G1 X47.78 Y43.521 E12.70636
G1 X49.968 Y41.71 E12.80082
G1 X50.514 Y41.313 E12.82328
G1 X52.1 Y40.305 E12.88578
G1 X52.577 Y40.034 E12.90403
G1 X54.251 Y39.195 E12.96631
G1 X54.755 Y38.974 E12.98461
G1 X56.499 Y38.312 E13.04665
G1 X57.164 Y38.108 E13.06979
G1 X59.872 Y37.463 E13.16238
G1 X60.563 Y37.345 E13.18569
G1 X62.405 Y37.153 E13.24729
G1 X62.965 Y37.124 E13.26594
G1 X64.813 Y37.124 E13.3274
G1 X65.511 Y37.169 E13.35067
G1 X68.266 Y37.528 E13.44307
G1 X68.958 Y37.665 E13.46654
G1 X70.753 Y38.143 E13.52832
G1 X71.279 Y38.312 E13.5467
G1 X73.023 Y38.974 E13.60874
G1 X73.527 Y39.195 E13.62704
G1 X75.201 Y40.034 E13.68932
G1 X75.677 Y40.304 E13.70752
G1 X77.262 Y41.311 E13.76998
G1 X77.704 Y41.624 E13.78799
G1 X79.192 Y42.794 E13.85095
G1 X79.692 Y43.241 E13.87326
G1 X81.701 Y45.271 E13.96825
G1 X81.88 Y45.477 E13.97733
G1 X85.351 Y45.483 E14.09277
G1 X86.007 Y45.524 E14.11464
G1 X86.652 Y45.644 E14.13646
G1 X87.074 Y45.768 E14.15109
G1 X87.517 Y45.918 E14.16664
G1 X88.125 Y46.166 E14.18848
G1 X88.699 Y46.487 E14.21036
G1 X89.229 Y46.874 E14.23218
G1 X89.599 Y47.21 E14.24881
G1 X90.039 Y47.649 E14.26948
G1 X90.475 Y48.141 E14.29134
G1 X90.848 Y48.681 E14.31317
G1 X91.153 Y49.264 E14.33506
G1 X91.44 Y50.073 E14.36361
G1 X91.601 Y50.673 E14.38427
G1 X91.733 Y51.316 E14.4061
G1 X91.786 Y52.075 E14.43141
G1 X91.776 Y73.331 E15.13838
G1 X91.736 Y73.986 E15.16021
G1 X91.616 Y74.632 E15.18206
G1 X91.364 Y75.398 E15.20888
G1 X91.125 Y75.974 E15.22963
G1 X90.836 Y76.564 E15.25148
G1 X90.479 Y77.115 E15.27331
G1 X90.057 Y77.618 E15.29515
G1 X89.427 Y78.186 E15.32336
G1 X88.935 Y78.564 E15.344
G1 X88.391 Y78.932 E15.36585
G1 X87.806 Y79.231 E15.3877
G1 X87.024 Y79.503 E15.41523
G1 X86.721 Y79.583 E15.42566
G1 X86.076 Y79.712 E15.44754
G1 X85.351 Y79.762 E15.47171
G1 X81.664 Y79.768 E15.59434
G1 X79.69 Y81.761 E15.68764
G1 X79.191 Y82.207 E15.7099
G1 X77.705 Y83.375 E15.77276
G1 X77.265 Y83.686 E15.79068
G1 X75.678 Y84.695 E15.85323
G1 X75.201 Y84.966 E15.87148
G1 X73.527 Y85.805 E15.93376
G1 X73.023 Y86.026 E15.95206
G1 X71.279 Y86.688 E16.0141
G1 X70.614 Y86.892 E16.03724
G1 X67.906 Y87.537 E16.12983
G1 X67.215 Y87.655 E16.15314
G1 X65.373 Y87.847 E16.21474
G1 X64.813 Y87.876 E16.23339
G1 X62.965 Y87.876 E16.29485
G1 X62.267 Y87.831 E16.31812
G1 X59.511 Y87.472 E16.41056
G1 X58.819 Y87.335 E16.43402
G1 X57.025 Y86.857 E16.49577
G1 X56.499 Y86.688 E16.51415
G1 X54.755 Y86.026 E16.57619
G1 X54.251 Y85.805 E16.59449
G1 X52.577 Y84.966 E16.65677
G1 X52.101 Y84.696 E16.67497
G1 X50.516 Y83.689 E16.73743
G1 X50.074 Y83.376 E16.75545
G1 X48.585 Y82.205 E16.81845
G1 X48.085 Y81.758 E16.84076
G1 X46.117 Y79.769 E16.93382
G1 X39.64 Y79.76 E17.14925
G1 X38.985 Y79.719 E17.17108
G1 X38.339 Y79.599 E17.19293
G1 X37.54 Y79.331 E17.22096
G1 X36.967 Y79.088 E17.24166
G1 X36.379 Y78.796 E17.2635
G1 X35.83 Y78.434 E17.28537
G1 X35.33 Y78.008 E17.30722
G1 X34.763 Y77.368 E17.33565
G1 X34.389 Y76.872 E17.35631
G1 X34.026 Y76.324 E17.37818
G1 X33.733 Y75.737 E17.4
G1 X33.471 Y74.967 E17.42705
G1 X33.393 Y74.664 E17.43746
G1 X33.269 Y74.019 E17.4593
G1 X33.223 Y73.274 E17.48413
G1 X33.256 Y69.217 E17.61907
G1 X33.301 Y68.562 E17.64091
G1 X33.426 Y67.917 E17.66276
G1 X33.628 Y67.291 E17.68464
G1 X33.974 Y66.571 E17.7112
