;Header Start

;FLAVOR:Marlin
;TIME:6666
;Filament used: 0m
;Layer height: 0.15


;header_type: 3dp
;thumbnail: data:image/png;base64,iVBORw0KGgoAAAANSUhEUgAAASwAAACWCAYAAABkW7XSAAAPL0lEQVR4Xu2dSagVRxfHSxOHqDGKcR4TTcxCEEFEFCfUKCiIiqJxIyIEJCqYYBYGFxIXJogLRRBUXKkIIoIujENwQNRFNJvEINGYqHGIxHkePv7NV4++/bpvd997zXun36/got7bXXX6d079+1R1ddns2bNnrx0FAhCAgAECzRAsA17CRAhAICCAYBEIEICAGQIIlhlXYSgEIIBgEQMQgIAZAgiWGVdhKAQggGARAxCAgBkCCJYZV2EoBCCAYBEDEICAGQIIlhlXYSgEIIBgEQMQgIAZAgiWGVdhKAQggGARAxCAgBkCCJYZV2EoBCCAYBEDEICAGQIIlhlXYSgEIIBgEQMQgIAZAgiWGVdhKAQggGARAxCAgBkCCJYZV2EoBCCAYBEDEICAGQIIlhlXYSgEIIBgEQMQgIAZAgiWGVdhKAQggGARAxCAgBkCCJYZV2EoBCCAYBEDEICAGQIIlhlXYSgEIIBgEQMQgIAZAgiWGVdhKAQggGARAxCAgBkCCJYZV2EoBCCAYBEDEICAGQIIlhlXYSgEIIBgEQMQgIAZAgiWGVdhKAQggGARAxCAgBkCCJYZV2EoBCCAYBEDEICAGQIIlhlXYSgEIIBgEQMQgIAZAgiWGVdhKAQggGARAxCAgBkCCJYZV2EoBCCAYBEDEICAGQIIlhlXYSgEIIBgEQMQgIAZAgiWGVdhKAQggGARAxCAgBkCCJYZV2EoBCCAYBEDEICAGQIIlhlXYSgEIIBgEQMQgIAZAgiWGVdhKAQggGARAxCAgBkCCJYZV2EoBCCAYBEDEICAGQIIlhlXYSgEIIBgEQMQgIAZAgiWGVdhKAQggGARAxCAgBkCCJYZV2EoBCCAYBEDEICAGQIIlhlXYSgEIIBg1SgGVq9eXVfTsWPHgr/PnTvXzZ8/v6oWVK+vTxX16tXLbdmypao6dXK03lrYqnonTZpUYts333zjRo0aVZW9x48fd99++21JHQcOHKiqTp28bds2t2PHjrp6Ro8e7VasWFFVvRcvXgzYXrlyJahHdepTLYOqjCrQyQhWlc5UcIbFylc3bNiwQKwqEaywmKizhkvPnj2DTlVJvWFBidarDlVNh/U2x9WrdisVGNW3YMECd/Xq1RIOXgAqFUQJi8Q1qd5KWahe2XvmzJl6kSW/VSuIVYar+dMRrApdmCRUqk5ipc/t27fdhx9+WNeCspjTp0+7aKcOm/D06dOSu37UPNU7ceLEkq8lXnGi6Q+SyKkoUyvXthctnxkoSyh3vK7HZ39pdfuOqj8XLVqUSF22Six8vU+ePHFr165NPF42S7TEOQuDcEW//PKL27NnT2LdsjUqaNGDwwz0m+xXvTovrm5vLxlXZR0PwcrJTR1YnSmucwwfPtwNHTo0qFF32PBdVkLjv09qUsGe1EHUId9///3g9/Axqjf6XZzIxd3xw8eNGDHCnTx5su6rL7/8MrC/nGBt3LixTnw++OADd+nSpVSayrSiw8boSXv37nXTpk1LrcsfoLY7d+4cm9WEKxGrMAfx1nc//fSTu3z5cmx7XuyT/KLfvd/8Mb5e/RmNA98IwpXZvSUHIlg5uCVlVQq+Vq1aucePH7vnz5/X6zjRjhLXpI5p166dO3LkSL2fVX+LFi3cb7/9Vk/QyolcOMN6++233UcffeQOHTpUr35lbLL9xIkTdb9lsVnZhZ8DGjNmjGvZsqU7ePBgSf0SWn18u7oWDZvKZS5RkdC83SeffBKcp0+4qO7evXu7o0eP1glHOZdGeenfErx33nmnLjOK1q9j8trssy2d+9577wVV+swrXD/ClaMDOucQrAy8yg3/MpzeqA5RB5o6dWqjsqlSYyQA5TLASuttiPOY38pGHcEqw6nchPrMmTOzEW4ER23atKkuM5k+fbrT0LUI5ebNm7HzW2vWrKl3eefPnw8ywFqX8BxlNXW/evXKLV26tJoqmsS5CFaMm5OeePk0X8OlIUOGBMPAxlo0BPv9998D8/wwyj8M0BCqCEWCpQwrOj+nIe6ECRNMXaKmEpYtW2bK5oYwFsGKUM/y9E+ndOnSpdEKlgRKWVW0fPHFF8FXRRIsPVWNm9i2Jlpdu3Z1s2fPbggNMNUmgvV/d6XNU/nsxHv3559/dq1bt26UzlZmFZ2c1lDQT2YXTbCSlhB8/vnnjdI/cUZ1797dLV++3Iy9DWVokxesvEKlzqE7etr6nIZyaFy7EioJli9FEay//vqr7pqSlg80Jj+k2ZK2NqvSxaxp7Vr6vckKVhah8mtsvEOL0CksBSe21ifQ1JdBNDnBKrfw04dHdPhnMatK6uya2/Fro2opCBqCag1WdCiqNjQ0q9XTtLDNZ8+edTt37qx3GW/qGjVfprnBaHata/NvH9T6Ovft2xe7dKOpCleTEqwsWZVfkV70rGrVqlU1e2gQXjZRTgTjlhtUKpq7d+9OXdleS7HUK0L79+/P1GatJvwlkBKscm8pNDXhahKClSZUCuxoVlXk4Z+CvJaLR7/++utMulPLTEvLNqKr6uOMUMZTq8n3e/fuBW2mveYkO2ohWhIsLd3IkuE3lYWnhRastCUKWvypV1Lu3r0bvFJjNasaN26c+/jjjxOHZNGOnOV1nkwK1MAHZXl9qNYm6uGFF5Ba1x1XX/hGmvQ01J8nv27durXQW9kUUrDKLfyMZlLhIClyVhWen8uSIfwXndFqG/+1aIVfphaztDgt8jCxcIJV7nWa6FO/piJWGhb179/fvXjxIsgoT506VaIVlUwU+8n1Pn36uE8//TTY7SBpiKbhkV49efbsWd0EcjVthsVXL0X//fffwar+uAl/f+0XLlxwf/zxR+7Jfw3L4pawSLS0Du/WrVtOxyS906j2xejPP//Mpc9x1xJennLjxg3377//umbNmsW+VK3GiihchREsBUzStiW1yKpq0cHCEZu3vrgAztoD5syZE7xK9MMPP7jDhw+XnKZOsGTJkthdHJLmhPR9eCW9XoORIMatrvcT3xKU8E4RmlfKc01qI26iXTstSDC100XSvlmetdrL067OU716EhknWiNHjgzalmjoiWXS3lrjx493zZs3z+QutSmfqL6k9X4SS4lg27ZtA9FMm+d69OhRprYtHFQYwRLs7777LtiaVndS3dH1GTRoUKIf0lJrf6J/YThua5akTp30iF/BqA338gzLFMRJYtCvX79g25ikomCVWCVdq65Nq/aziofETxsTxmVT2mkzvJhTNr18+TKoWz4JF2VdevKWdbcFHa+5xjhu/oakjEOdN1p8dqXvdax8UG7jvvD5PqvR8XGiFb4Zqu1//vnHvfXWWyUmiIGyMM2Tpu1dFj6x3NAzOkz05925c8ddv37dvX792ik2tEi4SCvoCyVYemyufaMUMLqjqUMoZY+WrEKVZdO9aHD7TdviBMQHWZ7OIhvKHa+gXLhwYXDdcUVDQHWiDRs21Ps5rz2qQIIlfnECF7dUQp108+bNsYLVqVOn2HVUSeKrdyHjrkPH6zftO6WMKJrN/Prrr8H+7b5U4tdyfvCiJR907Nix3nIRMdCuqCp557/SBDY6eujQoYNr06ZNkPXpht2tW7fg/xYoSimUYG3fvj24u0iw5DDd1XTHqeQJYN6gTgusSsRBwZ32GlAWwVIGFSd6/nWdrAKqoF+3bp1bv3591YKl+RUxK7f9cbSTlfOJ3zo6i2B5gct648qSmal9DRHjBEtxuHLlyqoFMykWwtmWdl7VLiJ+hCHB+uyzz4qiV8XawE87ZsqpusPqI6F68OCBe/jwYeqTFe9R7/w8j67TxK0SsUqr09ubJljKLjR8ixvOKCvRLqZZizLWr776KnH7Yg0JBw4cWFJdUoalg7QVclLGFGdTjx493Lvvvpt4zrx584IpgHCGpY6r4XR0SOozk/v377tr165lQqD2tRYrSeDHjh0bDM8HDBhQUp+2hY7uJOtvcO3bt8/VvvyZNJ0gwZw8eXKQbeu6NRSVYIlLUUqhMiwJlv6TBz8klMMUYD/++GOmOSMFkeaLss4vSYh091RJOkfHKJvIWqfq0t7tWedZ0gSrXKBqvinPi9C61hkzZgQrvmtR9IRPG+tlLX4hZR6b064/7zZBeZm9ifbTbNb8lResWbNmBRP0RSmFEiw9Ot61a5fT/uW6y2pYmHUyWQ7VnSlPZ/AdKDzkjAaGhih6kqM7adaiTqE7f9bta/I+cfR25O18DS1YEnEtycjjozTByFPXmxDMN9G+FywtY9EeWwhW1p7XAMd9//33dYKV9VFyuAOn3b3Cl5QlgPXkKK9g6RxNIL/pHU21ZbDmPLJulaPr1ZBQc1i1KFOmTMmVrUmwNCTMk5Ul2VmJ+GXxd1YuldSlc/SkVDFarvj5Ky9Yffv2zWpWoz+uUBmWaCtr0F1Y8xJ5BStvB1Z7acMaDe/yDDNV5+DBgwOxyjOMrCTSJBjnzp1rMMFavHhxLvGrtWDlFT+1L3/qIUa1RXVpukKZdNaitiVaaedIsDTfpo/mtYpUCidYRXIO1wIBCJQSQLCICAhAwAwBBMuMqzAUAhBAsIgBCEDADAEEy4yrMBQCEECwiAEIQMAMAQTLjKswFAIQQLCIAQhAwAwBBMuMqzAUAhBAsIgBCEDADAEEy4yrMBQCEECwiAEIQMAMAQTLjKswFAIQQLCIAQhAwAwBBMuMqzAUAhBAsIgBCEDADAEEy4yrMBQCEECwiAEIQMAMAQTLjKswFAIQQLCIAQhAwAwBBMuMqzAUAhBAsIgBCEDADAEEy4yrMBQCEECwiAEIQMAMAQTLjKswFAIQQLCIAQhAwAwBBMuMqzAUAhBAsIgBCEDADAEEy4yrMBQCEECwiAEIQMAMAQTLjKswFAIQQLCIAQhAwAwBBMuMqzAUAhBAsIgBCEDADAEEy4yrMBQCEECwiAEIQMAMAQTLjKswFAIQQLCIAQhAwAwBBMuMqzAUAhBAsIgBCEDADAEEy4yrMBQCEECwiAEIQMAMAQTLjKswFAIQQLCIAQhAwAwBBMuMqzAUAhBAsIgBCEDADAEEy4yrMBQCEECwiAEIQMAMAQTLjKswFAIQQLCIAQhAwAwBBMuMqzAUAhBAsIgBCEDADAEEy4yrMBQCEECwiAEIQMAMAQTLjKswFAIQQLCIAQhAwAwBBMuMqzAUAhBAsIgBCEDADAEEy4yrMBQCEPgf6MqV7aCi2kwAAAAASUVORK5CYII=
;file_total_lines: 53598
;estimated_time(s): 11114.09
;nozzle_temperature(°C): 222
;build_plate_temperature(°C): 65
;work_speed(mm/minute): 1800
;max_x(mm): 43
;max_y(mm): 27
;max_z(mm): 4.5
;min_x(mm): -43
;min_y(mm): -27
;min_z(mm): 0

;Header End

; G-code for 3dp engraving
; Generated by Snapmaker Luban 3.15.0
; Fri Jul 09 2021 23:57:11

M82 ;absolute extrusion mode
;Start GCode begin
M104 S222
M140 S65
G28 ;home
G90 ;absolute positioning
G1 X-10 Y-10 F3000
G1 Z0 F1800
M109 S222;Wait for Hotend Temperature
M190 S65;Wait for Bed Temperature
G92 E0
G1 E20 F200
G92 E0
;Start GCode end
G92 E0
G1 F1500 E-6.5
;LAYER_COUNT:30
;LAYER:0
M107
;MESH:/Users/x/Library/Application Support/snapmaker-luban/Tmp/microSDWallet_57567066.stl
G0 F1200 X47.7 Y53.6 Z0.3
;TYPE:WALL-INNER
G1 F1500 E0
G1 F1080 X47.7 Y71.4 E0.88805
G1 X77.4 Y71.4 E2.36978
G1 X77.4 Y53.6 E3.25783
G1 X47.7 Y53.6 E4.73957
G0 F1200 X47.63 Y53.53
G0 X77.428 Y53.572
G0 X89.83 Y58.83
G0 X89.9 Y58.9
G1 F1080 X89.9 Y60.6 E4.82438
G1 X104.9 Y60.6 E5.57274
G1 X104.9 Y64.4 E5.76232
G1 X89.9 Y64.4 E6.51067
G1 X89.9 Y66.1 E6.59548
G1 X104.7 Y66.1 E7.33386
G1 X104.9 Y66.1 E7.34384
G1 X104.9 Y66.3 E7.3503
G1 X104.899 Y86.499 E8.35803
G1 X104.882 Y86.778 E8.37198
G1 X104.837 Y87.04 E8.38524
G1 X104.762 Y87.298 E8.39864
G1 X104.658 Y87.548 E8.41215
G1 X104.525 Y87.788 E8.42584
G1 X104.377 Y87.992 E8.43842
G1 X104.187 Y88.203 E8.45258
G1 X103.99 Y88.378 E8.46573
G1 X103.77 Y88.534 E8.47918
G1 X103.533 Y88.665 E8.49269
G1 X103.282 Y88.769 E8.50625
G1 X103.023 Y88.841 E8.51966
G1 X102.774 Y88.883 E8.53226
G1 X102.494 Y88.899 E8.54625
G1 X100.85 Y88.9 E8.62827
G1 X100.65 Y88.9 E8.63825
G1 X100.65 Y88.7 E8.64471
G1 X100.65 Y78.9 E9.13363
G1 X98.95 Y78.9 E9.21844
G1 X98.95 Y88.9 E9.71735
G1 X95.15 Y88.9 E9.90693
G1 X95.15 Y78.9 E10.40583
G1 X93.45 Y78.9 E10.49064
G1 X93.45 Y88.9 E10.98955
G1 X86.85 Y88.9 E11.31882
G1 X86.85 Y78.9 E11.81772
G1 X85.15 Y78.9 E11.90254
G1 X85.15 Y88.9 E12.40144
G1 X81.35 Y88.9 E12.59102
G1 X81.35 Y78.9 E13.08992
G1 X79.65 Y78.9 E13.17474
G1 X79.65 Y88.9 E13.67364
G1 X73.05 Y88.9 E14.00291
G1 X73.05 Y78.9 E14.50182
G1 X71.35 Y78.9 E14.58663
G1 X71.35 Y88.9 E15.08553
G1 X67.55 Y88.9 E15.27512
G1 X67.55 Y78.9 E15.77402
G1 X65.85 Y78.9 E15.85883
G1 X65.85 Y88.9 E16.35773
G1 X59.25 Y88.9 E16.68701
G1 X59.25 Y78.9 E17.18591
G1 X57.55 Y78.9 E17.27072
G1 X57.55 Y88.9 E17.76963
G1 X53.75 Y88.9 E17.95921
G1 X53.75 Y78.9 E18.45811
G1 X52.05 Y78.9 E18.54292
G1 X52.05 Y88.9 E19.04183
G1 X45.45 Y88.9 E19.3711
G1 X45.45 Y78.9 E19.87
G1 X43.75 Y78.9 E19.95482
G1 X43.75 Y88.9 E20.45372
G1 X39.95 Y88.9 E20.6433
G1 X39.95 Y78.9 E21.1422
G1 X38.25 Y78.9 E21.22702
G1 X38.25 Y88.9 E21.72592
G1 X31.65 Y88.9 E22.05519
G1 X31.65 Y78.9 E22.5541
G1 X29.95 Y78.9 E22.63891
G1 X29.95 Y88.9 E23.13781
G1 X26.15 Y88.9 E23.32739
G1 X26.15 Y78.9 E23.8263
G1 X24.45 Y78.9 E23.91111
G1 X24.45 Y88.9 E24.41001
G1 X22.517 Y88.9 E24.50645
G1 X22.223 Y88.883 E24.52114
G1 X21.967 Y88.84 E24.53409
G1 X21.715 Y88.768 E24.54717
G1 X21.46 Y88.662 E24.56094
G1 X21.226 Y88.532 E24.5743
G1 X21 Y88.372 E24.58811
G1 X20.802 Y88.194 E24.6014
G1 X20.623 Y87.994 E24.61479
G1 X20.47 Y87.779 E24.62795
G1 X20.339 Y87.542 E24.64146
G1 X20.234 Y87.287 E24.65522
G1 X20.159 Y87.026 E24.66877
G1 X20.116 Y86.77 E24.68172
G1 X20.1 Y86.489 E24.69576
G1 X20.1 Y38.511 E27.08939
G1 X20.116 Y38.234 E27.10324
G1 X20.162 Y37.962 E27.117
G1 X20.233 Y37.711 E27.13001
G1 X20.337 Y37.461 E27.14352
G1 X20.467 Y37.227 E27.15688
G1 X20.631 Y36.996 E27.17101
G1 X20.802 Y36.804 E27.18384
G1 X20.994 Y36.632 E27.1967
G1 X21.226 Y36.469 E27.21084
G1 X21.459 Y36.339 E27.22416
G1 X21.714 Y36.233 E27.23793
G1 X21.959 Y36.163 E27.25065
G1 X22.249 Y36.116 E27.2653
G1 X22.517 Y36.1 E27.2787
G1 X26.4 Y36.1 E27.47242
G1 X26.4 Y46.1 E27.97132
G1 X28.1 Y46.1 E28.05614
G1 X28.1 Y36.1 E28.55504
G1 X31.9 Y36.1 E28.74462
G1 X31.9 Y46.1 E29.24352
G1 X33.6 Y46.1 E29.32834
G1 X33.6 Y36.1 E29.82724
G1 X35.5 Y36.1 E29.92203
G1 X35.5 Y46.1 E30.42093
G1 X37.2 Y46.1 E30.50575
G1 X37.2 Y36.1 E31.00465
G1 X41 Y36.1 E31.19423
G1 X41 Y46.1 E31.69313
G1 X42.7 Y46.1 E31.77795
G1 X42.7 Y36.1 E32.27685
G1 X52.05 Y36.1 E32.74332
G1 X52.05 Y46.1 E33.24222
G1 X53.75 Y46.1 E33.32704
G1 X53.75 Y36.1 E33.82594
G1 X57.55 Y36.1 E34.01552
G1 X57.55 Y46.1 E34.51442
G1 X59.25 Y46.1 E34.59924
G1 X59.25 Y36.1 E35.09814
G1 X65.717 Y36.1 E35.42078
G1 X65.717 Y46.1 E35.91968
G1 X67.417 Y46.1 E36.00449
G1 X67.417 Y36.1 E36.5034
G1 X71.217 Y36.1 E36.69298
G1 X71.217 Y46.1 E37.19188
G1 X72.917 Y46.1 E37.27669
G1 X72.917 Y36.1 E37.7756
G1 X79.383 Y36.1 E38.09819
G1 X79.383 Y46.1 E38.59709
G1 X81.083 Y46.1 E38.6819
G1 X81.083 Y36.1 E39.1808
G1 X84.883 Y36.1 E39.37039
G1 X84.883 Y46.1 E39.86929
G1 X86.583 Y46.1 E39.9541
G1 X86.583 Y36.1 E40.453
G1 X93.05 Y36.1 E40.77564
G1 X93.05 Y46.1 E41.27455
G1 X94.75 Y46.1 E41.35936
G1 X94.75 Y36.1 E41.85826
G1 X98.55 Y36.1 E42.04784
G1 X98.55 Y46.1 E42.54675
G1 X100.25 Y46.1 E42.63156
G1 X100.25 Y36.1 E43.13046
G1 X102.481 Y36.1 E43.24177
G1 X102.781 Y36.118 E43.25676
G1 X103.03 Y36.16 E43.26936
G1 X103.281 Y36.23 E43.28236
G1 X103.532 Y36.334 E43.29591
G1 X103.772 Y36.466 E43.30958
G1 X103.985 Y36.618 E43.32263
G1 X104.185 Y36.794 E43.33592
G1 X104.376 Y37.006 E43.35016
G1 X104.523 Y37.211 E43.36275
G1 X104.654 Y37.447 E43.37621
G1 X104.762 Y37.705 E43.39017
G1 X104.836 Y37.959 E43.40337
G1 X104.88 Y38.217 E43.41642
G1 X104.898 Y38.5 E43.43057
G1 X104.9 Y58.7 E44.43835
G1 X104.9 Y58.9 E44.44833
G1 X104.7 Y58.9 E44.45479
G1 X89.9 Y58.9 E45.19317
G0 F1200 X90.3 Y59.3
;TYPE:WALL-OUTER
G1 F1080 X90.3 Y60.2 E45.23807
G1 X105.3 Y60.2 E45.98642
G1 X105.3 Y64.8 E46.21592
G1 X90.3 Y64.8 E46.96427
G1 X90.3 Y65.7 E47.00917
G1 X105.1 Y65.7 E47.74754
G1 X105.3 Y65.7 E47.75752
G1 X105.3 Y65.9 E47.76398
G1 X105.299 Y86.499 E48.79167
G1 X105.28 Y86.825 E48.80796
G1 X105.227 Y87.132 E48.82351
G1 X105.14 Y87.43 E48.83899
G1 X105.017 Y87.725 E48.85494
G1 X104.865 Y87.999 E48.87057
G1 X104.686 Y88.247 E48.88583
G1 X104.473 Y88.484 E48.90173
G1 X104.235 Y88.695 E48.9176
G1 X103.983 Y88.874 E48.93302
G1 X103.708 Y89.026 E48.94869
G1 X103.414 Y89.147 E48.96456
G1 X103.114 Y89.231 E48.9801
G1 X102.817 Y89.281 E48.99512
G1 X102.499 Y89.299 E49.01102
G1 X100.45 Y89.3 E49.11324
G1 X100.25 Y89.3 E49.12322
G1 X100.25 Y89.1 E49.12968
G1 X100.25 Y79.3 E49.6186
G1 X99.35 Y79.3 E49.6635
G1 X99.35 Y89.3 E50.16241
G1 X94.75 Y89.3 E50.3919
G1 X94.75 Y79.3 E50.8908
G1 X93.85 Y79.3 E50.9357
G1 X93.85 Y89.3 E51.43461
G1 X86.45 Y89.3 E51.80379
G1 X86.45 Y79.3 E52.3027
G1 X85.55 Y79.3 E52.3476
G1 X85.55 Y89.3 E52.8465
G1 X80.95 Y89.3 E53.07599
G1 X80.95 Y79.3 E53.5749
G1 X80.05 Y79.3 E53.6198
G1 X80.05 Y89.3 E54.1187
G1 X72.65 Y89.3 E54.48789
G1 X72.65 Y79.3 E54.98679
G1 X71.75 Y79.3 E55.03169
G1 X71.75 Y89.3 E55.53059
G1 X67.15 Y89.3 E55.76009
G1 X67.15 Y79.3 E56.25899
G1 X66.25 Y79.3 E56.30389
G1 X66.25 Y89.3 E56.80279
G1 X58.85 Y89.3 E57.17198
G1 X58.85 Y79.3 E57.67088
G1 X57.95 Y79.3 E57.71578
G1 X57.95 Y89.3 E58.21468
G1 X53.35 Y89.3 E58.44418
G1 X53.35 Y79.3 E58.94308
G1 X52.45 Y79.3 E58.98798
G1 X52.45 Y89.3 E59.48688
G1 X45.05 Y89.3 E59.85607
G1 X45.05 Y79.3 E60.35497
G1 X44.15 Y79.3 E60.39988
G1 X44.15 Y89.3 E60.89878
G1 X39.55 Y89.3 E61.12827
G1 X39.55 Y79.3 E61.62717
G1 X38.65 Y79.3 E61.67208
G1 X38.65 Y89.3 E62.17098
G1 X31.25 Y89.3 E62.54017
G1 X31.25 Y79.3 E63.03907
G1 X30.35 Y79.3 E63.08397
G1 X30.35 Y89.3 E63.58287
G1 X25.75 Y89.3 E63.81237
G1 X25.75 Y79.3 E64.31127
G1 X24.85 Y79.3 E64.35617
G1 X24.85 Y89.3 E64.85507
G1 X22.511 Y89.3 E64.97176
G1 X22.18 Y89.281 E64.9883
G1 X21.876 Y89.23 E65.00368
G1 X21.581 Y89.145 E65.019
G1 X21.283 Y89.021 E65.0351
G1 X21.011 Y88.87 E65.05062
G1 X20.752 Y88.687 E65.06645
G1 X20.518 Y88.477 E65.08213
G1 X20.313 Y88.248 E65.09747
G1 X20.128 Y87.987 E65.11343
G1 X19.977 Y87.714 E65.12899
G1 X19.855 Y87.419 E65.14492
G1 X19.77 Y87.122 E65.16033
G1 X19.718 Y86.813 E65.17596
G1 X19.7 Y86.489 E65.19215
G1 X19.7 Y38.511 E67.58578
G1 X19.719 Y38.182 E67.60223
G1 X19.77 Y37.877 E67.61765
G1 X19.854 Y37.581 E67.633
G1 X19.978 Y37.284 E67.64906
G1 X20.129 Y37.012 E67.66458
G1 X20.312 Y36.753 E67.6804
G1 X20.519 Y36.521 E67.69591
G1 X20.751 Y36.314 E67.71143
G1 X21.011 Y36.13 E67.72732
G1 X21.282 Y35.98 E67.74277
G1 X21.58 Y35.856 E67.75887
G1 X21.875 Y35.771 E67.77419
G1 X22.2 Y35.718 E67.79062
G1 X22.511 Y35.7 E67.80616
G1 X26.8 Y35.7 E68.02014
G1 X26.8 Y45.7 E68.51904
G1 X27.7 Y45.7 E68.56394
G1 X27.7 Y35.7 E69.06285
G1 X32.3 Y35.7 E69.29234
G1 X32.3 Y45.7 E69.79124
G1 X33.2 Y45.7 E69.83614
G1 X33.2 Y35.7 E70.33505
G1 X35.9 Y35.7 E70.46975
G1 X35.9 Y45.7 E70.96865
G1 X36.8 Y45.7 E71.01355
G1 X36.8 Y35.7 E71.51245
G1 X41.4 Y35.7 E71.74195
G1 X41.4 Y45.7 E72.24085
G1 X42.3 Y45.7 E72.28575
G1 X42.3 Y35.7 E72.78465
G1 X52.45 Y35.7 E73.29104
G1 X52.45 Y45.7 E73.78994
G1 X53.35 Y45.7 E73.83484
G1 X53.35 Y35.7 E74.33375
G1 X57.95 Y35.7 E74.56324
G1 X57.95 Y45.7 E75.06214
G1 X58.85 Y45.7 E75.10704
G1 X58.85 Y35.7 E75.60595
G1 X66.117 Y35.7 E75.9685
G1 X66.117 Y45.7 E76.4674
G1 X67.017 Y45.7 E76.5123
G1 X67.017 Y35.7 E77.0112
G1 X71.617 Y35.7 E77.2407
G1 X71.617 Y45.7 E77.7396
G1 X72.517 Y45.7 E77.7845
G1 X72.517 Y35.7 E78.2834
G1 X79.783 Y35.7 E78.64591
G1 X79.783 Y45.7 E79.14481
G1 X80.683 Y45.7 E79.18971
G1 X80.683 Y35.7 E79.68861
G1 X85.283 Y35.7 E79.91811
G1 X85.283 Y45.7 E80.41701
G1 X86.183 Y45.7 E80.46191
G1 X86.183 Y35.7 E80.96081
G1 X93.45 Y35.7 E81.32336
G1 X93.45 Y45.7 E81.82226
G1 X94.35 Y45.7 E81.86717
G1 X94.35 Y35.7 E82.36607
G1 X98.95 Y35.7 E82.59556
G1 X98.95 Y45.7 E83.09446
G1 X99.85 Y45.7 E83.13937
G1 X99.85 Y35.7 E83.63827
G1 X102.488 Y35.7 E83.76988
G1 X102.826 Y35.72 E83.78677
G1 X103.12 Y35.77 E83.80165
G1 X103.413 Y35.852 E83.81683
G1 X103.707 Y35.973 E83.83269
G1 X103.98 Y36.124 E83.84825
G1 X104.234 Y36.304 E83.86379
G1 X104.47 Y36.513 E83.87951
G1 X104.685 Y36.752 E83.89555
G1 X104.864 Y37 E83.91081
G1 X105.015 Y37.273 E83.92638
G1 X105.139 Y37.569 E83.94239
G1 X105.226 Y37.866 E83.95783
G1 X105.278 Y38.172 E83.97331
G1 X105.298 Y38.5 E83.98971
G1 X105.3 Y59.1 E85.01744
G1 X105.3 Y59.3 E85.02742
G1 X105.1 Y59.3 E85.03388
G1 X90.3 Y59.3 E85.77226
G0 F1200 X90.3 Y59.5
G0 X89.8 Y59.5
G0 X77.428 Y53.572
G0 X47.672 Y53.572
G0 X47.6 Y54
G0 X48.1 Y54
G1 F1080 X48.1 Y71 E86.62039
G1 X77 Y71 E88.06222
G1 X77 Y54 E88.91035
G1 X48.1 Y54 E90.35218
G0 F1200 X48.1 Y54.2
G0 X47.31 Y53.21
;TYPE:SKIN
G1 F1080 X47.31 Y71.79 E91.27914
G1 X77.79 Y71.79 E92.79979
G1 X77.79 Y53.21 E93.72675
G1 X47.31 Y53.21 E95.24741
G0 F1200 X51.66 Y46.49
G1 F1080 X54.14 Y46.49 E95.37113
G1 X54.14 Y36.49 E95.87004
G1 X57.16 Y36.49 E96.0207
