;Header Start

;FLAVOR:Marlin
;TIME:6666
;Filament used: 0m
;Layer height: 0.2


;header_type: 3dp
;thumbnail: data:image/png;base64,iVBORw0KGgoAAAANSUhEUgAAASwAAACWCAYAAABkW7XSAAAgAElEQVR4Xu2dd8wtVfWG59oLilhQQbFRRJSiISCK/oMdNXRQjIgag4CCIKKSoLGBgFKCMRY0oAIJoUnnD4OADRUVFJAiCGLDrqjXwi/P9vd8Wd9wvnq/e+8ZzruTkzlnzswu7977nbXWXnvNsuXLl9/TJQWBIBAEBoDAshDWAHopVQwCQaAhEMLKQAgCQWAwCISwBtNVqWgQCAIhrIyBIBAEBoNACGswXZWKBoEgEMLKGAgCQWAwCISwBtNVqWgQCAIhrIyBIBAEBoNACGswXZWKBoEgEMLKGAgCQWAwCISwBtNVqWgQCAIhrIyBIBAEBoNACGswXZWKBoEgEMLKGAgCQWAwCISwBtNVqWgQCAIhrIyBIBAEBoNACGswXZWKBoEgEMLKGAgCQWAwCISwBtNVqWgQCAIhrIyBIBAEBoNACGswXZWKBoEgEMLKGAgCQWAwCISwBtNVqWgQCAIhrIyBIBAEBoNACGswXZWKBoEgEMLKGAgCQWAwCISwBtNVqWgQCAIhrIyBIBAEBoNACGswXZWKBoEgEMLKGAgCQWAwCISwBtNVqWgQCAIhrIyBIBAEBoNACGswXZWKBoEgEMLKGAgCQWAwCISwBtNVqWgQCAIhrIyBIBAEBoNACGswXZWKBoEgEMLKGAgCQWAwCISwBtNVqWgQCAIhrIyBIBAEBoNACGswXZWKBoEgEMLKGAgCQWAwCISwBtNVqWgQCAIhrIyBIBAEBoNACGswXZWKBoEgEMLKGAgCQWAwCISwBtNVqWgQCAIhrIyBIBAEBoNACGswXZWKBoEgEMLKGAgCQWAwCISwBtNVqWgQCAIhrIyBIBAEBoNACGswXZWKBoEgEMLKGAgCQWAwCISwBtNVqWgQCAIhrIyBRSNw+eWXd3xIl112WTt+/etfn5bfi170ovb7fve7X7fttttOfRZdaG6caARCWBPd/Qtr/BFHHNH997//7a644ooporr//e/fMvnPf/7TSGlUuueee7ply5Z1HPmQIC/Se9/73qnvC6tNrp5EBEJYk9jrC2zzxz/+8e6oo45qZPPvf/+73S1RmRWERYKYapKsKplJWuT14Ac/uF3+7ne/uzvkkEMWWLNcPmkIhLAmrccX0N6jjz66g6wgIQiKz9133z2jFDVT1n0Sq9c97GEPa0QI4SG9bbPNNo28OCYFgT4CIayMiXshcMIJJ3SQ1fLly6fIyov+9a9/TVP/kJz4QDZ8apKo+J/v/q+UxjklLO6TuB70oAd1Bx98cLf//vund4LA9DG1fPny/xkVkoJA13WQFZ8++UhMSFl//OMf74XVKMLiIkhJwurftMYaa0zZtWp5D3zgA1v5EFZIK8Ny2kMwhJUBIQKf/vSnu0984hPdAx7wgHaqkhCko93qH//4R8enJqWjUWhyX18tfMhDHtLxsRylLsux7P322697xzvekU4KAg2BqIQZCA2B73//+91b3vKWpgZOe6L9/+oe5zSW810pCzJS+tLwXq/jWq6RkCAiCBHpalQaRWz77LNP9+Y3vzk9FQRCWBkD/0MASeaaa67p/v73vzcbFUkiwm7Fp6ZREhZkBFmp3rkyCAlVIoKwUPtqgtSQuKpUx7mHPvShjeyuvPLKdFUQCGFlDPxPunrnO9855UcFaUE81RUBgqqEBIlITJIRRCfZiauk529tWkpmrkCqHqoich6yMr3hDW9oEmDSZCMQlXCy+7+1Hv8npCsTZPWb3/xmSsry/F//+tdGYvpjVdUPApLQuN7/qnTlOe1U/PfPf/6zW2uttabKlgTXXnvtaVLZXnvt1e22227prQlHIIQ14QOA5n/wgx9shKWaB2n85S9/aR8SUtOvf/3rRkjYuJCGsEHhflDVPsmmb8Oq6iD//e1vf2tExYf/8MV6zGMeM2XUf+xjHzstb8rZbLPNusMPPzy9NeEIhLAmfAD85Cc/aYQlMVV71c0339wI6s9//nPzl9KOpYQEafHxvM6f5KVvFt+xWbnCiOMpKidkRVIyg+woA7Jad911p/7jnPeefvrpE95baX4Ia8LHQCUs9/tpi/rd737XyEiJiO/YlSAgpSmkHxN2rSpdqQ7qJsF/rkJCaKiYnEPCIm+IijwgQc7pDmGeO++8c7fLLrtMeI9NdvNDWJPd/026uu6666bsRW5Qfs1rXtNdffXVTRWEsCCd3//+921rjit51WZVzwmpBnYN73Vfoecgpkc/+tHds571rO6nP/1pt/nmm7fbv/e9703VSSLdaaedQlgTPl5DWBM+AIjA8MMf/rChUKWjRz3qUd0vfvGLZsdC4nrCE57QPfWpT+1+9rOfdUheXKvkhMpokpTMr9qvHvGIR0yzeaHubbTRRt2f/vSn7oYbbmh5Uu6GG27Yyq7Ex3fsWIceeuiE99hkNz+ENdn937bhQFhIURCGDp2Pf/zjuz/84Q9NqkJNQ7JC/Xvyk5/cyAQVDl8qjhJY39heVwWBmTyVyh75yEd2D3/4w1v+2LRQNclvzTXXbOog56iT+xm5FsLKVp3JHrAhrMnu/+6iiy7qLrzwwrZCWH2h7rjjju7aa6/ttthii2YIx0gOOT3ucY9riCkBcd9dd93Vzo3yy4K0jPTwxCc+sUlYEBNuC0huEBaSFuc54hPGiuF6663X8oSwIExIbP311w9hTfh4DWFN+ACQsCAPCKNGUvjtb3/bCIT/9thjj0ZIGuAhHIjnlltuaban6ndVIdW2xf8bb7xx9/SnP71dC8lBRpAhiUilqJj8t+mmm07lxznIEtJ7xSte0b385S+f8B6b7OaHsAbY/9/+9ren2Yz8sfXWWy+4NRDW+eefPyX5kIGuDZAFdiuIzBU/yAm1EbK6/fbbO1wfKslJXJCc9iu360A6z3zmM5v0BPGRL1IXCRWQclFDWT3kWsonD6Q48jjwwAOblLXQ9K1vfete9jBPbLXVVgvNLtevRgRCWKsR/LmK/uY3v9lBTjfddFP33e9+t5EKthyO2IAkB43eSDMYsFlxe9vb3javIHjkfcwxxzT7lCRBPhDOL3/5y+aDhVrIh9VEpCIIB+JiJY80F2FxDfm5Hed5z3teIx4kOCQ0iPZXv/pVd+ONNzaCQu2EEGkneXMvpEVgv/kQFtFRb7311u473/lOs4mRDwZ/CRRCrOFskPw495znPKeDwJ7//OfP1TX5fzUhEMJaTcDPVuw3vvGNjlAvP/rRj5qhmomGfQnDdPUsNw8mnxMb9YnJzarbC17wgu60006btYUY3D/1qU+1/GvkBW6CsCiflTukIVYK8Yj/wQ9+MG2TMmVXaYp7VQWtr+4Sqn34XL34xS9uhAg5IXFBTBAN6iaJe/QJIzrEdttt17GncLbE9h3wg4TIl3rTNm1pHHVq1S+M+ivFUR/UVjaDh7jGb3KEsMavT7ott9yyrcqxIoePkgbp6vUNQbhKp7TAPRCQExDjNWFZZgvNgtRy2223NdVMj3JIhYmLeob6B1FSHgQGsag2Wi7lucdQqU/C6u8llMAog+8ccWPgPuoPMSlFQVaSFu4UOI3ORlif//znOz4sGFAuLhNPetKTmsGeZNnghqRI3hA8dZXoWfGk7dyPVJs0XgiEsMarP7pTTz21+8IXvtCe+Nh0IClIi4nNJmEnHf5RRvKEVJCoWLlj8nE9iXv4HHfccc2Q3U9IIh/4wAfaaUhDr3XyRVWsewZRmVA39VRX8tHvqhKVEpaSV5W+qvc75VAmxIrqRt0hSeoMgRr5AQL5+c9/3upJfUfFe0caxcblqiI2MT6ogtjNyANcJEDOkyAoEnVlIQBCRu2m7XvvvXe3++67j9kImezqhLDGrP/POeecjg8TjMms8ZqJzmRUKuGI5IOdBjUKuw8rbkpJXM/EY2K+6lWvapNR4iCqKFIH/6PmUQ6kJ0HhasD1SidMZqQrUg0ho7d6jWGlPYtra8ys6pPFd8nRDdTYxZB8IBBsW7SFukGUYMGR9mPr4rse8ahtEBiEfemllzYJDUnN/Y3UB4kLgkcFRd1EmoKYKM96KM1RZzDj/Gtf+9r2SRofBEJY49MXrSbnnXdem3hMNIPcQQh8r3GnIAsmIStgSCXat6pa5ySEIFSLPFKWkRLct4dkAylAVkg8TFpIjbwxiJM3Eh/nlZSQYqrrgo6hlKldjbKUxNyuQx6SGNdhJ+MDGZEkLa4jTwiI9voSDLutvsWHuvCbBQmJEwzIkzZCyBj4dY6t9jXVQtvG73333bdJnknjg0AIawn6gtU8iKOSQV1KZ2IyUTjirW2a6VVWqGMXX3zx1NYXVtLqFhdJAcdOJAUnNfk6CesqWJWALJu6QFAQk46d/IasICglHwgMkkLyoX2SqOVADFwjOVo3Vxr7Af0qYVkXJB7UNVcGuRdygoDWWWedaQsKtLeuSpqH0l79zXdx4H/riR0MTG2DhIqxnYQrxzOe8YwZVyRRpUn0O4Ruqu4mnNPNpKrjMeSv2IQLYS0QPwYp4XpRQRigTG4msvYkJZearZOm+ihpvObpj8sAE5uonxx9vftsVYOsiA+l2sWkdyXMiTqKtKwD11BvpA1VLuxEEKp7/ly1g7C4VrtPNaSTj1t3arn6XlUV0fbo2V7bh6rHeex02LS4n3q5+ZoFCCQncBM7sR5FVpVQXbRAwkJCe/3rXz/vYIAf+9jHGrFff/317Y3XYNCXZn2YOAYqxq6O0hdKgxtssEHrZ7YZ5f2LC5uAIax54sULRVmB0r2AQcrSPEdVDCe6A7i/1K+6o5qCvUXjOeeMFQWBYaN54QtfOCN5oTpioK+T3313NKm+708iqROdCcjEw/5lxE+kLSY00hVkUTc1kwfto80QhxEU3AANcdYwMkhLtMk8+I7R3gQBco46oP7xMTG5KYu6UBaSFsRHvTgiCbmwwD36ptWuNN4WhAEWSnqcJ+rDjjvuOLLn8bjnocQRXzPKoa3G7ULiU+0Gr/oyjb4UTAH2Nd+pC8TsOfobnzlcKHBBSZobgRDW3Bh1xx9/fEdUAwzbTlgGqqoUWfjdp/0ovySLcvVMNQoiY3JqUHaJH9sUpMX/73//+6dqKhHgpU55NYAeF5EPqZIA9UFaoZ4QB1IM56prAoRW1SS+QwZV7YFoIBFtPRCT5FQlC8qHxCAbvxuaRtVMj3YIBeLStYDrJRzqx/X8T7shMoje14QZW15/NQz11cue8yRVWUhV2xSkBB5ITqRjjz12ytZlmymP70h4JMlLldpOqRK25FRte7WPJKw777yz9QWkzpuBCFWdNDsCIaw5Rgi+ODgjMjFYYdpkk02mPMIZ/HqIV7XAgW3WDG5X6Vxar4NZOxB5MIBVg+oTW8dG8pQEqorpU9+yyZ/764sc+M29XMuRPKu0ABGRODJRNZxXtU61s27XoQzdBWwzExSi0Q0CMuQceen7pNModUDKq22opMV3yM4N2EqqtBECdcWzYlO7Vemqj5HYcH8lW/KF6CA/7nFVUwlS8gNPbGHgxcOs9lffzUN8xEQbH2o40i6kyNuu2aGQNDMCIaw5RsdnPvOZ7rOf/WybeEy6pzzlKU06UZJCAsLRkcGKquKghXRwOWDA422uBzVOnEgH7MFj0HLU3uNKlRIC6iL/ISlRHuX37WH96vclO14mAal6JD/ICAmRYyWKPmFUA3pddTMPbVn6e3m9W2momyTlW3fcM8i9SJC6aUACTPx+HWr7tEVxL9goSap2QqKuaqqq9aW+/sNEKRLSov6GfeY6tyq5GEC5GOOxQZGI1nrBBRd0SEr0DbbHt7/97U3CU7KjfEjtsssuawsISHOUwyIGY4r9mLb9gAMOaPa1pBDWosfAueee251xxhnND4mJyWBEJWHQafDuP8EZpAxCpCnIjcnOQGeSvfKVr7yXbw+kRYgXVgd9Eqs2apdisqhKSFpIHfpFKckwAZiESHQcmXQSlCQ1GxgShm4U/pZ4JC5IUAlFB1DylazEhPvquw6VtCQs7vF+/cBG1U+y6hOO14Itkpd+W5wnP/y53GAtHq7mqtZzXmLjO223D6knESIgKfqwJhZeTjzxxFZ/xgRtg4joHx8y4qBkalt94PHAoB4Q3Mte9rLu1a9+9aLH6iTcGAlrjl6GSIhmwCB2H5y3MHlxsmSAKmWgGjBInQQM1DppEfvZMjJTgrQok6eyBEBeqkESE0fypXw+qJIcdVXAIMxkMMZV371gpvLrS05VuSStvnuEhndJh+uoU3UYRY2rvlJ8tw2+PZr7Va2pb7WZ8Z/YW+eqenlONa0a+yFviIx6I72BB/2j9EN9KVdyri/LgDxIs4WzwcGXxQ/901STJT/OQ1yME3Ch3pgVqp2Qc/qW8TAjhE5SJKxFjwHIA58oVRczqjYbl66rl3l1KWBAMgG23377edcD4iJRdt8PC7WCMrF9+KTGdwiS0vVAScTJXSWePnn1bTPcW+vPRFTq0OjMNaqyozBRPYS86mojk1dpA4kE0lKacfM1EpCrnH2ysl0cvb6+CKP2C3lQD8ic1VAlY66BvFDnUdNsCyo96v1sPlj9DmQlEdJir6Okad36biWVaMWca104YDFAdXPeA2XCLoyENY8OhzwgDQYlqU8gEpZZPe1pT2v2LJITYB7FzHoJauNHP/rRjldd1ZVIbGqW5XkNutRrlDSiNANx1YlTK2DgvEpGdWFBKUFikuTqJPV6pCwknepqwPVMcOxQGv8lIP2+9LSv9eI/42SNAkwpUBLjNw8M6osEipFbkqT9qIvYofrq3mL6iz7yIeOqoec4XyUrxwzlMl5e+tKXLqbIibsnhLUEXQ6BSRpLkN29srj88sunVAUlHJbZXWp3la5KP2RSfbGYwFUSqUTUN0z3JSeuVQWtlXMCKtU4CalHVYm9x/cRqt5CWJAVCwKSG2RkKBtdCvpl0o5RRGsequAGIvR+XQuQ+IhqUVVcJOltt912ZXTf1ENuZY6RlVbxMcs4hDVmHTKqOtg1IC0mpNEH3NOnlKTapgRiPk7iUZLWTKRVpSYlJwirnq8kJ8FVCcz7NNJLFtpsUNMgLEhM/zPu0b8KmxMTvNqzlCC9rraxSnyed2EEUgQnN4/zG2mPgIRIftQJ9RDSShpvBEJY490/3Re/+MVpL15AxXTrCpNa9ckFAVURCaVPVLMRl+pcn7AkK0lISapvhO+roMacqhBbPmqZRncN89i0+N8oCtiXtOlUsiI/FzmU5ipJWf9KpBIWZSBh8R9GeV0juB8H4Te96U1jPiImu3ohrDHufyJ7vutd75oKJMfyNxOYyavHuWqfdimX5WnWTDYs/puJuJzkSkRcC/FUz3OJqtqr+uX1SaMSKFKN5KSaiCSmxz956TaBlEWYGyUoPev1kard5/aZ6uhKO5S0qIOvD/O1ZrxkQ18ssMVfKml8EQhhjW/fdF/+8pebhHXVVVc18kG6grSQLlANUZ8IycJRQzREVMloNolqvk2vxOS2mv62m74dbBSZcQ4nS5KrrjiPugugkiTkAynTLjYIu5pX61yN2J7vq6pKg5CYQfqMh8UR/zqcfMEVfN/61rd2e+6553yhyXWrGIEQ1ioGfCHFEV2TjbhMctQXt4tAUDilohLqvIlvl6GFJakVMfKyzw7JhlRXuvTM77ej7hlUwpFQNPZDEBAUzpVus4Ew+E6dJTm+G6MLGxbOn5KIbRq1qsd/+q8p8fGbVV5UQlwQKAtVlDpAkNjSuAaXEDBkawyhmJPGE4EQ1kruF0LQEBur+uio8hCRgcnJW2RGJRwTeUGEhIXTIZuvISyW43fYYYf2soX5vElmKZspgTHR/V5JrUo5euJz9LX3EBPqH2/dccVQNdX48bSReyAS8iP2/Bvf+MYVagbEBaY//vGPm+0KkiWsNKuU7BGFJAnxM5O/HPXlU329qBDEV1+xlleHrVA3zXpzCGuJsDWIH6oF8cXdR6j60/fBcasJgx31hwnz7Gc/u6kkpq9+9avdSSed1KJ9QloQE5MK4nruc5/bHXrooUtU+6XJppIX3yuJUQJqJNIX2OD0qvrK0T2ASodGCEUiwsmTECy77rrrklT07LPP7r7yla80L3TUQcgLlROftk9+8pPTooyefPLJzQWCtwWR9HHrBxHUrqeDLfYwiI3gfXl12JJ0W8skhLWCWB555JGNVFB7jI9uuBRJicENKTEZq/HZyelyO5Pnda973TQbCnvLmCxMaLd1UA72raEkXqrBh9jqqIC0G7zASfcMJnyVrvzNAwDy4j9IZqkSm4ypC/0BcfFAwHmzvhbtfe97XyMrpLwa/736m1kf+ljfsLrXFCkRh1XUTR5I4/aQWSo8V1U+IawVQBoyQUVAPWPiYWthr5quBZCMhmTjR1kcg9unNBMASUK7znve854W2I1ol0cffXRTAymD6ymHpfdxtbNg++IDKbHihv8YSQmK74bYqdBX73sWEowiIU6QFg+GpUpsaDcKR/W4Z5EDIz+RGHgYUS/U07o1i+vrAoEExjlXWd1ug42MRQVcKSAySIsN9UmLQyCEtTjc2uodAdd4+jIZMfgaoUEjc/U076/eUazSVrWJ8B3VifyQoiAr7UDcQ5682ZhXV63uBDFBSJKURF3jU/nKLIMV9tutZMp5iEo3hOq2AK6ozGwcX6qESopdrJbHxmyIha0y2AevvvrqqRVXJeSmlixbNq0a/RVR433RZhYZ6E/2MvoaNh5Ce+2111I1ZaLyCWEtsrsPOuigZovB/sETGBsIrgZIQkxc7E2VVFzVqit32L2+9KUvtRpgENaBktU/iFDfJyeJ0QA+9KEPrRbCgpjYeP3hD3+4TVpfI0b9fOFqf8Nv/Q0Zc52BAqvUxeTWPkTeXgP5QSoYw5fyDTYQFquwBhSsCwUQJAsEJKMsQJhIXvRffZFEXZXEZsdvVHz6UzcO1E1WKNmgbqQI9i8mLRyBENbCMWt3EBOcVSZVPcML17jlPK0Z3D6ReXFEP0FMfEgabr2eSWwIFL5r7yG2/KpMH/nIR9rGax1WdTWgntptqhRI3SqZ8Rsyh4RUmYwYAWHw3b2Oqoa2D+KHJAi9stSJYIqQCxIQbdGj3xVd6lolK/qWczX6xEx9rNMufUsbaT/tNDY9q5VJC0cghLVwzNod2JEMd8tT2KiUdTtI34GzqoDkUQ3wSlEcDVNjwEAkOMiMyczqE6rMqkgSFe3A4I99jnpU9Zbv+GsxGQ0U2FeRal2NFSbRuTBRr2FSE4dqtlhUS9F+VmH5qIZLJtS/H1miSmD2az2OclhVRZaofLsSY4VFiKSFIxDCWjhm7Q5iFxmITqMr543PbrYzeZobK5zr3Bfn/RyNA1UjIrAJelVFpHTDNXVhuR/pSHuPUTJR75Ck9LKvexBpn/v0kAxdRQMrHVIraRteBdV5KUK9zLdbISw2PdNPupgYcM++qVt9lAhH9WslLTCh7wyZ4wPJrUXHHXfcfKuY6woCIaxFDgdsKm7IdRCTlStFlWgcrH0JiwneD57nILdaPOl51TxpZahFo5qPV7krWUh3vEaeiYeEVcMNqzK5yGDETlbDcJjVjUODO9dD8hi3IT1ioO+xxx7zeg/jIrtpXrfh50ZUWY51oUSVvIapMXR1la6qu4p9rSTqg8cVXrEIYc2ra+51UQhrcbi1u4gGeskll7Tvo17gMFPWktQo1ckBbeA/fJewtayqhJsGr5xi8lIXVu4MK6zqB4npS0W9+pEUsOfh4gEmLOm7/5D2EtKFhD2I8xikCe3Ca8zm8wLZlYkDbb700ktbERjNaeOol2L4MKqSV60X/dvvW212SJKGX16Zbbmv5h3CWoKeZXWIgc4A17t71MbcflGqkqhArh5ybnVGn2TVkqc/RMK2GYzG+E3xRmjUv/oGGduDrYm22w5WwPS/qmoS12OkZjIjhd12223tN1FAmfy8+xHJdVySq36uBC6kbyUsMVnd/ToumK5oPUJYK4rgDPfX5e5Rl6zIxuSVVOWW7ZlnntlhbPe1Zr6ZGnUUmxVEjHsBEuBMkgKEhQuEqZJWNWZDUhC9b5xBTSScDp9xTnP1LXUf1/4dZ1znU7cQ1nxQmqBrIKzPfe5zTZXT5gRpsfSPaopT5d577z0nIqMmNefwf6qvM/va177WJCxsRzjJsgKa8C5zwjuxF4SwJrbrRzccY/tZZ53VfMwgLQPdYXjWmXKLLbZo5w877LAmiS3E9oTkdcoppzSS4q3avjwVmxf7BXHIXcjbhdJ9k4VACGuy+nvO1kJYvLZKNY4VPTZlS1xkYOhjztXk249nKoS9hQYb5BrsPK7KoWZi1Mce5qronJXNBROHQAhr4rp87gYTyqW+9QaDunGrWLWsnt4Sj0Zmt9fUUnQBIE894iFE1Ev+M54XRIitLBLW3H00qVeEsCa152dp97HHHjv1DkZXMusWFW6VtAidYmKjrwTGETLCLcLEcj8qIMZ7knnq24TaeeCBBy7pnsF0730LgRDWfas/l6w1GMbxANcfqb4HsHr21+/V012V0vv6bzrWv4nr9GdCHVxVzrFLBlQyWqUIhLBWKdzDKwzCuuiii1p4lH7qb0/RObJKVH6v1/ZDzbzkJS+ZelHs8BBKjVclAiGsVYn2gMvSaRLPfr+P8gKfTxMhLJ1jV6eT7HzqmmvGC4EQ1nj1x2BqA2khNfW9wGsD+puYdaaMU+VgunnsKhrCGrsuSYWCQBCYCYEQVsZGEAgCg0EghDWYrkpFg0AQCGFlDASBIDAYBEJYg+mqVDQIBIEQVsZAEAgCg0EghDWYrkpFg0AQCGFlDASBIDAYBEJYg+mqVDQIBIEQVsZAEAgCg0EghDWYrkpFg0AQCGFlDASBIDAYBEJYg+mqVDQIBIEQVsZAEAgCg0EghDWYrkpFg0AQCGFlDASBIDAYBEJYg+mqVDQIBIEQVsZAEAgCg0EghDWYrkpFg0AQCGFlDASBIDAYBEJYg+mqVDQIBN8f+RwAAABfSURBVIEQVsZAEAgCg0EghDWYrkpFg0AQCGFlDASBIDAYBEJYg+mqVDQIBIEQVsZAEAgCg0EghDWYrkpFg0AQCGFlDASBIDAYBEJYg+mqVDQIBIEQVsZAEAgCg0Hg/wDUfri/KAd1KAAAAABJRU5ErkJggg==
;file_total_lines: 77185
;estimated_time(s): 3529.9300000000003
;nozzle_temperature(°C): 263
;build_plate_temperature(°C): 75
;work_speed(mm/minute): 3600
;max_x(mm): 46.47555160522461
;max_y(mm): 46.71315002441406
;max_z(mm): 25.375869750976562
;min_x(mm): -46.47555160522461
;min_y(mm): -46.71315002441406
;min_z(mm): 0

;Header End

; G-code for 3dp engraving
; Generated by Snapmaker Luban 3.15.0
; Sat Jun 26 2021 23:36:31

M82 ;absolute extrusion mode
;Start GCode begin
M104 S263
M140 S75
G28 ;home
G90 ;absolute positioning
G1 X-10 Y-10 F3000
G1 Z0 F1800
M109 S263;Wait for Hotend Temperature
M190 S75;Wait for Bed Temperature
G92 E0
G1 E20 F200
G92 E0
;Start GCode end
G92 E0
G1 F1500 E-6.5
;LAYER_COUNT:127
;LAYER:0
M107
G0 F1800 X27.55 Y27.517 Z0.3
;TYPE:SKIRT
G1 F1500 E0
G1 F1080 X28.01 Y27.055 E0.03253
G1 X29.449 Y25.878 E0.12527
G1 X29.864 Y25.59 E0.15048
G1 X30.26 Y25.395 E0.1725
G1 X31.417 Y24.92 E0.2349
G1 X31.695 Y24.82 E0.24964
G1 X37.128 Y23.156 E0.53312
G1 X42.31 Y21.329 E0.80725
G1 X47.371 Y19.216 E1.08086
G1 X52.27 Y16.837 E1.35257
G1 X58.085 Y13.555 E1.6857
G1 X58.544 Y13.342 E1.71094
G1 X59.035 Y13.203 E1.7364
G1 X61.755 Y12.663 E1.87475
G1 X62.257 Y12.604 E1.89997
G1 X62.762 Y12.625 E1.92519
G1 X63.225 Y12.716 E1.94873
G1 X66.288 Y13.557 E2.1072
G1 X66.764 Y13.729 E2.13245
G1 X67.004 Y13.851 E2.14588
G1 X71.795 Y16.532 E2.41978
G1 X76.719 Y18.939 E2.69322
G1 X81.819 Y21.083 E2.96923
G1 X84.319 Y22.011 E3.10227
G1 X89.569 Y23.71 E3.37757
G1 X93.11 Y24.746 E3.56164
G1 X93.51 Y24.893 E3.5829
G1 X94.973 Y25.543 E3.66277
G1 X95.418 Y25.784 E3.68801
G1 X95.705 Y25.994 E3.70576
G1 X96.964 Y27.028 E3.78704
G1 X97.441 Y27.513 E3.82098
G1 X98.648 Y29.036 E3.91793
G1 X98.93 Y29.456 E3.94317
G1 X99.142 Y29.915 E3.96839
G1 X99.243 Y30.244 E3.98556
G1 X100.414 Y34.901 E4.22513
G1 X101.922 Y40.212 E4.50057
G1 X103.711 Y45.384 E4.7736
G1 X105.791 Y50.448 E5.04673
G1 X108.152 Y55.383 E5.31966
G1 X111.293 Y61.048 E5.64283
G1 X111.502 Y61.508 E5.66804
G1 X111.612 Y61.881 E5.68744
G1 X112.026 Y63.677 E5.77939
G1 X112.106 Y64.295 E5.81048
G1 X112.164 Y66.132 E5.90217
G1 X112.14 Y66.637 E5.9274
G1 X112.092 Y66.915 E5.94147
G1 X111.701 Y68.707 E6.03298
G1 X111.555 Y69.191 E6.0582
G1 X111.374 Y69.577 E6.07947
G1 X110.136 Y71.81 E6.20685
G1 X110.003 Y72.027 E6.21955
G1 X106.187 Y77.778 E6.56388
G1 X103.453 Y82.514 E6.83671
G1 X100.984 Y87.406 E7.11009
G1 X98.794 Y92.429 E7.38347
G1 X98.556 Y92.875 E7.40869
G1 X98.411 Y93.083 E7.42134
G1 X97.712 Y94.005 E7.47907
G1 X97.513 Y94.243 E7.49455
G1 X96.864 Y94.946 E7.54228
G1 X96.493 Y95.289 E7.56749
G1 X96.237 Y95.471 E7.58316
G1 X94.28 Y96.722 E7.69904
G1 X93.741 Y96.998 E7.72925
G1 X86.946 Y99.708 E8.09422
G1 X81.992 Y102.064 E8.3679
G1 X77.201 Y104.686 E8.64038
G1 X72.54 Y107.59 E8.91436
G1 X67.148 Y111.297 E9.24081
G1 X66.71 Y111.549 E9.26602
G1 X66.238 Y111.73 E9.29124
G1 X65.957 Y111.799 E9.30567
G1 X63.244 Y112.337 E9.44366
G1 X62.742 Y112.396 E9.46888
G1 X62.237 Y112.375 E9.49409
G1 X61.775 Y112.284 E9.51759
G1 X58.731 Y111.449 E9.67506
G1 X58.256 Y111.277 E9.70027
G1 X57.72 Y110.969 E9.73111
G1 X54.597 Y108.742 E9.92247
G1 X49.99 Y105.77 E10.19599
G1 X45.216 Y103.059 E10.46989
G1 X40.329 Y100.638 E10.74198
G1 X35.279 Y98.483 E11.01591
G1 X31.335 Y97.028 E11.22564
G1 X30.711 Y96.717 E11.26042
G1 X28.575 Y95.342 E11.38716
G1 X28.173 Y95.035 E11.4124
G1 X27.795 Y94.633 E11.43992
G1 X26.669 Y93.206 E11.53061
G1 X26.388 Y92.786 E11.55582
G1 X26.237 Y92.479 E11.57289
G1 X24.754 Y89.001 E11.76153
G1 X22.369 Y84.058 E12.03534
G1 X19.719 Y79.274 E12.30818
G1 X16.786 Y74.624 E12.58247
G1 X15.034 Y72.085 E12.73637
G1 X14.875 Y71.828 E12.75145
G1 X13.653 Y69.641 E12.87643
G1 X13.442 Y69.181 E12.90168
G1 X13.323 Y68.777 E12.92269
G1 X12.911 Y66.931 E13.01706
G1 X12.84 Y66.43 E13.0423
G1 X12.836 Y66.131 E13.05722
G1 X12.895 Y64.294 E13.14892
G1 X12.971 Y63.693 E13.17914
G1 X13.367 Y61.938 E13.2689
G1 X13.517 Y61.455 E13.29413
G1 X13.704 Y61.066 E13.31566
G1 X15.877 Y57.225 E13.53583
G1 X18.348 Y52.328 E13.80949
G1 X20.539 Y47.296 E14.0833
G1 X21.542 Y44.7 E14.22214
G1 X22.426 Y42.198 E14.35453
G1 X24.042 Y36.928 E14.62954
G1 X25.781 Y30.161 E14.97811
G1 X25.945 Y29.683 E15.00332
G1 X26.182 Y29.237 E15.02852
G1 X26.394 Y28.943 E15.04661
G1 X27.55 Y27.517 E15.13819
G1 F1500 E8.63819
;MESH:/Users/x/Library/Application Support/snapmaker-luban/Tmp/octopus4_36128048.stl
G0 F1800 X29.473 Y29.212
G0 X29.506 Y29.241
G0 X31.812 Y31.275
G0 X31.872 Y31.328
G0 X30.949 Y30.43
G0 X33.518 Y28.213
G0 X39.368 Y29.186
G0 X42 Y33.885
G0 X41.309 Y40.027
G0 X41.342 Y44.707
G0 X41.862 Y46.531
G0 X43.02 Y47.794
G0 X74.223 Y63.125
G0 X74.322 Y63.135
;TYPE:WALL-INNER
G1 F1500 E15.13819
G1 F1080 X74.991 Y64.247 E15.20293
