;FLAVOR:Marlin
;TIME:6666
;Filament used: 0m
;Layer height: 0.1

;Generated with Cura_SteamEngine 3.6.0
M82 ;absolute extrusion mode
;Start GCode begin
M104 S200 ;Set Hotend Temperature
M140 S50 ;Set Bed Temperature
M109 ;Wait for Hotend Temperature
M190 ;Wait for Bed Temperature
G28 ;Home
G90 ;absolute positioning
G1 X-4 Y-4
G1 Z0 F3000
G92 E0
G1 F200 E20
G92 E0
;Start GCode end
G92 E0
G1 F1500 E-6.5
;LAYER_COUNT:141
;LAYER:0
M107
G0 F900 X29.928 Y25.617 Z0.3
;TYPE:SKIRT
G1 F1500 E0
G1 F480 X30.258 Y25.234 E0.02522
G1 X30.645 Y24.908 E0.05047
G1 X31.078 Y24.647 E0.07569
G1 X31.546 Y24.457 E0.10089
G1 X32.039 Y24.344 E0.12612
G1 X32.509 Y24.309 E0.14964
G1 X92.491 Y24.31 E3.14215
G1 X92.995 Y24.35 E3.16738
G1 X93.486 Y24.469 E3.19258
G1 X93.953 Y24.664 E3.21783
G1 X94.383 Y24.929 E3.24303
G1 X94.766 Y25.259 E3.26825
G1 X95.092 Y25.646 E3.2935
G1 X95.353 Y26.079 E3.31872
G1 X95.543 Y26.547 E3.34392
G1 X95.656 Y27.04 E3.36915
G1 X95.691 Y27.51 E3.39267
G1 X95.691 Y97.491 E6.88403
G1 X95.651 Y97.995 E6.90926
G1 X95.532 Y98.486 E6.93446
G1 X95.338 Y98.953 E6.95969
G1 X95.072 Y99.383 E6.98492
G1 X94.742 Y99.766 E7.01014
G1 X94.355 Y100.092 E7.03538
G1 X93.922 Y100.353 E7.06061
G1 X93.454 Y100.543 E7.08581
G1 X92.961 Y100.656 E7.11104
G1 X92.491 Y100.691 E7.13455
G1 X32.509 Y100.691 E10.12707
G1 X32.005 Y100.651 E10.15229
G1 X31.514 Y100.532 E10.1775
G1 X31.047 Y100.338 E10.20272
G1 X30.617 Y100.072 E10.22795
G1 X30.234 Y99.742 E10.25317
G1 X29.908 Y99.355 E10.27842
G1 X29.647 Y98.922 E10.30364
G1 X29.457 Y98.454 E10.32884
G1 X29.344 Y97.961 E10.35407
G1 X29.309 Y97.491 E10.37759
G1 X29.309 Y27.509 E13.869
G1 X29.349 Y27.005 E13.89423
G1 X29.468 Y26.514 E13.91943
G1 X29.662 Y26.047 E13.94466
G1 X29.928 Y25.617 E13.96989
G1 F1500 E7.46989
;MESH:/Users/x/Library/Application Support/snapmakerjs/Tmp/pencil_20201206013513375.stl
G0 F900 X31.835 Y28.114
G0 X33.114 Y28.114
G0 X43.552 Y32.633
G0 X43.806 Y32.824
G0 X44.418 Y33.416
G0 X44.332 Y33.465
;TYPE:WALL-INNER
G1 F1500 E13.96989
G1 F480 X43.975 Y33 E13.99914
G1 X43.533 Y32.667 E14.02674
G1 X43.023 Y32.463 E14.05415
G1 X42.479 Y32.396 E14.08149
G1 X41.936 Y32.474 E14.10886
G1 X41.433 Y32.688 E14.13613
G1 X41.011 Y33.011 E14.16265
G1 X40.676 Y33.448 E14.19012
G1 X40.466 Y33.956 E14.21754
G1 X40.395 Y34.5 E14.24491
G1 X40.466 Y35.044 E14.27228
G1 X40.676 Y35.552 E14.29971
G1 X41.011 Y35.989 E14.32718
G1 X41.448 Y36.324 E14.35465
G1 X41.956 Y36.534 E14.38207
G1 X42.5 Y36.605 E14.40944
G1 X43.044 Y36.534 E14.43681
G1 X43.552 Y36.324 E14.46424
G1 X43.989 Y35.989 E14.49171
G1 X44.324 Y35.552 E14.51918
G1 X44.534 Y35.044 E14.54661
G1 X44.605 Y34.5 E14.57398
G1 X44.536 Y33.974 E14.60044
G1 X44.332 Y33.465 E14.6278
G0 F900 X44.418 Y33.416
G0 X82.479 Y32.357
G0 X83.032 Y32.425
G0 X83.552 Y32.633
G0 X83.806 Y32.824
G0 X84.418 Y33.416
G0 X84.332 Y33.465
G1 F480 X83.975 Y33 E14.65705
G1 X83.533 Y32.667 E14.68466
G1 X83.023 Y32.463 E14.71206
G1 X82.479 Y32.396 E14.73941
G1 X81.936 Y32.474 E14.76678
G1 X81.433 Y32.688 E14.79405
G1 X81.011 Y33.011 E14.82056
G1 X80.676 Y33.448 E14.84803
G1 X80.466 Y33.956 E14.87546
G1 X80.395 Y34.5 E14.90283
G1 X80.466 Y35.044 E14.9302
G1 X80.676 Y35.552 E14.95762
G1 X81.011 Y35.989 E14.98509
G1 X81.448 Y36.324 E15.01256
G1 X81.956 Y36.534 E15.03999
G1 X82.5 Y36.605 E15.06736
G1 X83.044 Y36.534 E15.09473
G1 X83.552 Y36.324 E15.12215
G1 X83.989 Y35.989 E15.14962
G1 X84.324 Y35.552 E15.17709
G1 X84.534 Y35.044 E15.20452
G1 X84.603 Y34.518 E15.23099
G1 X84.538 Y33.978 E15.25812
G1 X84.332 Y33.465 E15.2857
G0 F900 X84.418 Y33.416
G0 X84.576 Y33.969
G0 X84.63 Y34.413
G0 X80.941 Y88.941
G0 X81.011 Y89.011
G1 F480 X80.676 Y89.448 E15.31317
G1 X80.466 Y89.956 E15.3406
G1 X80.395 Y90.5 E15.36797
G1 X80.466 Y91.044 E15.39534
G1 X80.676 Y91.552 E15.42276
G1 X81.011 Y91.989 E15.45023
G1 X81.448 Y92.324 E15.4777
G1 X81.956 Y92.534 E15.50513
G1 X82.5 Y92.605 E15.5325
G1 X83.044 Y92.534 E15.55987
G1 X83.552 Y92.324 E15.58729
G1 X83.989 Y91.989 E15.61476
G1 X84.324 Y91.552 E15.64224
G1 X84.534 Y91.044 E15.66966
G1 X84.605 Y90.5 E15.69703
G1 X84.534 Y89.956 E15.7244
G1 X84.324 Y89.448 E15.75183
G1 X83.989 Y89.011 E15.7793
G1 X83.552 Y88.676 E15.80677
G1 X83.044 Y88.466 E15.83419
G1 X82.5 Y88.395 E15.86156
G1 X81.956 Y88.466 E15.88893
G1 X81.448 Y88.676 E15.91636
G1 X81.011 Y89.011 E15.94383
G0 F900 X80.941 Y88.941
G0 X81.429 Y88.642
G0 X81.946 Y88.428
G0 X82.5 Y88.355
G0 X83.054 Y88.428
G0 X83.571 Y88.642
G0 X83.823 Y88.834
G0 X91.83 Y96.83
G0 X91.9 Y96.9
G1 F480 X33.1 Y96.9 E18.87737
G1 X33.1 Y28.1 E22.30982
G1 X91.9 Y28.1 E25.24336
G1 X91.9 Y96.9 E28.67581
G0 F900 X91.83 Y96.83
G0 X42.5 Y88.355
G0 X41.946 Y88.428
G0 X41.8 Y88.488
G0 X40.941 Y88.941
G0 X41.011 Y89.011
G1 F480 X40.676 Y89.448 E28.70328
G1 X40.466 Y89.956 E28.7307
G1 X40.395 Y90.5 E28.75807
G1 X40.466 Y91.044 E28.78544
G1 X40.676 Y91.552 E28.81287
G1 X41.011 Y91.989 E28.84034
G1 X41.448 Y92.324 E28.86781
G1 X41.956 Y92.534 E28.89524
G1 X42.5 Y92.605 E28.92261
G1 X43.044 Y92.534 E28.94998
G1 X43.552 Y92.324 E28.9774
G1 X43.989 Y91.989 E29.00487
G1 X44.324 Y91.552 E29.03234
G1 X44.534 Y91.044 E29.05977
G1 X44.605 Y90.5 E29.08714
G1 X44.534 Y89.956 E29.11451
G1 X44.324 Y89.448 E29.14193
G1 X43.989 Y89.011 E29.1694
G1 X43.552 Y88.676 E29.19687
G1 X43.044 Y88.466 E29.2243
G1 X42.5 Y88.395 E29.25167
G1 X41.956 Y88.466 E29.27904
G1 X41.448 Y88.676 E29.30646
G1 X41.011 Y89.011 E29.33394
G0 F900 X41.296 Y89.296
;TYPE:WALL-OUTER
G1 F480 X41.026 Y89.649 E29.35611
G1 X40.856 Y90.06 E29.3783
G1 X40.798 Y90.5 E29.40044
G1 X40.856 Y90.94 E29.42258
G1 X41.026 Y91.351 E29.44477
G1 X41.296 Y91.704 E29.46694
G1 X41.649 Y91.974 E29.48911
G1 X42.06 Y92.144 E29.5113
G1 X42.5 Y92.202 E29.53345
G1 X42.94 Y92.144 E29.55559
G1 X43.351 Y91.974 E29.57778
G1 X43.704 Y91.704 E29.59995
G1 X43.974 Y91.351 E29.62212
G1 X44.144 Y90.94 E29.64431
G1 X44.202 Y90.5 E29.66645
G1 X44.144 Y90.06 E29.68859
G1 X43.974 Y89.649 E29.71078
G1 X43.704 Y89.296 E29.73296
G1 X43.351 Y89.026 E29.75513
G1 X42.94 Y88.856 E29.77732
G1 X42.5 Y88.798 E29.79946
G1 X42.06 Y88.856 E29.8216
G1 X41.649 Y89.026 E29.84379
G1 X41.296 Y89.296 E29.86596
G0 F900 X41.175 Y89.455
G0 X40.779 Y89.151
G0 X41.429 Y88.642
G0 X41.946 Y88.428
G0 X42.259 Y88.388
G0 X80.901 Y88.992
G0 X81.296 Y89.296
G1 F480 X81.026 Y89.649 E29.88814
G1 X80.856 Y90.06 E29.91032
G1 X80.798 Y90.5 E29.93247
G1 X80.856 Y90.94 E29.95461
G1 X81.026 Y91.351 E29.9768
G1 X81.296 Y91.704 E29.99897
G1 X81.649 Y91.974 E30.02114
G1 X82.06 Y92.144 E30.04333
G1 X82.5 Y92.202 E30.06547
G1 X82.94 Y92.144 E30.08761
G1 X83.351 Y91.974 E30.1098
G1 X83.704 Y91.704 E30.13198
G1 X83.974 Y91.351 E30.15415
G1 X84.144 Y90.94 E30.17634
G1 X84.202 Y90.5 E30.19848
G1 X84.144 Y90.06 E30.22062
G1 X83.974 Y89.649 E30.24281
G1 X83.704 Y89.296 E30.26498
G1 X83.351 Y89.026 E30.28716
G1 X82.94 Y88.856 E30.30935
G1 X82.5 Y88.798 E30.33149
G1 X82.06 Y88.856 E30.35363
G1 X81.649 Y89.026 E30.37582
G1 X81.296 Y89.296 E30.39799
G0 F900 X81.175 Y89.455
G0 X80.779 Y89.151
G0 X81.429 Y88.642
G0 X81.946 Y88.428
G0 X82.5 Y88.355
G0 X83.054 Y88.428
G0 X83.571 Y88.642
G0 X83.823 Y88.834
G0 X91.83 Y96.83
G0 X92.3 Y97.3
G1 F480 X32.7 Y97.3 E33.37145
G1 X32.7 Y27.7 E36.8438
G1 X92.3 Y27.7 E39.81726
G1 X92.3 Y97.3 E43.28962
G0 F900 X92.1 Y97.3
G0 X91.83 Y96.83
G0 X84.576 Y33.969
G0 X84.378 Y33.362
G0 X83.981 Y33.665
G1 F480 X83.691 Y33.287 E43.31339
G1 X83.335 Y33.019 E43.33562
G1 X82.923 Y32.854 E43.35776
G1 X82.483 Y32.8 E43.37988
G1 X82.044 Y32.863 E43.402
G1 X81.636 Y33.036 E43.42411
G1 X81.296 Y33.296 E43.44547
G1 X81.026 Y33.649 E43.46764
G1 X80.856 Y34.06 E43.48983
G1 X80.798 Y34.5 E43.51197
G1 X80.856 Y34.94 E43.53411
G1 X81.026 Y35.351 E43.5563
G1 X81.296 Y35.704 E43.57847
G1 X81.649 Y35.974 E43.60065
G1 X82.06 Y36.144 E43.62284
G1 X82.5 Y36.202 E43.64498
G1 X82.94 Y36.144 E43.66712
G1 X83.351 Y35.974 E43.68931
G1 X83.704 Y35.704 E43.71148
G1 X83.974 Y35.351 E43.73365
G1 X84.144 Y34.94 E43.75584
G1 X84.2 Y34.516 E43.77718
G1 X84.147 Y34.078 E43.79919
G1 X83.981 Y33.665 E43.8214
G0 F900 X83.86 Y33.507
G0 X84.257 Y33.204
G0 X83.552 Y32.633
G0 X83.032 Y32.425
G0 X82.72 Y32.388
G0 X44.378 Y33.362
G0 X43.981 Y33.665
G1 F480 X43.691 Y33.287 E43.84517
G1 X43.335 Y33.019 E43.8674
G1 X42.923 Y32.854 E43.88954
G1 X42.483 Y32.8 E43.91166
G1 X42.044 Y32.863 E43.93378
G1 X41.636 Y33.036 E43.95589
G1 X41.296 Y33.296 E43.97725
G1 X41.026 Y33.649 E43.99942
G1 X40.856 Y34.06 E44.02161
G1 X40.798 Y34.5 E44.04375
G1 X40.856 Y34.94 E44.06589
G1 X41.026 Y35.351 E44.08808
G1 X41.296 Y35.704 E44.11025
G1 X41.649 Y35.974 E44.13243
G1 X42.06 Y36.144 E44.15462
G1 X42.5 Y36.202 E44.17676
G1 X42.94 Y36.144 E44.1989
G1 X43.351 Y35.974 E44.22109
G1 X43.704 Y35.704 E44.24326
G1 X43.974 Y35.351 E44.26543
G1 X44.144 Y34.94 E44.28762
G1 X44.202 Y34.5 E44.30976
G1 X44.146 Y34.076 E44.3311
G1 X43.981 Y33.665 E44.3532
G0 F900 X43.86 Y33.507
G0 X44.674 Y33.27
;TYPE:SKIN
G1 F480 X44.252 Y32.721 E44.38774
G1 X43.726 Y32.324 E44.42062
G1 X43.121 Y32.082 E44.45313
G1 X42.475 Y32.002 E44.4856
G1 X41.83 Y32.095 E44.51812
G1 X41.235 Y32.348 E44.55037
G1 X40.733 Y32.732 E44.58191
G1 X40.335 Y33.251 E44.61454
G1 X40.086 Y33.855 E44.64713
G1 X40.001 Y34.5 E44.67959
G1 X40.086 Y35.145 E44.71204
G1 X40.335 Y35.749 E44.74464
G1 X40.732 Y36.268 E44.77724
G1 X41.251 Y36.665 E44.80984
G1 X41.855 Y36.914 E44.84243
G1 X42.5 Y36.999 E44.87489
G1 X43.145 Y36.914 E44.90735
G1 X43.749 Y36.665 E44.93994
G1 X44.268 Y36.268 E44.97254
G1 X44.665 Y35.749 E45.00514
G1 X44.914 Y35.145 E45.03773
G1 X44.999 Y34.5 E45.07019
G1 X44.916 Y33.874 E45.1017
G1 X44.674 Y33.27 E45.13416
G0 F900 X43.766 Y32.755
G0 X33.49 Y28.49
G1 F480 X91.51 Y28.49 E48.02879
G1 X91.51 Y96.51 E51.42232
G1 X33.49 Y96.51 E54.31695
G1 X33.49 Y28.49 E57.71048
G0 F900 X80.001 Y34.5
G1 F480 X80.086 Y35.145 E57.74294
G1 X80.335 Y35.749 E57.77553
G1 X80.732 Y36.268 E57.80813
G1 X81.251 Y36.665 E57.84073
G1 X81.855 Y36.914 E57.87332
G1 X82.5 Y36.999 E57.90578
G1 X83.145 Y36.914 E57.93824
G1 X83.749 Y36.665 E57.97083
G1 X84.268 Y36.268 E58.00343
G1 X84.665 Y35.749 E58.03603
G1 X84.914 Y35.146 E58.06858
G1 X84.997 Y34.52 E58.10009
G1 X84.919 Y33.88 E58.13225
G1 X84.674 Y33.27 E58.16505
G1 X84.252 Y32.721 E58.19959
G1 X83.726 Y32.324 E58.23247
G1 X83.121 Y32.082 E58.26498
G1 X82.475 Y32.002 E58.29746
G1 X81.83 Y32.095 E58.32997
G1 X81.235 Y32.348 E58.36222
G1 X80.733 Y32.732 E58.39376
G1 X80.335 Y33.251 E58.42639
G1 X80.086 Y33.855 E58.45898
G1 X80.001 Y34.5 E58.49144
G0 F900 X81.251 Y88.335
G1 F480 X80.732 Y88.732 E58.52404
G1 X80.335 Y89.251 E58.55664
G1 X80.086 Y89.855 E58.58923
G1 X80.001 Y90.5 E58.62169
G1 X80.086 Y91.145 E58.65415
G1 X80.335 Y91.749 E58.68674
G1 X80.732 Y92.268 E58.71934
G1 X81.251 Y92.665 E58.75194
G1 X81.855 Y92.914 E58.78453
G1 X82.5 Y92.999 E58.81699
G1 X83.145 Y92.914 E58.84945
G1 X83.749 Y92.665 E58.88204
G1 X84.268 Y92.268 E58.91464
G1 X84.665 Y91.749 E58.94724
G1 X84.914 Y91.145 E58.97983
G1 X84.999 Y90.5 E59.01229
G1 X84.914 Y89.855 E59.04475
G1 X84.665 Y89.251 E59.07734
G1 X84.268 Y88.732 E59.10994
G1 X83.749 Y88.335 E59.14254
G1 X83.145 Y88.086 E59.17514
G1 X82.5 Y88.001 E59.20759
G1 X81.855 Y88.086 E59.24005
G1 X81.251 Y88.335 E59.27265
G0 F900 X42.5 Y88.001
G1 F480 X41.855 Y88.086 E59.3051
G1 X41.251 Y88.335 E59.3377
G1 X40.732 Y88.732 E59.3703
G1 X40.335 Y89.251 E59.4029
G1 X40.086 Y89.855 E59.43549
G1 X40.001 Y90.5 E59.46795
G1 X40.086 Y91.145 E59.5004
G1 X40.335 Y91.749 E59.533
G1 X40.732 Y92.268 E59.5656
G1 X41.251 Y92.665 E59.5982
G1 X41.855 Y92.914 E59.63079
G1 X42.5 Y92.999 E59.66325
G1 X43.145 Y92.914 E59.69571
G1 X43.749 Y92.665 E59.7283
G1 X44.268 Y92.268 E59.7609
G1 X44.665 Y91.749 E59.7935
G1 X44.914 Y91.145 E59.82609
G1 X44.999 Y90.5 E59.85855
G1 X44.914 Y89.855 E59.89101
G1 X44.665 Y89.251 E59.9236
G1 X44.268 Y88.732 E59.9562
G1 X43.749 Y88.335 E59.9888
G1 X43.145 Y88.086 E60.0214
G1 X42.5 Y88.001 E60.05385
G0 F900 X41.429 Y88.642
G0 X41.177 Y88.834
G0 X34.103 Y96.329
G1 F480 X33.669 Y95.894 E60.08451
G0 F900 X33.669 Y95.329
G1 F480 X34.669 Y96.329 E60.15507
G0 F900 X35.235 Y96.329
G1 F480 X33.669 Y94.763 E60.26555
G0 F900 X33.669 Y94.197
G1 F480 X35.8 Y96.329 E60.41594
G0 F900 X36.366 Y96.329
G1 F480 X33.669 Y93.632 E60.60623
G0 F900 X33.669 Y93.066
G1 F480 X36.932 Y96.329 E60.83645
G0 F900 X37.497 Y96.329
G1 F480 X33.669 Y92.5 E61.10658
G0 F900 X33.669 Y91.935
G1 F480 X38.063 Y96.329 E61.4166
G0 F900 X38.629 Y96.329
G1 F480 X33.669 Y91.369 E61.76655
G0 F900 X33.669 Y90.803
G1 F480 X39.194 Y96.329 E62.1564
G0 F900 X39.76 Y96.329
G1 F480 X33.669 Y90.238 E62.58616
G0 F900 X33.669 Y89.672
G1 F480 X40.326 Y96.329 E63.05584
G0 F900 X40.891 Y96.329
G1 F480 X33.669 Y89.106 E63.56543
G0 F900 X33.669 Y88.541
G1 F480 X41.457 Y96.329 E64.11492
G0 F900 X42.023 Y96.329
G1 F480 X33.669 Y87.975 E64.70434
G0 F900 X33.669 Y87.409
G1 F480 X42.589 Y96.329 E65.33369
G0 F900 X43.154 Y96.329
G1 F480 X33.669 Y86.844 E66.00291
G0 F900 X33.669 Y86.278
G1 F480 X43.72 Y96.329 E66.71206
G0 F900 X44.286 Y96.329
G1 F480 X33.669 Y85.712 E67.46115
G0 F900 X33.669 Y85.146
G1 F480 X40.047 Y91.525 E67.91119
G0 F900 X39.855 Y90.767
G1 F480 X33.669 Y84.581 E68.34764
G0 F900 X33.669 Y84.015
G1 F480 X39.858 Y90.204 E68.78431
G0 F900 X39.944 Y89.724
G1 F480 X33.669 Y83.449 E69.22704
G0 F900 X33.669 Y82.884
G1 F480 X40.109 Y89.323 E69.68138
G0 F900 X40.322 Y88.971
G1 F480 X33.669 Y82.318 E70.15079
G0 F900 X33.669 Y81.752
G1 F480 X40.566 Y88.649 E70.63741
G0 F900 X40.875 Y88.393
G1 F480 X33.669 Y81.187 E71.14583
G0 F900 X33.669 Y80.621
G1 F480 X41.205 Y88.157 E71.67754
G0 F900 X41.606 Y87.992
G1 F480 X33.669 Y80.055 E72.23754
G0 F900 X33.669 Y79.49
G1 F480 X42.056 Y87.877 E72.82928
G0 F900 X42.572 Y87.827
G1 F480 X33.669 Y78.924 E73.45744
G0 F900 X33.669 Y78.358
G1 F480 X43.239 Y87.928 E74.13265
G1 X43.267 Y87.956
G0 F900 X45.07 Y89.759
G1 F480 X51.64 Y96.329 E74.5962
G0 F900 X51.074 Y96.329
G1 F480 X45.17 Y90.425 E75.01276
G0 F900 X45.121 Y90.941
G1 F480 X50.508 Y96.329 E75.39288
G0 F900 X49.942 Y96.329
G1 F480 X45.006 Y91.392 E75.74118
G0 F900 X44.841 Y91.793
G1 F480 X49.377 Y96.329 E76.06122
G0 F900 X48.811 Y96.329
G1 F480 X44.605 Y92.122 E76.35801
G0 F900 X44.349 Y92.432
G1 F480 X48.245 Y96.329 E76.63293
G0 F900 X47.68 Y96.329
G1 F480 X44.028 Y92.677 E76.89059
G0 F900 X43.675 Y92.889
G1 F480 X47.114 Y96.329 E77.13327
G0 F900 X46.548 Y96.329
G1 F480 X43.274 Y93.055 E77.36427
G0 F900 X42.795 Y93.141
G1 F480 X45.983 Y96.329 E77.5892
G0 F900 X45.417 Y96.329
G1 F480 X42.233 Y93.145 E77.81385
G0 F900 X41.473 Y92.951
G1 F480 X44.851 Y96.329 E78.05218
G1 X44.879 Y96.357
G0 F900 X52.205 Y96.329
G1 F480 X33.669 Y77.793 E79.36
G0 F900 X33.669 Y77.227
G1 F480 X52.771 Y96.329 E80.70775
G0 F900 X53.337 Y96.329
G1 F480 X33.669 Y76.661 E82.09543
G0 F900 X33.669 Y76.096
G1 F480 X53.902 Y96.329 E83.52298
G0 F900 X54.468 Y96.329
G1 F480 X33.669 Y75.53 E84.99046
G0 F900 X33.669 Y74.964
G1 F480 X55.034 Y96.329 E86.49788
G0 F900 X55.599 Y96.329
G1 F480 X33.669 Y74.398 E88.04519
G0 F900 X33.669 Y73.833
G1 F480 X56.165 Y96.329 E89.63241
G0 F900 X56.731 Y96.329
G1 F480 X33.669 Y73.267 E91.25955
G0 F900 X33.669 Y72.701
G1 F480 X57.296 Y96.329 E92.9266
G0 F900 X57.862 Y96.329
G1 F480 X33.669 Y72.136 E94.63355
G0 F900 X33.669 Y71.57
G1 F480 X58.428 Y96.329 E96.38043
G0 F900 X58.993 Y96.329
G1 F480 X33.669 Y71.004 E98.16721
G0 F900 X33.669 Y70.439
G1 F480 X59.559 Y96.329 E99.99389
G0 F900 X60.125 Y96.329
G1 F480 X33.669 Y69.873 E101.8605
G0 F900 X33.669 Y69.307
G1 F480 X60.69 Y96.329 E103.76702
G0 F900 X61.256 Y96.329
G1 F480 X33.669 Y68.742 E105.71343
G0 F900 X33.669 Y68.176
G1 F480 X61.822 Y96.329 E107.69977
G0 F900 X62.388 Y96.329
G1 F480 X33.669 Y67.61 E109.72606
G0 F900 X33.669 Y67.045
G1 F480 X62.953 Y96.329 E111.7922
G0 F900 X63.519 Y96.329
G1 F480 X33.669 Y66.479 E113.89828
G0 F900 X33.669 Y65.913
G1 F480 X64.085 Y96.329 E116.04429
G0 F900 X64.65 Y96.329
G1 F480 X33.669 Y65.347 E118.2302
G0 F900 X33.669 Y64.782
G1 F480 X65.216 Y96.329 E120.45601
G0 F900 X65.782 Y96.329
G1 F480 X33.669 Y64.216 E122.72176
G0 F900 X33.669 Y63.65
