;FLAVOR:Marlin
;TIME:6666
;Filament used: 0m
;Layer height: 0.15

;Generated with Cura_SteamEngine 3.6.0
M82 ;absolute extrusion mode
;Start GCode begin
M104 S200 ;Set Hotend Temperature
M140 S50 ;Set Bed Temperature
M109 ;Wait for Hotend Temperature
M190 ;Wait for Bed Temperature
G28 ;Home
G90 ;absolute positioning
G1 X-4 Y-4
G1 Z0 F3000
G92 E0
G1 F200 E20
G92 E0
;Start GCode end
G92 E0
G1 F1500 E-6.5
;LAYER_COUNT:143
;LAYER:0
M107
G0 F1500 X57.256 Y56.835 Z0.3
;TYPE:SKIRT
G1 F1500 E0
G1 F480 X57.773 Y56.393 E0.03393
G1 X58.3 Y56.037 E0.06566
G1 X58.785 Y55.747 E0.09386
G1 X59.389 Y55.432 E0.12784
G1 X60.353 Y55.099 E0.17872
G1 X60.904 Y54.961 E0.20706
G1 X61.573 Y54.834 E0.24104
G1 X62.252 Y54.787 E0.27499
G1 X62.884 Y54.815 E0.30655
G1 X63.632 Y54.889 E0.34405
G1 X64.304 Y54.996 E0.378
G1 X64.96 Y55.181 E0.41201
G1 X65.793 Y55.545 E0.45736
G1 X66.456 Y55.899 E0.49486
G1 X67.037 Y56.254 E0.52883
G1 X67.572 Y56.675 E0.56279
G1 X68.211 Y57.34 E0.6088
G1 X68.686 Y57.92 E0.6462
G1 X69.086 Y58.471 E0.68017
G1 X69.418 Y59.066 E0.71417
G1 X69.751 Y59.917 E0.75976
G1 X69.968 Y60.635 E0.79718
G1 X70.126 Y61.297 E0.83113
G1 X70.206 Y61.973 E0.86509
G1 X70.188 Y62.885 E0.9106
G1 X70.114 Y63.632 E0.94805
G1 X70.007 Y64.304 E0.982
G1 X69.822 Y64.96 E1.01601
G1 X69.452 Y65.804 E1.06198
G1 X69.097 Y66.465 E1.09941
G1 X68.74 Y67.045 E1.13339
G1 X68.318 Y67.579 E1.16735
G1 X67.887 Y68.014 E1.1979
G1 X67.472 Y68.391 E1.22587
G1 X66.942 Y68.819 E1.25986
G1 X66.366 Y69.181 E1.2938
G1 X66.042 Y69.346 E1.31194
G1 X65.53 Y69.587 E1.34017
G1 X64.898 Y69.84 E1.37413
G1 X64.241 Y70.018 E1.40809
G1 X63.632 Y70.111 E1.43883
G1 X62.885 Y70.185 E1.47628
G1 X62.204 Y70.212 E1.51028
G1 X61.526 Y70.159 E1.54421
G1 X60.635 Y69.965 E1.5897
G1 X59.917 Y69.748 E1.62713
G1 X59.278 Y69.513 E1.66109
G1 X58.671 Y69.205 E1.69505
G1 X57.928 Y68.689 E1.74018
G1 X57.346 Y68.214 E1.77766
G1 X56.844 Y67.754 E1.81163
G1 X56.401 Y67.237 E1.8456
G1 X55.903 Y66.465 E1.89143
G1 X55.548 Y65.804 E1.92886
G1 X55.262 Y65.187 E1.96279
G1 X55.05 Y64.539 E1.99681
G1 X54.886 Y63.632 E2.04279
G1 X54.812 Y62.885 E2.08024
G1 X54.785 Y62.204 E2.11424
G1 X54.838 Y61.526 E2.14817
G1 X55.032 Y60.635 E2.19367
G1 X55.249 Y59.917 E2.23109
G1 X55.484 Y59.278 E2.26506
G1 X55.792 Y58.671 E2.29901
G1 X56.318 Y57.915 E2.34496
G1 X56.794 Y57.335 E2.3824
G1 X57.256 Y56.835 E2.41636
G0 F1500 X57.55 Y57.108
G1 F480 X58.052 Y56.684 E2.44914
G1 X58.506 Y56.38 E2.4764
G1 X58.991 Y56.09 E2.50459
G1 X59.574 Y55.788 E2.53735
G1 X60.45 Y55.487 E2.58356
G1 X61.001 Y55.349 E2.6119
G1 X61.647 Y55.228 E2.64469
G1 X62.303 Y55.187 E2.67748
G1 X62.845 Y55.213 E2.70455
G1 X63.593 Y55.287 E2.74205
G1 X64.241 Y55.392 E2.7748
G1 X64.872 Y55.574 E2.80757
G1 X65.604 Y55.897 E2.84749
G1 X66.267 Y56.251 E2.88498
G1 X66.827 Y56.596 E2.9178
G1 X67.341 Y57.005 E2.95057
G1 X67.902 Y57.594 E2.99115
G1 X68.377 Y58.174 E3.02855
G1 X68.761 Y58.706 E3.06129
G1 X69.078 Y59.282 E3.09409
G1 X69.368 Y60.033 E3.13425
G1 X69.585 Y60.751 E3.17167
G1 X69.737 Y61.39 E3.20444
G1 X69.809 Y62.043 E3.23722
G1 X69.79 Y62.845 E3.27724
G1 X69.716 Y63.592 E3.31469
G1 X69.611 Y64.241 E3.34749
G1 X69.429 Y64.872 E3.38025
G1 X69.099 Y65.615 E3.42081
G1 X68.744 Y66.276 E3.45825
G1 X68.399 Y66.835 E3.49102
G1 X67.988 Y67.347 E3.52378
G1 X67.618 Y67.718 E3.54992
G1 X67.203 Y68.095 E3.57789
G1 X66.691 Y68.506 E3.61064
G1 X65.872 Y68.984 E3.65795
G1 X65.36 Y69.225 E3.68619
G1 X64.749 Y69.468 E3.71899
G1 X64.114 Y69.635 E3.75175
G1 X63.592 Y69.713 E3.77808
G1 X62.845 Y69.787 E3.81553
G1 X62.189 Y69.812 E3.84828
G1 X61.534 Y69.757 E3.88108
G1 X60.751 Y69.582 E3.9211
G1 X60.033 Y69.365 E3.95853
G1 X59.417 Y69.137 E3.99129
G1 X58.833 Y68.836 E4.02407
G1 X58.181 Y68.38 E4.06377
G1 X57.599 Y67.905 E4.10125
G1 X57.116 Y67.459 E4.13405
G1 X56.691 Y66.958 E4.16682
G1 X56.256 Y66.276 E4.20718
G1 X55.901 Y65.615 E4.24461
G1 X55.626 Y65.018 E4.2774
G1 X55.425 Y64.393 E4.31016
G1 X55.284 Y63.592 E4.35074
G1 X55.21 Y62.845 E4.38819
G1 X55.185 Y62.189 E4.42094
G1 X55.24 Y61.534 E4.45373
G1 X55.415 Y60.751 E4.49376
G1 X55.632 Y60.033 E4.53118
G1 X55.86 Y59.417 E4.56395
G1 X56.161 Y58.833 E4.59673
G1 X56.627 Y58.169 E4.6372
G1 X57.103 Y57.589 E4.67463
G1 X57.55 Y57.108 E4.70739
G0 F1500 X57.843 Y57.381
G1 F480 X58.329 Y56.976 E4.73895
G1 X58.711 Y56.724 E4.76179
G1 X59.196 Y56.434 E4.78998
G1 X59.758 Y56.144 E4.82153
G1 X60.547 Y55.875 E4.86312
G1 X61.098 Y55.737 E4.89146
G1 X61.72 Y55.622 E4.92301
G1 X62.351 Y55.587 E4.95454
G1 X62.805 Y55.611 E4.97722
G1 X63.553 Y55.685 E5.01472
G1 X64.177 Y55.787 E5.04627
G1 X64.783 Y55.967 E5.07781
G1 X65.416 Y56.25 E5.1124
G1 X66.079 Y56.604 E5.1499
G1 X66.617 Y56.937 E5.18146
G1 X67.108 Y57.334 E5.21297
G1 X67.592 Y57.847 E5.24815
G1 X68.067 Y58.427 E5.28555
G1 X68.436 Y58.94 E5.31708
G1 X68.737 Y59.496 E5.34862
G1 X68.985 Y60.148 E5.38343
G1 X69.202 Y60.866 E5.42085
G1 X69.346 Y61.482 E5.45241
G1 X69.412 Y62.111 E5.48396
G1 X69.392 Y62.806 E5.51865
G1 X69.318 Y63.553 E5.5561
G1 X69.216 Y64.177 E5.58765
G1 X69.036 Y64.783 E5.61918
G1 X68.747 Y65.426 E5.65435
G1 X68.392 Y66.087 E5.69179
G1 X68.058 Y66.624 E5.72334
G1 X67.659 Y67.114 E5.75486
G1 X67.349 Y67.422 E5.77667
G1 X66.934 Y67.799 E5.80464
G1 X66.44 Y68.194 E5.83619
G1 X65.701 Y68.622 E5.8788
G1 X65.189 Y68.863 E5.90703
G1 X64.602 Y69.095 E5.93852
G1 X63.989 Y69.252 E5.97009
G1 X63.553 Y69.315 E5.99207
G1 X62.806 Y69.389 E6.02952
G1 X62.174 Y69.411 E6.06107
G1 X61.545 Y69.354 E6.09258
G1 X60.866 Y69.199 E6.12733
G1 X60.148 Y68.982 E6.16475
G1 X59.556 Y68.761 E6.19627
G1 X58.996 Y68.468 E6.2278
G1 X58.434 Y68.07 E6.26216
G1 X57.852 Y67.595 E6.29964
G1 X57.388 Y67.165 E6.3312
G1 X56.982 Y66.68 E6.36276
G1 X56.608 Y66.087 E6.39773
G1 X56.253 Y65.426 E6.43517
G1 X55.99 Y64.851 E6.46671
G1 X55.801 Y64.248 E6.49824
G1 X55.682 Y63.553 E6.53342
G1 X55.608 Y62.806 E6.57087
G1 X55.586 Y62.174 E6.60242
G1 X55.643 Y61.545 E6.63393
G1 X55.798 Y60.866 E6.66867
G1 X56.015 Y60.148 E6.7061
G1 X56.236 Y59.556 E6.73762
G1 X56.529 Y58.996 E6.76915
G1 X56.936 Y58.423 E6.80422
G1 X57.412 Y57.843 E6.84165
G1 X57.843 Y57.381 E6.87317
G0 F1500 X58.136 Y57.654
G1 F480 X58.605 Y57.271 E6.90338
G1 X58.916 Y57.067 E6.92194
G1 X59.401 Y56.777 E6.95013
G1 X59.941 Y56.501 E6.98039
G1 X60.644 Y56.263 E7.01741
G1 X61.195 Y56.125 E7.04575
G1 X61.792 Y56.017 E7.07602
G1 X62.398 Y55.988 E7.10629
G1 X62.766 Y56.009 E7.12468
G1 X63.514 Y56.083 E7.16218
G1 X64.112 Y56.183 E7.19243
G1 X64.692 Y56.36 E7.22268
G1 X65.228 Y56.603 E7.25204
G1 X65.891 Y56.957 E7.28954
G1 X66.405 Y57.277 E7.31975
G1 X66.874 Y57.663 E7.35005
G1 X67.283 Y58.1 E7.37991
G1 X67.758 Y58.68 E7.41731
G1 X68.11 Y59.174 E7.44758
G1 X68.395 Y59.709 E7.47782
G1 X68.602 Y60.264 E7.50737
G1 X68.819 Y60.982 E7.54479
G1 X68.956 Y61.573 E7.57506
G1 X69.014 Y62.176 E7.60528
G1 X68.994 Y62.766 E7.63473
G1 X68.92 Y63.513 E7.67218
G1 X68.82 Y64.112 E7.70248
G1 X68.643 Y64.691 E7.73269
G1 X68.395 Y65.236 E7.76256
G1 X68.04 Y65.897 E7.79999
G1 X67.718 Y66.412 E7.8303
G1 X67.332 Y66.879 E7.86052
G1 X67.08 Y67.126 E7.87813
G1 X66.665 Y67.503 E7.9061
G1 X66.19 Y67.88 E7.93635
G1 X65.531 Y68.26 E7.97431
G1 X65.019 Y68.501 E8.00254
G1 X64.455 Y68.722 E8.03276
G1 X63.866 Y68.868 E8.06303
G1 X63.513 Y68.917 E8.08081
G1 X62.766 Y68.991 E8.11826
G1 X62.16 Y69.01 E8.14851
G1 X61.557 Y68.95 E8.17875
G1 X60.982 Y68.816 E8.2082
G1 X60.264 Y68.599 E8.24562
G1 X59.697 Y68.386 E8.27584
G1 X59.162 Y68.1 E8.30611
G1 X58.686 Y67.76 E8.33529
G1 X58.104 Y67.285 E8.37277
G1 X57.661 Y66.871 E8.40302
G1 X57.276 Y66.403 E8.43325
G1 X56.96 Y65.897 E8.46302
G1 X56.605 Y65.236 E8.50045
G1 X56.354 Y64.685 E8.53066
G1 X56.178 Y64.104 E8.56094
G1 X56.08 Y63.513 E8.59083
G1 X56.006 Y62.766 E8.62828
G1 X55.987 Y62.16 E8.65853
G1 X56.047 Y61.557 E8.68876
G1 X56.181 Y60.982 E8.71822
G1 X56.398 Y60.264 E8.75564
G1 X56.611 Y59.697 E8.78586
G1 X56.897 Y59.162 E8.81612
G1 X57.245 Y58.677 E8.8459
G1 X57.721 Y58.097 E8.88334
G1 X58.136 Y57.654 E8.91362
G0 F1500 X58.428 Y57.929
G1 F480 X59.122 Y57.41 E8.95686
G1 X59.607 Y57.12 E8.98505
G1 X60.123 Y56.858 E9.01392
G1 X60.742 Y56.651 E9.04648
G1 X61.293 Y56.513 E9.07482
G1 X61.863 Y56.411 E9.10371
G1 X62.726 Y56.407 E9.14677
G1 X63.474 Y56.481 E9.18427
G1 X64.046 Y56.578 E9.21321
G1 X64.598 Y56.752 E9.24209
G1 X65.039 Y56.956 E9.26633
G1 X65.702 Y57.31 E9.30382
G1 X66.193 Y57.617 E9.33271
G1 X66.637 Y57.99 E9.36165
G1 X66.973 Y58.354 E9.38636
G1 X67.448 Y58.934 E9.42376
G1 X67.784 Y59.406 E9.45267
G1 X68.051 Y59.92 E9.48156
G1 X68.219 Y60.38 E9.506
G1 X68.436 Y61.098 E9.54342
G1 X68.565 Y61.663 E9.57233
G1 X68.615 Y62.24 E9.60123
G1 X68.596 Y62.727 E9.62554
G1 X68.522 Y63.474 E9.66299
G1 X68.425 Y64.045 E9.69189
G1 X68.25 Y64.598 E9.72082
G1 X68.042 Y65.047 E9.74551
G1 X67.687 Y65.708 E9.78294
G1 X67.378 Y66.198 E9.81184
G1 X66.811 Y66.83 E9.8542
G1 X66.396 Y67.207 E9.88218
G1 X65.941 Y67.566 E9.91109
G1 X65.361 Y67.898 E9.94443
G1 X64.849 Y68.139 E9.97267
G1 X64.309 Y68.349 E10.00157
G1 X63.474 Y68.519 E10.04408
G1 X62.727 Y68.593 E10.08154
G1 X62.148 Y68.61 E10.11043
G1 X61.572 Y68.547 E10.13934
G1 X61.098 Y68.433 E10.16366
G1 X60.38 Y68.216 E10.20109
G1 X59.838 Y68.011 E10.23
G1 X59.33 Y67.733 E10.25889
G1 X58.939 Y67.45 E10.28297
G1 X58.357 Y66.975 E10.32045
G1 X57.935 Y66.578 E10.34935
G1 X57.571 Y66.128 E10.37823
G1 X57.313 Y65.708 E10.40282
G1 X56.958 Y65.047 E10.44025
G1 X56.72 Y64.519 E10.46915
G1 X56.556 Y63.963 E10.49807
G1 X56.478 Y63.474 E10.52277
G1 X56.404 Y62.727 E10.56022
G1 X56.387 Y62.148 E10.58912
G1 X56.45 Y61.572 E10.61803
G1 X56.564 Y61.098 E10.64235
G1 X56.781 Y60.38 E10.67977
G1 X56.986 Y59.838 E10.70868
G1 X57.264 Y59.33 E10.73757
G1 X57.554 Y58.931 E10.76218
G1 X58.03 Y58.351 E10.79962
G1 X58.428 Y57.929 E10.82856
G0 F1500 X58.719 Y58.205
G1 F480 X59.327 Y57.754 E10.86632
G1 X59.812 Y57.464 E10.89452
G1 X60.304 Y57.216 E10.922
G1 X60.839 Y57.039 E10.95012
G1 X61.39 Y56.901 E10.97846
G1 X61.933 Y56.806 E11.00596
G1 X62.687 Y56.805 E11.04358
G1 X63.435 Y56.879 E11.08108
G1 X63.978 Y56.973 E11.10857
G1 X64.502 Y57.145 E11.13608
G1 X64.851 Y57.309 E11.15532
G1 X65.514 Y57.663 E11.19282
G1 X65.98 Y57.957 E11.22031
G1 X66.398 Y58.315 E11.24777
G1 X66.664 Y58.607 E11.26747
G1 X67.139 Y59.187 E11.30487
G1 X67.456 Y59.638 E11.33238
G1 X67.705 Y60.129 E11.35984
G1 X67.837 Y60.496 E11.3793
G1 X68.054 Y61.214 E11.41672
G1 X68.174 Y61.751 E11.44417
G1 X68.216 Y62.301 E11.47169
G1 X68.197 Y62.688 E11.49102
G1 X68.123 Y63.435 E11.52847
G1 X68.03 Y63.978 E11.55596
G1 X67.858 Y64.501 E11.58343
G1 X67.69 Y64.858 E11.60311
G1 X67.335 Y65.519 E11.64054
G1 X67.04 Y65.984 E11.66802
G1 X66.542 Y66.534 E11.70503
G1 X66.127 Y66.911 E11.73301
G1 X65.694 Y67.251 E11.76047
G1 X65.19 Y67.536 E11.78936
G1 X64.678 Y67.777 E11.81759
G1 X64.164 Y67.975 E11.84507
G1 X63.435 Y68.12 E11.88215
G1 X62.688 Y68.194 E11.9196
G1 X62.137 Y68.209 E11.9471
G1 X61.59 Y68.144 E11.97459
G1 X61.214 Y68.051 E11.99391
G1 X60.496 Y67.834 E12.03133
G1 X59.981 Y67.636 E12.05886
G1 X59.501 Y67.367 E12.08631
G1 X59.192 Y67.14 E12.10544
G1 X58.61 Y66.665 E12.14292
G1 X58.21 Y66.287 E12.17037
G1 X57.868 Y65.854 E12.1979
G1 X57.665 Y65.519 E12.21744
G1 X57.31 Y64.858 E12.25488
G1 X57.085 Y64.355 E12.28237
G1 X56.936 Y63.825 E12.30983
G1 X56.877 Y63.435 E12.32951
G1 X56.803 Y62.688 E12.36696
G1 X56.788 Y62.137 E12.39446
G1 X56.853 Y61.59 E12.42195
G1 X56.946 Y61.214 E12.44127
G1 X57.163 Y60.496 E12.47869
G1 X57.361 Y59.981 E12.50622
G1 X57.63 Y59.501 E12.53367
G1 X57.864 Y59.184 E12.55333
G1 X58.34 Y58.604 E12.59076
G1 X58.719 Y58.205 E12.61821
G0 F1500 X59.009 Y58.482
G1 F480 X59.532 Y58.097 E12.65061
G1 X60.017 Y57.807 E12.67881
G1 X60.484 Y57.574 E12.70484
G1 X60.936 Y57.427 E12.72856
G1 X61.487 Y57.289 E12.7569
G1 X62.001 Y57.201 E12.78291
G1 X62.648 Y57.204 E12.81519
G1 X63.396 Y57.278 E12.85269
G1 X63.909 Y57.368 E12.87868
G1 X64.402 Y57.537 E12.90468
G1 X64.662 Y57.662 E12.91907
G1 X65.325 Y58.016 E12.95657
G1 X65.765 Y58.296 E12.98259
G1 X66.157 Y58.64 E13.00861
G1 X66.354 Y58.861 E13.02338
G1 X66.829 Y59.441 E13.06078
G1 X67.128 Y59.868 E13.08679
G1 X67.357 Y60.336 E13.11278
G1 X67.454 Y60.611 E13.12733
G1 X67.671 Y61.329 E13.16475
G1 X67.783 Y61.838 E13.19075
G1 X67.816 Y62.358 E13.21675
G1 X67.799 Y62.648 E13.23124
G1 X67.725 Y63.395 E13.26869
G1 X67.634 Y63.908 E13.29468
G1 X67.466 Y64.402 E13.32071
G1 X67.337 Y64.669 E13.33551
G1 X66.982 Y65.33 E13.37294
G1 X66.701 Y65.769 E13.39895
G1 X66.273 Y66.238 E13.43062
G1 X65.858 Y66.615 E13.45859
G1 X65.447 Y66.934 E13.48455
G1 X65.02 Y67.174 E13.50899
G1 X64.508 Y67.415 E13.53722
G1 X64.021 Y67.6 E13.56321
G1 X63.395 Y67.722 E13.59503
G1 X62.648 Y67.796 E13.63248
G1 X62.127 Y67.808 E13.65848
G1 X61.61 Y67.74 E13.6845
G1 X61.329 Y67.668 E13.69897
G1 X60.611 Y67.451 E13.73639
G1 X60.126 Y67.262 E13.76236
G1 X59.674 Y67.001 E13.7884
G1 X59.445 Y66.83 E13.80266
G1 X58.863 Y66.355 E13.84014
G1 X58.486 Y65.996 E13.86611
G1 X58.168 Y65.583 E13.89211
G1 X58.018 Y65.33 E13.90679
G1 X57.663 Y64.669 E13.94422
G1 X57.452 Y64.192 E13.97024
G1 X57.317 Y63.689 E13.99622
G1 X57.275 Y63.395 E14.01104
G1 X57.201 Y62.648 E14.04849
G1 X57.189 Y62.127 E14.07449
G1 X57.257 Y61.61 E14.10051
G1 X57.329 Y61.329 E14.11498
G1 X57.546 Y60.611 E14.1524
G1 X57.735 Y60.126 E14.17837
G1 X57.996 Y59.674 E14.20441
G1 X58.173 Y59.438 E14.21913
G1 X58.649 Y58.858 E14.25656
G1 X59.009 Y58.482 E14.28253
G0 F1500 X59.298 Y58.76
G1 F480 X59.737 Y58.44 E14.30963
G1 X60.222 Y58.15 E14.33782
G1 X60.662 Y57.934 E14.36228
G1 X61.033 Y57.815 E14.38172
G1 X61.584 Y57.677 E14.41006
G1 X62.067 Y57.597 E14.43448
G1 X62.608 Y57.602 E14.46147
G1 X63.356 Y57.676 E14.49897
G1 X63.838 Y57.763 E14.52341
G1 X64.474 Y58.015 E14.55754
G1 X65.137 Y58.369 E14.59504
G1 X65.549 Y58.634 E14.61948
G1 X66.045 Y59.114 E14.65391
G1 X66.52 Y59.694 E14.69131
G1 X66.798 Y60.097 E14.71574
G1 X67.071 Y60.727 E14.74999
G1 X67.288 Y61.445 E14.78741
G1 X67.391 Y61.924 E14.81186
G1 X67.401 Y62.609 E14.84604
G1 X67.327 Y63.356 E14.88349
G1 X67.24 Y63.837 E14.90787
G1 X66.985 Y64.479 E14.94234
G1 X66.63 Y65.14 E14.97977
G1 X66.364 Y65.551 E15.00419
G1 X66.004 Y65.942 E15.03071
G1 X65.589 Y66.319 E15.05868
G1 X65.201 Y66.617 E15.08309
G1 X64.85 Y66.812 E15.10312
G1 X64.338 Y67.053 E15.13135
G1 X63.879 Y67.225 E15.15581
G1 X63.356 Y67.324 E15.18237
G1 X62.609 Y67.398 E15.21982
G1 X62.119 Y67.407 E15.24427
G1 X61.445 Y67.285 E15.27844
G1 X60.727 Y67.068 E15.31586
G1 X60.272 Y66.888 E15.34027
G1 X59.698 Y66.52 E15.37429
G1 X59.116 Y66.045 E15.41177
G1 X58.763 Y65.706 E15.43618
G1 X58.37 Y65.14 E15.47056
G1 X58.015 Y64.479 E15.50799
G1 X57.819 Y64.031 E15.53239
G1 X57.673 Y63.356 E15.56685
G1 X57.599 Y62.609 E15.6043
G1 X57.59 Y62.119 E15.62875
G1 X57.712 Y61.445 E15.66292
G1 X57.929 Y60.727 E15.70034
G1 X58.109 Y60.272 E15.72475
G1 X58.482 Y59.692 E15.75916
G1 X58.958 Y59.112 E15.79659
G1 X59.298 Y58.76 E15.821
G0 F1500 X59.586 Y59.04
G1 F480 X59.943 Y58.783 E15.84295
G1 X60.428 Y58.493 E15.87114
G1 X60.838 Y58.295 E15.89386
G1 X61.13 Y58.203 E15.90913
G1 X61.681 Y58.065 E15.93747
G1 X62.131 Y57.993 E15.96021
G1 X62.569 Y58 E15.98206
G1 X63.317 Y58.074 E16.01956
G1 X63.765 Y58.158 E16.0423
G1 X64.286 Y58.367 E16.07031
G1 X64.949 Y58.721 E16.10781
G1 X65.33 Y58.97 E16.13051
G1 X65.736 Y59.368 E16.15888
G1 X66.211 Y59.948 E16.19628
G1 X66.467 Y60.324 E16.21897
G1 X66.688 Y60.843 E16.24712
G1 X66.905 Y61.561 E16.28454
G1 X66.998 Y62.007 E16.30727
G1 X67.003 Y62.569 E16.33531
G1 X66.929 Y63.316 E16.37276
G1 X66.845 Y63.764 E16.3955
G1 X66.633 Y64.29 E16.42379
G1 X66.278 Y64.951 E16.46122
G1 X66.028 Y65.332 E16.48396
G1 X65.735 Y65.645 E16.50535
G1 X65.32 Y66.022 E16.53332
G1 X64.957 Y66.298 E16.55607
G1 X64.679 Y66.45 E16.57188
G1 X64.167 Y66.691 E16.60011
G1 X63.74 Y66.849 E16.62282
G1 X63.316 Y66.926 E16.64432
G1 X62.569 Y67 E16.68177
G1 X62.114 Y67.005 E16.70448
G1 X61.561 Y66.902 E16.73254
G1 X60.843 Y66.685 E16.76996
G1 X60.42 Y66.515 E16.7927
G1 X59.951 Y66.21 E16.82062
G1 X59.369 Y65.735 E16.8581
G1 X59.043 Y65.417 E16.88082
G1 X58.722 Y64.951 E16.90905
