;FLAVOR:Marlin
;TIME:1169
;Filament used: 0.518926m
;Layer height: 0.16
;MINX:43.936
;MINY:57.262
;MINZ:0.2
;MAXX:81.064
;MAXY:67.738
;MAXZ:10.92
;Generated with Cura_SteamEngine 4.12.1
M82 ;absolute extrusion mode
M104 S208.0 ;Set Hotend Temperature
M140 S58.0 ;Set Bed Temperature
G28 ;home
G90 ;absolute positioning
G1 X-10 Y-10 F3000 ;Move to corner 
G1 Z0 F1800 ;Go to zero offset
M109 S208.0 ;Wait for Hotend Temperature
M190 S58.0 ;Wait for Bed Temperature
G92 E0 ;Zero set extruder position
G1 E20 F200 ;Feed filament to clear nozzle
G92 E0 ;Zero set extruder position
G92 E0
G92 E0
G1 F1500 E-6.5
;LAYER_COUNT:68
;LAYER:0
M107
;MESH:print-register.stl
G0 F1440 X49.902 Y62.93 Z0.2
;TYPE:WALL-INNER
G1 F1500 E0
G1 F1080 X44.336 Y62.93 E0.18513
G1 X44.336 Y62.069 E0.21376
G1 X45.428 Y62.067 E0.25008
G1 X49.902 Y62.068 E0.39889
G1 X49.902 Y62.93 E0.42756
G0 F1440 X57.426 Y62.733
G0 X61.367 Y62.069
G1 F1080 X61.368 Y62.933 E0.4563
G1 X60.391 Y62.931 E0.48879
G1 X57.598 Y62.931 E0.58169
G1 X57.598 Y62.069 E0.61036
G1 X61.367 Y62.069 E0.73571
G0 F1440 X57.198 Y62.805
G0 X57.198 Y62.705
;TYPE:WALL-OUTER
G1 F1080 X57.198 Y61.669 E0.77017
G1 X61.755 Y61.669 E0.92174
G1 X61.762 Y61.801 E0.92613
G1 X61.775 Y62.497 E0.94929
G1 X61.764 Y63.155 E0.97118
G1 X61.755 Y63.334 E0.97714
G1 X60.39 Y63.331 E1.02254
G1 X43.936 Y63.33 E1.5698
G1 X43.936 Y61.67 E1.62501
G1 X45.427 Y61.667 E1.6746
G1 X50.302 Y61.668 E1.83675
G1 X50.302 Y62.705 E1.87124
G1 X57.198 Y62.705 E2.1006
G0 F1440 X57.198 Y62.505
G0 X57.498 Y62.505
G0 X58.224 Y62.75
;TYPE:SKIN
G1 F1080 X57.777 Y62.303 E2.12162
G0 F1440 X58.288 Y62.248
G1 F1080 X58.79 Y62.75 E2.14524
G0 F1440 X58.853 Y62.248
G1 F1080 X59.355 Y62.75 E2.16885
G0 F1440 X59.419 Y62.248
G1 F1080 X59.921 Y62.75 E2.19246
G0 F1440 X59.985 Y62.248
G1 F1080 X60.487 Y62.75 E2.21607
G0 F1440 X60.55 Y62.248
G1 F1080 X61.054 Y62.751 E2.23976
G0 F1440 X61.188 Y62.319
G1 F1080 X61.116 Y62.248 E2.24312
G0 F1440 X57.426 Y62.733
G0 X49.721 Y62.732
G1 F1080 X49.236 Y62.247 E2.26593
G0 F1440 X49.172 Y62.749
G1 F1080 X48.67 Y62.247 E2.28955
G0 F1440 X48.607 Y62.749
G1 F1080 X48.105 Y62.247 E2.31316
G0 F1440 X48.041 Y62.749
G1 F1080 X47.538 Y62.246 E2.33682
G0 F1440 X47.475 Y62.749
G1 F1080 X46.973 Y62.246 E2.36045
G0 F1440 X46.91 Y62.749
G1 F1080 X46.407 Y62.246 E2.38411
G0 F1440 X46.344 Y62.749
G1 F1080 X45.841 Y62.246 E2.40777
G0 F1440 X45.778 Y62.749
G1 F1080 X45.276 Y62.246 E2.43141
G0 F1440 X45.213 Y62.749
G1 F1080 X44.712 Y62.248 E2.45497
G0 F1440 X44.515 Y62.617
G1 F1080 X44.647 Y62.749 E2.46118
G0 F1440 X50.082 Y63.03
G0 X50.102 Y63.113
;TYPE:SKIN
G1 F1080 X50.288 Y63.016 E2.46533
G1 X57.077 Y63.016 E2.59941
G1 X57.329 Y62.986 E2.60442
G0 F1440 X57.242 Y62.731
G1 F1500 E-3.89558
G0 F1440 X57.242 Y62.805
G0 X61.567 Y62.154
G0 X62.633 Y62.135
G0 X63.982 Y62.132
G0 X65.269 Y62.154
G0 X80.594 Y62.139
G1 F1500 E2.60442
G0 F1440 X80.664 Y62.069
;TYPE:WALL-INNER
G1 F1080 X80.664 Y62.929 E2.63302
G1 X79.336 Y62.921 E2.67719
G1 X65.249 Y62.92 E3.14573
G1 X65.249 Y62.067 E3.1741
G1 X65.716 Y62.064 E3.18963
G1 X66.349 Y62.069 E3.21069
G1 X80.664 Y62.069 E3.68681
G0 F1440 X81.064 Y61.669
;TYPE:WALL-OUTER
G1 F1080 X81.064 Y63.331 E3.74209
G1 X79.335 Y63.321 E3.79959
G1 X64.86 Y63.32 E4.28103
G1 X64.854 Y63.193 E4.28526
G1 X64.841 Y62.504 E4.30818
G1 X64.854 Y61.807 E4.33137
G1 X64.861 Y61.67 E4.33593
G1 X65.716 Y61.664 E4.36437
G1 X66.351 Y61.669 E4.38549
G1 X81.064 Y61.669 E4.87485
G0 F1440 X81.064 Y61.869
G0 X80.483 Y62.381
;TYPE:SKIN
G1 F1080 X80.35 Y62.248 E4.8811
G0 F1440 X80.282 Y62.746
G1 F1080 X79.784 Y62.248 E4.90453
G0 F1440 X79.713 Y62.742
G1 F1080 X79.219 Y62.248 E4.92776
G0 F1440 X79.145 Y62.74
G1 F1080 X78.653 Y62.248 E4.95091
G0 F1440 X78.579 Y62.74
G1 F1080 X78.087 Y62.248 E4.97405
G0 F1440 X78.013 Y62.74
G1 F1080 X77.522 Y62.248 E4.99717
G0 F1440 X77.447 Y62.74
G1 F1080 X76.956 Y62.248 E5.02029
G0 F1440 X76.882 Y62.74
G1 F1080 X76.39 Y62.248 E5.04343
G0 F1440 X76.316 Y62.74
G1 F1080 X75.825 Y62.248 E5.06655
G0 F1440 X75.75 Y62.74
G1 F1080 X75.259 Y62.248 E5.08966
G0 F1440 X75.185 Y62.74
G1 F1080 X74.693 Y62.248 E5.11281
G0 F1440 X74.619 Y62.74
G1 F1080 X74.128 Y62.248 E5.13593
G0 F1440 X74.053 Y62.74
G1 F1080 X73.562 Y62.248 E5.15904
G0 F1440 X73.488 Y62.74
G1 F1080 X72.996 Y62.248 E5.18219
G0 F1440 X72.922 Y62.74
G1 F1080 X72.431 Y62.248 E5.20531
G0 F1440 X72.356 Y62.74
G1 F1080 X71.865 Y62.248 E5.22842
G0 F1440 X71.791 Y62.74
G1 F1080 X71.299 Y62.248 E5.25157
G0 F1440 X71.225 Y62.74
G1 F1080 X70.734 Y62.248 E5.27468
G0 F1440 X70.659 Y62.74
G1 F1080 X70.168 Y62.248 E5.2978
G0 F1440 X70.094 Y62.74
G1 F1080 X69.602 Y62.248 E5.32095
G0 F1440 X69.528 Y62.74
G1 F1080 X69.036 Y62.248 E5.34409
G0 F1440 X68.962 Y62.74
G1 F1080 X68.471 Y62.248 E5.36721
G0 F1440 X68.397 Y62.74
G1 F1080 X67.905 Y62.248 E5.39035
G0 F1440 X67.831 Y62.74
G1 F1080 X67.339 Y62.248 E5.41349
G0 F1440 X67.265 Y62.74
G1 F1080 X66.774 Y62.248 E5.43661
G0 F1440 X66.699 Y62.74
G1 F1080 X66.207 Y62.248 E5.45975
G0 F1440 X66.134 Y62.74
G1 F1080 X65.638 Y62.244 E5.48308
G0 F1440 X65.427 Y62.599
G1 F1080 X65.568 Y62.74 E5.48971
M104 S208
G0 F1440 X65.649 Y62.521
G1 F1500 E-1.01029
;MESH:NONMESH
G0 F600 X65.649 Y62.521 Z0.36
G0 F1440 X65.263 Y62.906
G0 X63.984 Y62.929
G0 X62.634 Y62.924
G0 X61.567 Y62.908
G0 X57.598 Y63.031
G1 F1500 E5.48971
G0 F1440 X57.598 Y63.105
;TIME_ELAPSED:19.267205
;LAYER:1
M106 S255
;TYPE:WALL-INNER
;MESH:print-register.stl
G1 F1140 X57.598 Y61.382 E5.53556
G1 X61.387 Y61.381 E5.63638
G1 X61.411 Y61.832 E5.6484
G1 X61.423 Y62.49 E5.66591
G1 X61.411 Y63.162 E5.68379
G1 X61.387 Y63.62 E5.69599
G1 X44.336 Y63.618 E6.14969
G1 X44.336 Y61.382 E6.20918
G1 X49.902 Y61.382 E6.35728
G1 X49.902 Y63.105 E6.40313
G1 X57.598 Y63.105 E6.60791
G0 F2220 X57.198 Y62.705
;TYPE:WALL-OUTER
G1 F990 X57.198 Y60.982 E6.65375
G1 X61.762 Y60.981 E6.77519
G1 X61.774 Y61.127 E6.77909
G1 X61.811 Y61.825 E6.79769
G1 X61.823 Y62.497 E6.81557
G1 X61.811 Y63.169 E6.83345
G1 X61.774 Y63.873 E6.85221
G1 X61.761 Y64.02 E6.85614
G1 X43.936 Y64.018 E7.33043
G1 X43.936 Y60.982 E7.41121
G1 X50.302 Y60.982 E7.5806
G1 X50.302 Y62.705 E7.62644
G1 X57.198 Y62.705 E7.80993
G0 F2220 X57.198 Y62.505
G0 X57.698 Y62.505
G0 X61.012 Y63.438
;TYPE:SKIN
G1 F1290 X61.227 Y63.223 E7.81802
G0 F2220 X61.239 Y62.645
G1 F1290 X60.446 Y63.438 E7.84786
G0 F2220 X59.88 Y63.438
G1 F1290 X61.234 Y62.084 E7.89881
G0 F2220 X61.193 Y61.56
G1 F1290 X59.314 Y63.438 E7.9695
G0 F2220 X58.749 Y63.438
G1 F1290 X60.628 Y61.56 E8.04019
G0 F2220 X60.062 Y61.56
G1 F1290 X58.183 Y63.438 E8.11088
G0 F2220 X57.778 Y63.278
G1 F1290 X59.495 Y61.56 E8.1755
G0 F2220 X58.93 Y61.56
G1 F1290 X57.778 Y62.712 E8.21885
G0 F2220 X57.778 Y62.146
G1 F1290 X58.364 Y61.56 E8.2409
G1 X58.434 Y61.49
G0 F2220 X57.772 Y63.284
G1 F1290 X57.617 Y63.438 E8.24672
G0 F2220 X57.206 Y63.284
G1 F1290 X57.052 Y63.438 E8.25251
G0 F2220 X56.64 Y63.284
G1 F1290 X56.486 Y63.438 E8.25831
G0 F2220 X56.074 Y63.284
G1 F1290 X55.92 Y63.438 E8.2641
G0 F2220 X55.509 Y63.284
G1 F1290 X55.355 Y63.438 E8.2699
G0 F2220 X54.943 Y63.284
G1 F1290 X54.789 Y63.438 E8.27569
G0 F2220 X54.377 Y63.284
G1 F1290 X54.223 Y63.438 E8.28149
G0 F2220 X53.812 Y63.284
G1 F1290 X53.658 Y63.438 E8.28728
G0 F2220 X53.246 Y63.284
G1 F1290 X53.092 Y63.438 E8.29308
G0 F2220 X52.68 Y63.284
G1 F1290 X52.527 Y63.438 E8.29885
G0 F2220 X52.115 Y63.284
G1 F1290 X51.961 Y63.438 E8.30465
G0 F2220 X51.549 Y63.284
G1 F1290 X51.396 Y63.438 E8.31043
G0 F2220 X50.983 Y63.284
G1 F1290 X50.83 Y63.438 E8.3162
G0 F2220 X50.418 Y63.284
G1 F1290 X50.264 Y63.438 E8.322
G0 F2220 X49.852 Y63.284
G1 F1290 X49.699 Y63.438 E8.32777
G0 F2220 X49.133 Y63.438
G1 F1290 X49.721 Y62.849 E8.34992
G0 F2220 X49.721 Y62.284
G1 F1290 X48.567 Y63.438 E8.39334
G0 F2220 X48.001 Y63.438
G1 F1290 X49.721 Y61.718 E8.45806
G0 F2220 X49.312 Y61.561
G1 F1290 X47.436 Y63.438 E8.52868
G0 F2220 X46.87 Y63.438
G1 F1290 X48.747 Y61.561 E8.59931
G0 F2220 X48.181 Y61.561
G1 F1290 X46.304 Y63.438 E8.66994
G0 F2220 X45.739 Y63.438
G1 F1290 X47.615 Y61.561 E8.74055
G0 F2220 X47.05 Y61.561
G1 F1290 X45.173 Y63.438 E8.81118
G0 F2220 X44.607 Y63.438
G1 F1290 X46.484 Y61.561 E8.88181
G0 F2220 X45.918 Y61.561
G1 F1290 X44.516 Y62.963 E8.93457
G0 F2220 X44.516 Y62.397
G1 F1290 X45.353 Y61.561 E8.96605
G0 F2220 X44.787 Y61.561
G1 F1290 X44.516 Y61.832 E8.97624
G0 F2220 X44.736 Y61.832
G1 F1500 E2.47624
G0 F2220 X49.874 Y63.133
G0 X61.392 Y63.162
G0 X62.675 Y63.229
G0 X63.942 Y63.23
G0 X65.224 Y63.162
G0 X80.594 Y63.548
G1 F1500 E8.97624
G0 F2220 X80.664 Y63.618
;TYPE:WALL-INNER
G1 F1140 X65.229 Y63.618 E9.38694
G1 X65.205 Y63.162 E9.39909
G1 X65.193 Y62.511 E9.41641
G1 X65.205 Y61.838 E9.43432
G1 X65.229 Y61.38 E9.44653
G1 X80.664 Y61.382 E9.85722
G1 X80.664 Y63.618 E9.91672
G0 F2220 X81.064 Y64.018
;TYPE:WALL-OUTER
G1 F990 X64.854 Y64.018 E10.34804
G1 X64.842 Y63.873 E10.35191
G1 X64.805 Y63.169 E10.37067
G1 X64.793 Y62.504 E10.38836
G1 X64.805 Y61.831 E10.40627
G1 X64.842 Y61.127 E10.42503
G1 X64.855 Y60.98 E10.42896
G1 X81.064 Y60.982 E10.86025
G1 X81.064 Y64.018 E10.94103
G0 F2220 X80.864 Y64.018
G0 X80.482 Y63.201
;TYPE:SKIN
G1 F1290 X80.246 Y63.438 E10.94993
G0 F2220 X79.68 Y63.438
G1 F1290 X80.482 Y62.635 E10.98013
G0 F2220 X80.482 Y62.069
G1 F1290 X79.114 Y63.438 E11.03162
G0 F2220 X78.548 Y63.438
G1 F1290 X80.425 Y61.561 E11.10225
G0 F2220 X79.859 Y61.561
G1 F1290 X77.983 Y63.438 E11.17287
G0 F2220 X77.417 Y63.438
G1 F1290 X79.294 Y61.561 E11.2435
G0 F2220 X78.728 Y61.561
G1 F1290 X76.851 Y63.438 E11.31413
G0 F2220 X76.286 Y63.438
G1 F1290 X78.162 Y61.561 E11.38474
G0 F2220 X77.597 Y61.561
G1 F1290 X75.72 Y63.438 E11.45537
G0 F2220 X75.154 Y63.438
G1 F1290 X77.031 Y61.561 E11.526
G0 F2220 X76.465 Y61.561
G1 F1290 X74.589 Y63.438 E11.59661
G0 F2220 X74.023 Y63.438
G1 F1290 X75.9 Y61.561 E11.66724
G0 F2220 X75.335 Y61.56
G1 F1290 X73.457 Y63.438 E11.73791
G0 F2220 X72.892 Y63.438
G1 F1290 X74.769 Y61.56 E11.80856
G0 F2220 X74.203 Y61.56
G1 F1290 X72.326 Y63.438 E11.87921
G0 F2220 X71.76 Y63.438
G1 F1290 X73.638 Y61.56 E11.94988
G0 F2220 X73.072 Y61.56
G1 F1290 X71.195 Y63.438 E12.02053
G0 F2220 X70.629 Y63.438
G1 F1290 X72.506 Y61.56 E12.09118
G0 F2220 X71.941 Y61.56
G1 F1290 X70.063 Y63.438 E12.16185
G0 F2220 X69.497 Y63.438
G1 F1290 X71.375 Y61.56 E12.23251
G0 F2220 X70.809 Y61.56
G1 F1290 X68.932 Y63.438 E12.30316
G0 F2220 X68.366 Y63.438
G1 F1290 X70.244 Y61.56 E12.37383
G0 F2220 X69.679 Y61.56
G1 F1290 X67.8 Y63.438 E12.44452
G0 F2220 X67.235 Y63.438
G1 F1290 X69.113 Y61.56 E12.51519
G0 F2220 X68.547 Y61.56
G1 F1290 X66.669 Y63.438 E12.58586
G0 F2220 X66.103 Y63.438
G1 F1290 X67.981 Y61.56 E12.65652
G0 F2220 X67.416 Y61.56
G1 F1290 X65.538 Y63.438 E12.72719
G0 F2220 X65.381 Y63.028
G1 F1290 X66.85 Y61.56 E12.78245
G0 F2220 X66.284 Y61.56
G1 F1290 X65.373 Y62.471 E12.81673
G0 F2220 X65.384 Y61.895
G1 F1290 X65.719 Y61.56 E12.82934
G0 F2220 X65.719 Y61.78
G1 F1500 E6.32934
;MESH:NONMESH
G0 F600 X65.719 Y61.78 Z0.52
G0 F2220 X65.213 Y62.511
G0 X63.929 Y62.533
G0 X62.687 Y62.468
G0 X61.403 Y62.49
G0 X57.668 Y63.175
G1 F1500 E12.82934
G0 F2220 X57.598 Y63.105
;TIME_ELAPSED:38.342772
;LAYER:2
;TYPE:WALL-INNER
;MESH:print-register.stl
G1 F1200 X57.598 Y60.965 E12.88628
G1 X60.424 Y60.986 E12.96148
G1 X60.619 Y60.961 E12.96671
G1 X61.4 Y60.961 E12.98749
G1 X61.42 Y61.192 E12.99366
G1 X61.454 Y61.853 E13.01127
G1 X61.466 Y62.49 E13.02822
G1 X61.454 Y63.141 E13.04555
G1 X61.42 Y63.793 E13.06292
G1 X61.402 Y64.006 E13.06861
G1 X47.353 Y64.039 E13.44242
G1 X44.336 Y64.038 E13.5227
G1 X44.336 Y60.962 E13.60455
G1 X49.902 Y60.962 E13.75265
G1 X49.902 Y63.105 E13.80967
G1 X57.598 Y63.105 E14.01444
G0 F3000 X57.198 Y62.705
;TYPE:WALL-OUTER
G1 F900 X57.198 Y60.562 E14.07147
G1 X60.399 Y60.586 E14.15664
G1 X60.59 Y60.561 E14.16177
G1 X61.766 Y60.561 E14.19306
G1 X61.819 Y61.171 E14.20935
G1 X61.854 Y61.846 E14.22733
G1 X61.866 Y62.497 E14.24466
G1 X61.854 Y63.148 E14.26198
G1 X61.819 Y63.828 E14.2801
G1 X61.769 Y64.405 E14.29551
G1 X47.354 Y64.439 E14.67907
G1 X43.936 Y64.438 E14.77002
G1 X43.936 Y60.562 E14.87315
G1 X50.302 Y60.562 E15.04254
G1 X50.302 Y62.705 E15.09956
G1 X57.198 Y62.705 E15.28305
G0 F3000 X57.198 Y62.505
G0 X57.698 Y62.505
G0 X61.14 Y61.14
;TYPE:SKIN
G1 F1500 X61.241 Y61.241 E15.28685
G0 F3000 X61.273 Y61.839
G1 F1500 X60.58 Y61.146 E15.31292
G0 F3000 X60.031 Y61.162
G1 F1500 X61.285 Y62.417 E15.36013
G0 F3000 X61.277 Y62.974
G1 F1500 X59.461 Y61.158 E15.42847
G0 F3000 X58.891 Y61.154
G1 F1500 X61.254 Y63.517 E15.51738
G0 F3000 X60.996 Y63.824
G1 F1500 X58.32 Y61.149 E15.61806
G0 F3000 X57.777 Y61.171
G1 F1500 X60.432 Y63.826 E15.71797
G0 F3000 X59.867 Y63.827
G1 F1500 X57.777 Y61.737 E15.79661
G0 F3000 X57.777 Y62.303
G1 F1500 X59.303 Y63.829 E15.85404
G0 F3000 X58.739 Y63.83
G1 F1500 X57.777 Y62.868 E15.89024
G0 F3000 X57.627 Y63.284
G1 F1500 X58.175 Y63.831 E15.91084
G0 F3000 X57.61 Y63.833
G1 F1500 X57.062 Y63.284 E15.93148
G0 F3000 X57.046 Y63.834
G1 F1500 X56.496 Y63.284 E15.95217
G0 F3000 X56.482 Y63.836
G1 F1500 X55.93 Y63.284 E15.97295
G0 F3000 X55.918 Y63.837
G1 F1500 X55.365 Y63.284 E15.99376
G0 F3000 X55.353 Y63.838
G1 F1500 X54.799 Y63.284 E16.0146
G0 F3000 X54.788 Y63.839
G1 F1500 X54.233 Y63.284 E16.03549
G0 F3000 X54.224 Y63.841
G1 F1500 X53.667 Y63.284 E16.05645
G0 F3000 X53.66 Y63.842
G1 F1500 X53.102 Y63.284 E16.07744
G0 F3000 X53.095 Y63.843
G1 F1500 X52.536 Y63.284 E16.09848
G0 F3000 X52.531 Y63.845
G1 F1500 X51.97 Y63.284 E16.11959
G0 F3000 X51.967 Y63.846
G1 F1500 X51.405 Y63.284 E16.14074
G0 F3000 X51.403 Y63.848
G1 F1500 X50.839 Y63.284 E16.16196
G0 F3000 X50.838 Y63.849
G1 F1500 X50.273 Y63.284 E16.18322
G0 F3000 X50.274 Y63.851
G1 F1500 X47.564 Y61.141 E16.2852
G0 F3000 X46.999 Y61.141
G1 F1500 X49.71 Y63.852 E16.38721
G0 F3000 X49.145 Y63.853
G1 F1500 X46.433 Y61.141 E16.48926
G0 F3000 X45.867 Y61.141
G1 F1500 X48.581 Y63.854 E16.59137
G0 F3000 X48.016 Y63.855
G1 F1500 X45.302 Y61.141 E16.6935
G0 F3000 X44.736 Y61.141
G1 F1500 X47.452 Y63.857 E16.7957
G0 F3000 X46.886 Y63.857
G1 F1500 X44.515 Y61.486 E16.88492
G0 F3000 X44.515 Y62.052
G1 F1500 X46.321 Y63.857 E16.95286
G0 F3000 X45.754 Y63.856
G1 F1500 X44.515 Y62.617 E16.99948
G0 F3000 X44.515 Y63.183
G1 F1500 X45.189 Y63.856 E17.02482
G0 F3000 X44.623 Y63.856
G1 F1500 X44.515 Y63.749 E17.02887
G0 F3000 X48.13 Y61.141
G1 F1500 X49.722 Y62.733 E17.08878
G0 F3000 X49.722 Y62.167
G1 F1500 X48.696 Y61.141 E17.12738
G0 F3000 X49.262 Y61.141
G1 F1500 X49.722 Y61.601 E17.14469
G0 F3000 X49.502 Y61.601
G1 F1500 E10.64469
G0 F3000 X49.874 Y63.133
G0 X61.405 Y63.701
G0 X62.688 Y63.777
G0 X63.917 Y63.581
G0 X65.181 Y63.51
G0 X65.838 Y63.934
G1 F1500 E17.14469
G0 F3000 X65.907 Y64.005
;TYPE:WALL-INNER
G1 F1200 X65.906 Y64.04 E17.14562
G1 X65.216 Y64.039 E17.16398
G1 X65.195 Y63.794 E17.17053
G1 X65.162 Y63.142 E17.1879
G1 X65.15 Y62.511 E17.20469
G1 X65.162 Y61.859 E17.22204
G1 X65.196 Y61.207 E17.23941
G1 X65.214 Y60.994 E17.2451
G1 X78.266 Y60.961 E17.59239
G1 X80.664 Y60.961 E17.6562
G1 X80.664 Y64.038 E17.73807
G1 X65.907 Y64.005 E18.13073
G0 F3000 X66.295 Y64.406
;TYPE:WALL-OUTER
G1 F900 X66.294 Y64.44 E18.13163
G1 X64.85 Y64.439 E18.17006
G1 X64.797 Y63.829 E18.18635
G1 X64.762 Y63.149 E18.20446
G1 X64.75 Y62.504 E18.22163
G1 X64.762 Y61.852 E18.23898
G1 X64.797 Y61.172 E18.2571
G1 X64.847 Y60.595 E18.27251
G1 X78.265 Y60.561 E18.62954
G1 X81.064 Y60.561 E18.70401
G1 X81.064 Y64.439 E18.8072
G1 X66.295 Y64.406 E19.20018
G0 F3000 X66.294 Y64.44
G0 X66.128 Y64.44
G0 X65.556 Y63.859
;TYPE:SKIN
G1 F1500 X65.367 Y63.67 E19.20729
G0 F3000 X65.339 Y63.076
G1 F1500 X66.088 Y63.825 E19.23547
G0 F3000 X66.654 Y63.826
G1 F1500 X65.329 Y62.501 E19.28533
G0 F3000 X65.339 Y61.945
G1 F1500 X67.221 Y63.827 E19.35615
G0 F3000 X67.788 Y63.829
G1 F1500 X65.364 Y61.405 E19.44737
G0 F3000 X65.698 Y61.173
G1 F1500 X68.356 Y63.83 E19.54737
G0 F3000 X68.923 Y63.831
G1 F1500 X66.262 Y61.171 E19.64748
G0 F3000 X66.827 Y61.17
G1 F1500 X69.489 Y63.832 E19.74765
G0 F3000 X70.056 Y63.834
G1 F1500 X67.391 Y61.168 E19.84795
G0 F3000 X67.955 Y61.167
