;FLAVOR:Marlin
;TIME:1543
;Filament used: 0.687462m
;Layer height: 0.16
;MINX:48.705
;MINY:46.99
;MINZ:0.2
;MAXX:76.295
;MAXY:78.01
;MAXZ:7.08
;Generated with Cura_SteamEngine 4.12.1
M82 ;absolute extrusion mode
M104 S208.0 ;Set Hotend Temperature
M140 S58.0 ;Set Bed Temperature
G28 ;home
G90 ;absolute positioning
G1 X-10 Y-10 F3000 ;Move to corner 
G1 Z0 F1800 ;Go to zero offset
M109 S208.0 ;Wait for Hotend Temperature
M190 S58.0 ;Wait for Bed Temperature
G92 E0 ;Zero set extruder position
G1 E20 F200 ;Feed filament to clear nozzle
G92 E0 ;Zero set extruder position
G92 E0
G92 E0
G1 F1500 E-6.5
;LAYER_COUNT:44
;LAYER:0
M107
;MESH:arm1 v6.stl
G0 F1440 X71.5 Y54.802 Z0.2
;TYPE:WALL-INNER
G1 F1500 E0
G1 F1080 X72.324 Y55.697 E0.04046
G1 X72.841 Y56.333 E0.06772
G1 X73.317 Y57.002 E0.09503
G1 X73.734 Y57.669 E0.1212
G1 X74.107 Y58.358 E0.14725
G1 X74.461 Y59.119 E0.17517
G1 X74.74 Y59.831 E0.2006
G1 X74.986 Y60.594 E0.22727
G1 X75.196 Y61.42 E0.25561
G1 X75.338 Y62.171 E0.28104
G1 X75.442 Y62.992 E0.30856
G1 X75.492 Y63.769 E0.33446
G1 X75.495 Y64.588 E0.3617
G1 X75.448 Y65.366 E0.38762
G1 X75.348 Y66.186 E0.4151
G1 X75.204 Y66.969 E0.44158
G1 X75.013 Y67.737 E0.4679
G1 X74.771 Y68.501 E0.49455
G1 X74.481 Y69.254 E0.52139
G1 X74.152 Y69.974 E0.54772
G1 X73.768 Y70.694 E0.57486
G1 X73.341 Y71.384 E0.60185
G1 X72.894 Y72.019 E0.62768
G1 X72.395 Y72.641 E0.6542
G1 X71.837 Y73.253 E0.68174
G1 X71.258 Y73.816 E0.70861
G1 X70.655 Y74.332 E0.735
G1 X70.009 Y74.821 E0.76195
G1 X69.342 Y75.263 E0.78856
G1 X68.675 Y75.649 E0.81419
G1 X67.921 Y76.026 E0.84223
G1 X67.209 Y76.328 E0.86796
G1 X66.445 Y76.597 E0.8949
G1 X65.676 Y76.815 E0.92148
G1 X64.867 Y76.993 E0.94903
G1 X64.085 Y77.113 E0.97535
G1 X63.31 Y77.184 E1.00123
G1 X62.49 Y77.21 E1.02852
G1 X61.67 Y77.183 E1.05581
G1 X60.894 Y77.11 E1.08173
G1 X60.107 Y76.988 E1.10822
G1 X59.314 Y76.813 E1.13523
G1 X58.53 Y76.588 E1.16236
G1 X57.776 Y76.321 E1.18896
G1 X57.066 Y76.019 E1.21462
G1 X56.321 Y75.646 E1.24233
G1 X55.629 Y75.245 E1.26893
G1 X54.974 Y74.808 E1.29512
G1 X54.327 Y74.318 E1.32212
G1 X53.717 Y73.794 E1.34886
G1 X53.134 Y73.224 E1.37598
G1 X52.6 Y72.634 E1.40245
G1 X52.114 Y72.028 E1.42829
G1 X51.64 Y71.352 E1.45575
G1 X51.22 Y70.672 E1.48233
G1 X50.844 Y69.965 E1.50896
G1 X50.507 Y69.227 E1.53595
G1 X50.233 Y68.512 E1.56142
G1 X49.975 Y67.691 E1.59004
G1 X49.798 Y66.972 E1.61467
G1 X49.645 Y66.131 E1.6431
G1 X49.551 Y65.354 E1.66913
G1 X49.505 Y64.574 E1.69512
G1 X49.509 Y63.754 E1.72239
G1 X49.56 Y62.97 E1.74852
G1 X49.664 Y62.159 E1.77572
G1 X49.819 Y61.351 E1.80308
G1 X50.01 Y60.608 E1.8286
G1 X50.268 Y59.809 E1.85652
G1 X50.553 Y59.083 E1.88246
G1 X50.886 Y58.371 E1.90861
G1 X51.276 Y57.653 E1.93578
G1 X51.715 Y56.954 E1.96324
G1 X52.181 Y56.305 E1.98981
G1 X52.683 Y55.689 E2.01624
G1 X53.5 Y54.802 E2.05635
G1 X53.5 Y47.79 E2.28957
G1 X71.5 Y47.79 E2.88825
G1 X71.5 Y54.802 E3.12147
G0 F1440 X73.685 Y60.989
G0 X74.024 Y62.578
G0 X74.14 Y64.197
G0 X74.027 Y65.817
G0 X73.692 Y67.405
G0 X73.139 Y68.932
G0 X72.378 Y70.367
G0 X71.424 Y71.681
G0 X70.297 Y72.851
G0 X69.019 Y73.853
G0 X67.614 Y74.666
G0 X66.109 Y75.276
G0 X64.833 Y75.595
G0 X61.259 Y76.146
G1 F1080 X62.094 Y76.204 E3.14931
G1 X62.934 Y76.203 E3.17725
G1 X63.767 Y76.143 E3.20503
G1 X64.597 Y76.026 E3.23291
G1 X65.416 Y75.851 E3.26076
G1 X66.221 Y75.618 E3.28863
G1 X67.007 Y75.331 E3.31647
G1 X67.773 Y74.991 E3.34434
G1 X68.512 Y74.595 E3.37223
G1 X69.221 Y74.152 E3.40003
G1 X69.899 Y73.657 E3.42795
G1 X70.539 Y73.119 E3.45576
G1 X71.141 Y72.538 E3.48359
G1 X71.701 Y71.913 E3.5115
G1 X72.216 Y71.253 E3.53934
G1 X72.685 Y70.558 E3.56723
G1 X73.102 Y69.832 E3.59508
G1 X73.469 Y69.078 E3.62297
G1 X73.781 Y68.301 E3.65082
G1 X74.039 Y67.505 E3.67865
G1 X74.242 Y66.692 E3.70652
G1 X74.384 Y65.867 E3.73436
G1 X74.471 Y65.035 E3.76218
G1 X74.5 Y64.197 E3.79007
G1 X74.47 Y63.361 E3.8179
G1 X74.381 Y62.527 E3.84579
G1 X74.235 Y61.701 E3.87369
G1 X74.032 Y60.889 E3.90153
G1 X73.772 Y60.093 E3.92938
G1 X73.457 Y59.317 E3.95724
G1 X73.089 Y58.565 E3.98508
G1 X72.67 Y57.839 E4.01296
G1 X72.199 Y57.145 E4.04086
G1 X71.683 Y56.488 E4.06864
G1 X71.124 Y55.865 E4.09648
G1 X70.518 Y55.283 E4.12443
G1 X69.877 Y54.745 E4.15226
G1 X69.198 Y54.254 E4.18013
G1 X68.489 Y53.811 E4.20794
G1 X67.749 Y53.419 E4.23579
G1 X66.982 Y53.079 E4.2637
G1 X66.195 Y52.794 E4.29154
G1 X65.391 Y52.565 E4.31934
G1 X64.571 Y52.39 E4.34723
G1 X63.74 Y52.275 E4.37513
G1 X62.906 Y52.217 E4.40294
G1 X62.066 Y52.218 E4.43087
G1 X61.233 Y52.278 E4.45865
G1 X60.403 Y52.394 E4.48653
G1 X59.582 Y52.57 E4.51445
G1 X58.779 Y52.803 E4.54226
G1 X57.993 Y53.089 E4.57008
G1 X57.227 Y53.431 E4.59798
G1 X56.489 Y53.826 E4.62582
G1 X55.779 Y54.268 E4.65364
G1 X55.101 Y54.763 E4.68156
G1 X54.461 Y55.302 E4.70939
G1 X53.859 Y55.883 E4.73722
G1 X53.299 Y56.508 E4.76513
G1 X52.784 Y57.167 E4.79295
G1 X52.315 Y57.862 E4.82083
G1 X51.898 Y58.589 E4.84871
G1 X51.531 Y59.342 E4.87657
G1 X51.219 Y60.12 E4.90445
G1 X50.961 Y60.915 E4.93225
G1 X50.758 Y61.728 E4.96012
G1 X50.616 Y62.553 E4.98796
G1 X50.529 Y63.386 E5.01582
G1 X50.5 Y64.223 E5.04368
G1 X50.53 Y65.06 E5.07153
G1 X50.619 Y65.893 E5.0994
G1 X50.765 Y66.719 E5.12729
G1 X50.968 Y67.531 E5.15513
G1 X51.228 Y68.328 E5.18302
G1 X51.543 Y69.103 E5.21084
G1 X51.911 Y69.856 E5.23872
G1 X52.33 Y70.581 E5.26657
G1 X52.801 Y71.276 E5.29449
G1 X53.317 Y71.933 E5.32228
G1 X53.876 Y72.556 E5.35012
G1 X54.482 Y73.138 E5.37806
G1 X55.123 Y73.675 E5.40587
G1 X55.8 Y74.167 E5.43371
G1 X56.511 Y74.61 E5.46157
G1 X57.252 Y75.002 E5.48945
G1 X58.018 Y75.341 E5.51731
G1 X58.805 Y75.627 E5.54517
G1 X59.61 Y75.856 E5.573
G1 X60.429 Y76.03 E5.60085
G1 X61.259 Y76.146 E5.62872
G0 F1440 X61.301 Y75.748
G1 F1080 X62.108 Y75.804 E5.65563
G1 X62.919 Y75.803 E5.6826
G1 X63.725 Y75.745 E5.70948
G1 X64.527 Y75.632 E5.73642
G1 X65.319 Y75.463 E5.76335
G1 X66.097 Y75.238 E5.79029
G1 X66.857 Y74.96 E5.81721
G1 X67.597 Y74.631 E5.84414
G1 X68.311 Y74.249 E5.87107
G1 X68.997 Y73.82 E5.89799
G1 X69.652 Y73.342 E5.92495
G1 X70.271 Y72.822 E5.95184
G1 X70.853 Y72.26 E5.97875
G1 X71.394 Y71.656 E6.00572
G1 X71.892 Y71.018 E6.03264
G1 X72.345 Y70.346 E6.0596
G1 X72.748 Y69.645 E6.08649
G1 X73.103 Y68.916 E6.11346
G1 X73.405 Y68.165 E6.14038
G1 X73.654 Y67.395 E6.1673
G1 X73.85 Y66.609 E6.19424
G1 X73.988 Y65.812 E6.22114
G1 X74.072 Y65.007 E6.24806
G1 X74.1 Y64.197 E6.27502
G1 X74.071 Y63.389 E6.30191
G1 X73.985 Y62.583 E6.32887
G1 X73.844 Y61.785 E6.35582
G1 X73.647 Y61 E6.38274
G1 X73.396 Y60.23 E6.40968
G1 X73.092 Y59.48 E6.43659
G1 X72.736 Y58.753 E6.46352
G1 X72.331 Y58.052 E6.49045
G1 X71.876 Y57.381 E6.51741
G1 X71.377 Y56.745 E6.5443
G1 X70.836 Y56.143 E6.57122
G1 X70.251 Y55.581 E6.5982
G1 X69.631 Y55.061 E6.62511
G1 X68.975 Y54.586 E6.65205
G1 X68.289 Y54.158 E6.67894
G1 X67.574 Y53.779 E6.70586
G1 X66.833 Y53.45 E6.73282
G1 X66.072 Y53.175 E6.75974
G1 X65.294 Y52.953 E6.78665
G1 X64.502 Y52.784 E6.81358
G1 X63.699 Y52.673 E6.84054
G1 X62.892 Y52.617 E6.86745
G1 X62.081 Y52.618 E6.89442
G1 X61.275 Y52.676 E6.9213
G1 X60.473 Y52.788 E6.94823
G1 X59.68 Y52.958 E6.97521
G1 X58.903 Y53.183 E7.00211
G1 X58.143 Y53.46 E7.02902
G1 X57.403 Y53.79 E7.05597
G1 X56.689 Y54.172 E7.0829
G1 X56.003 Y54.6 E7.10979
G1 X55.348 Y55.078 E7.13676
G1 X54.729 Y55.599 E7.16367
G1 X54.147 Y56.161 E7.19058
G1 X53.606 Y56.765 E7.21755
G1 X53.108 Y57.402 E7.24444
G1 X52.655 Y58.074 E7.2714
G1 X52.252 Y58.776 E7.29832
G1 X51.897 Y59.504 E7.32526
G1 X51.595 Y60.256 E7.35221
G1 X51.346 Y61.025 E7.3791
G1 X51.15 Y61.811 E7.40604
G1 X51.012 Y62.608 E7.43294
G1 X50.928 Y63.414 E7.4599
G1 X50.9 Y64.223 E7.48682
G1 X50.929 Y65.032 E7.51374
G1 X51.015 Y65.837 E7.54067
G1 X51.156 Y66.635 E7.56762
G1 X51.353 Y67.42 E7.59454
G1 X51.604 Y68.191 E7.62151
G1 X51.908 Y68.94 E7.6484
G1 X52.264 Y69.668 E7.67535
G1 X52.669 Y70.368 E7.70225
G1 X53.124 Y71.04 E7.72924
G1 X53.623 Y71.676 E7.75613
G1 X54.164 Y72.278 E7.78305
G1 X54.749 Y72.84 E7.81003
G1 X55.369 Y73.359 E7.83692
G1 X56.024 Y73.835 E7.86385
G1 X56.711 Y74.263 E7.89077
G1 X57.427 Y74.642 E7.91772
G1 X58.167 Y74.97 E7.94464
G1 X58.928 Y75.246 E7.97156
G1 X59.706 Y75.468 E7.99847
G1 X60.498 Y75.636 E8.0254
G1 X61.301 Y75.748 E8.05237
G0 F1440 X61.291 Y75.847
G0 X63.729 Y75.784
G0 X65.328 Y75.501
G0 X66.872 Y74.997
G0 X68.331 Y74.283
G0 X69.676 Y73.373
G0 X70.881 Y72.287
G0 X71.924 Y71.041
G0 X72.783 Y69.663
G0 X73.442 Y68.178
G0 X73.889 Y66.617
G0 X74.111 Y65.009
G0 X74.11 Y63.387
G0 X73.883 Y61.777
G0 X71.807 Y54.682
G0 X71.9 Y54.646
G1 F1080 X72.631 Y55.44 E8.08826
G1 X73.158 Y56.089 E8.11607
G1 X73.643 Y56.77 E8.14388
G1 X74.081 Y57.47 E8.17134
G1 X74.47 Y58.189 E8.19853
G1 X74.824 Y58.95 E8.22645
G1 X75.121 Y59.708 E8.25352
G1 X75.371 Y60.484 E8.28064
G1 X75.584 Y61.321 E8.30937
G1 X75.734 Y62.109 E8.33604
G1 X75.839 Y62.942 E8.36397
G1 X75.892 Y63.766 E8.39143
G1 X75.895 Y64.595 E8.41901
G1 X75.846 Y65.405 E8.446
G1 X75.744 Y66.241 E8.47401
G1 X75.594 Y67.056 E8.50157
G1 X75.398 Y67.846 E8.52864
G1 X75.148 Y68.635 E8.55617
G1 X74.848 Y69.413 E8.5839
G1 X74.507 Y70.159 E8.61118
G1 X74.117 Y70.889 E8.63871
G1 X73.673 Y71.607 E8.66679
G1 X73.213 Y72.26 E8.69336
G1 X72.697 Y72.903 E8.72078
G1 X72.121 Y73.535 E8.74922
G1 X71.531 Y74.109 E8.7766
G1 X70.909 Y74.641 E8.80382
G1 X70.242 Y75.146 E8.83165
G1 X69.553 Y75.603 E8.85914
G1 X68.854 Y76.007 E8.886
G1 X68.094 Y76.387 E8.91426
G1 X67.348 Y76.703 E8.9412
G1 X66.56 Y76.98 E8.96899
G1 X65.77 Y77.204 E8.9963
G1 X64.951 Y77.384 E9.02419
G1 X64.133 Y77.51 E9.05171
G1 X63.327 Y77.584 E9.07864
G1 X62.489 Y77.61 E9.10652
G1 X61.651 Y77.583 E9.13441
G1 X60.847 Y77.507 E9.16127
G1 X60.023 Y77.379 E9.189
G1 X59.215 Y77.201 E9.21652
G1 X58.413 Y76.971 E9.24427
G1 X57.637 Y76.696 E9.27165
G1 X56.891 Y76.379 E9.29861
G1 X56.132 Y75.999 E9.32684
G1 X55.417 Y75.584 E9.35434
G1 X54.739 Y75.133 E9.38142
G1 X54.072 Y74.627 E9.40927
G1 X53.451 Y74.094 E9.43649
G1 X52.849 Y73.505 E9.4645
G1 X52.302 Y72.901 E9.4916
G1 X51.786 Y72.258 E9.51903
G1 X51.312 Y71.582 E9.54649
G1 X50.871 Y70.867 E9.57443
G1 X50.484 Y70.14 E9.60182
G1 X50.143 Y69.393 E9.62913
G1 X49.851 Y68.632 E9.65624
G1 X49.593 Y67.811 E9.68486
G1 X49.404 Y67.044 E9.71114
G1 X49.251 Y66.203 E9.73957
G1 X49.153 Y65.393 E9.76671
G1 X49.105 Y64.572 E9.79406
G1 X49.109 Y63.743 E9.82163
G1 X49.163 Y62.919 E9.8491
G1 X49.268 Y62.097 E9.87666
G1 X49.426 Y61.275 E9.9045
G1 X49.629 Y60.485 E9.93163
G1 X49.887 Y59.686 E9.95955
G1 X50.185 Y58.927 E9.98668
G1 X50.53 Y58.189 E10.01377
G1 X50.937 Y57.44 E10.04212
G1 X51.376 Y56.741 E10.06958
G1 X51.856 Y56.072 E10.09696
G1 X52.384 Y55.423 E10.12479
G1 X53.1 Y54.646 E10.15993
G1 X53.1 Y47.39 E10.40127
G1 X71.9 Y47.39 E11.02656
G1 X71.9 Y54.646 E11.26789
G0 F1440 X72.3 Y54.49
;TYPE:WALL-OUTER
G1 F1080 X72.938 Y55.183 E11.29922
G1 X73.475 Y55.845 E11.32757
G1 X73.969 Y56.538 E11.35588
G1 X74.428 Y57.271 E11.38465
G1 X74.833 Y58.02 E11.41297
G1 X75.187 Y58.781 E11.44088
G1 X75.502 Y59.586 E11.46963
G1 X75.759 Y60.385 E11.49755
G1 X75.972 Y61.222 E11.52628
G1 X76.129 Y62.047 E11.55421
G1 X76.236 Y62.892 E11.58254
G1 X76.292 Y63.755 E11.6113
G1 X76.295 Y64.594 E11.63921
G1 X76.244 Y65.444 E11.66753
G1 X76.14 Y66.299 E11.69617
G1 X75.985 Y67.14 E11.72462
G1 X75.783 Y67.955 E11.75254
G1 X75.525 Y68.769 E11.78095
G1 X75.215 Y69.572 E11.80957
G1 X74.86 Y70.348 E11.83796
G1 X74.465 Y71.087 E11.86583
G1 X74.01 Y71.822 E11.89458
G1 X73.527 Y72.508 E11.92248
G1 X72.993 Y73.173 E11.95085
G1 X72.413 Y73.809 E11.97948
G1 X71.804 Y74.402 E12.00775
G1 X71.155 Y74.957 E12.03615
G1 X70.483 Y75.466 E12.06419
G1 X69.764 Y75.943 E12.09289
G1 X69.033 Y76.365 E12.12096
G1 X68.269 Y76.747 E12.14937
G1 X67.491 Y77.076 E12.17747
G1 X66.675 Y77.363 E12.20624
G1 X65.861 Y77.594 E12.23438
G1 X65.035 Y77.775 E12.26251
G1 X64.181 Y77.907 E12.29125
G1 X63.344 Y77.984 E12.3192
G1 X62.488 Y78.01 E12.34769
G1 X61.634 Y77.983 E12.37611
G1 X60.795 Y77.904 E12.40413
G1 X59.941 Y77.771 E12.43288
G1 X59.116 Y77.589 E12.46098
G1 X58.295 Y77.354 E12.48938
G1 X57.498 Y77.071 E12.51751
G1 X56.715 Y76.739 E12.5458
G1 X55.943 Y76.352 E12.57452
G1 X55.216 Y75.93 E12.60248
G1 X54.497 Y75.452 E12.6312
G1 X53.826 Y74.943 E12.65921
G1 X53.178 Y74.387 E12.68761
G1 X52.564 Y73.786 E12.71619
G1 X51.999 Y73.163 E12.74416
G1 X51.467 Y72.499 E12.77246
G1 X50.971 Y71.793 E12.80115
G1 X50.53 Y71.077 E12.82912
G1 X50.124 Y70.315 E12.85784
G1 X49.776 Y69.551 E12.88576
G1 X49.47 Y68.755 E12.91413
G1 X49.211 Y67.931 E12.94286
G1 X49.01 Y67.116 E12.97077
G1 X48.857 Y66.275 E12.99921
G1 X48.755 Y65.432 E13.02745
G1 X48.705 Y64.57 E13.05617
G1 X48.709 Y63.731 E13.08407
G1 X48.766 Y62.868 E13.11284
G1 X48.872 Y62.036 E13.14073
G1 X49.033 Y61.199 E13.16908
G1 X49.248 Y60.362 E13.19783
G1 X49.506 Y59.563 E13.22575
G1 X49.817 Y58.771 E13.25405
G1 X50.178 Y57.998 E13.28243
G1 X50.59 Y57.239 E13.31115
G1 X51.037 Y56.528 E13.33908
G1 X51.54 Y55.826 E13.36781
G1 X52.078 Y55.165 E13.39616
G1 X52.7 Y54.49 E13.42668
G1 X52.7 Y46.99 E13.67614
G1 X72.3 Y46.99 E14.32803
G1 X72.3 Y54.49 E14.57748
G0 F1440 X72.435 Y54.637
G0 X72.067 Y54.974
G0 X73.883 Y61.777
G0 X74.11 Y63.387
G0 X74.111 Y65.009
G0 X73.889 Y66.617
G0 X73.442 Y68.178
G0 X72.783 Y69.663
G0 X71.924 Y71.041
G0 X70.881 Y72.287
G0 X69.676 Y73.373
G0 X68.331 Y74.283
G0 X66.872 Y74.997
G0 X65.328 Y75.501
G0 X63.729 Y75.784
G0 X61.308 Y75.847
G0 X61.342 Y75.35
G1 F1080 X62.122 Y75.404 E14.60349
G1 X62.904 Y75.403 E14.6295
G1 X63.683 Y75.347 E14.65548
G1 X64.457 Y75.238 E14.68147
G1 X65.222 Y75.075 E14.70749
G1 X65.973 Y74.858 E14.73349
G1 X66.707 Y74.589 E14.75949
G1 X67.421 Y74.271 E14.78549
G1 X68.111 Y73.903 E14.8115
G1 X68.773 Y73.489 E14.83746
G1 X69.405 Y73.027 E14.8635
G1 X70.003 Y72.525 E14.88947
G1 X70.565 Y71.982 E14.91546
G1 X71.087 Y71.399 E14.94149
G1 X71.568 Y70.783 E14.96748
G1 X72.005 Y70.134 E14.99351
G1 X72.394 Y69.458 E15.01945
G1 X72.737 Y68.753 E15.04552
G1 X73.029 Y68.029 E15.07149
G1 X73.269 Y67.285 E15.09749
G1 X73.458 Y66.526 E15.12351
G1 X73.592 Y65.757 E15.14947
G1 X73.673 Y64.979 E15.17549
G1 X73.7 Y64.197 E15.20151
G1 X73.672 Y63.417 E15.22747
G1 X73.589 Y62.639 E15.25349
G1 X73.453 Y61.869 E15.2795
G1 X73.262 Y61.111 E15.3055
G1 X73.02 Y60.367 E15.33152
G1 X72.727 Y59.643 E15.3575
G1 X72.383 Y58.941 E15.3835
G1 X71.992 Y58.265 E15.40947
G1 X71.553 Y57.617 E15.43551
G1 X71.071 Y57.002 E15.46149
G1 X70.548 Y56.421 E15.48749
G1 X69.984 Y55.879 E15.51351
G1 X69.385 Y55.377 E15.53951
G1 X68.752 Y54.918 E15.56551
G1 X68.089 Y54.505 E15.59149
G1 X67.399 Y54.139 E15.61747
G1 X66.684 Y53.821 E15.6435
G1 X65.949 Y53.556 E15.66948
G1 X65.197 Y53.341 E15.6955
G1 X64.433 Y53.178 E15.72148
G1 X63.658 Y53.071 E15.7475
G1 X62.878 Y53.017 E15.77351
G1 X62.096 Y53.018 E15.79952
G1 X61.317 Y53.074 E15.82549
G1 X60.543 Y53.182 E15.85148
G1 X59.778 Y53.346 E15.87751
G1 X59.027 Y53.563 E15.90351
G1 X58.293 Y53.831 E15.9295
G1 X57.579 Y54.15 E15.95551
G1 X56.889 Y54.518 E15.98152
G1 X56.227 Y54.932 E16.00749
G1 X55.595 Y55.393 E16.0335
G1 X54.997 Y55.896 E16.05949
G1 X54.435 Y56.439 E16.08549
G1 X53.913 Y57.022 E16.11151
G1 X53.432 Y57.637 E16.13748
G1 X52.995 Y58.286 E16.1635
G1 X52.606 Y58.963 E16.18947
G1 X52.263 Y59.667 E16.21552
G1 X51.971 Y60.392 E16.24152
G1 X51.731 Y61.135 E16.26749
G1 X51.542 Y61.894 E16.2935
G1 X51.408 Y62.663 E16.31946
G1 X51.327 Y63.442 E16.34551
G1 X51.3 Y64.223 E16.3715
G1 X51.328 Y65.004 E16.3975
G1 X51.411 Y65.781 E16.42349
G1 X51.547 Y66.551 E16.44949
G1 X51.738 Y67.309 E16.47549
G1 X51.98 Y68.054 E16.50155
G1 X52.273 Y68.777 E16.52749
G1 X52.617 Y69.48 E16.55352
G1 X53.008 Y70.155 E16.57947
G1 X53.447 Y70.804 E16.60553
G1 X53.929 Y71.419 E16.63152
G1 X54.452 Y72 E16.65752
G1 X55.016 Y72.542 E16.68354
G1 X55.615 Y73.043 E16.70951
G1 X56.248 Y73.503 E16.73553
G1 X56.911 Y73.916 E16.76151
G1 X57.602 Y74.282 E16.78752
G1 X58.316 Y74.599 E16.8135
G1 X59.051 Y74.865 E16.8395
G1 X59.803 Y75.08 E16.86552
G1 X60.567 Y75.242 E16.89149
G1 X61.342 Y75.35 E16.91752
G0 F1440 X61.541 Y75.363
G0 X61.507 Y75.861
G0 X59.697 Y75.506
G0 X58.447 Y75.102
G0 X52.917 Y72.716
