;FLAVOR:Marlin
;TIME:4006
;Filament used: 1.72562m
;Layer height: 0.16
;MINX:42.707
;MINY:38.2
;MINZ:0.2
;MAXX:82.293
;MAXY:86.8
;MAXZ:12.04
;Generated with Cura_SteamEngine 4.12.1
M82 ;absolute extrusion mode
M104 S208.0 ;Set Hotend Temperature
M140 S58.0 ;Set Bed Temperature
G28 ;home
G90 ;absolute positioning
G1 X-10 Y-10 F3000 ;Move to corner 
G1 Z0 F1800 ;Go to zero offset
M109 S208.0 ;Wait for Hotend Temperature
M190 S58.0 ;Wait for Bed Temperature
G92 E0 ;Zero set extruder position
G1 E20 F200 ;Feed filament to clear nozzle
G92 E0 ;Zero set extruder position
G92 E0
G92 E0
G1 F1500 E-6.5
;LAYER_COUNT:75
;LAYER:0
M107
;MESH:arm1 v3.stl
G0 F1440 X71.5 Y50.234 Z0.2
;TYPE:WALL-INNER
G1 F1500 E0
G1 F1080 X73.043 Y51.195 E0.06046
G1 X74.031 Y51.899 E0.10081
G1 X74.969 Y52.664 E0.14107
G1 X75.853 Y53.484 E0.18117
G1 X76.695 Y54.37 E0.22182
G1 X77.457 Y55.284 E0.2614
G1 X78.183 Y56.277 E0.30232
G1 X78.841 Y57.307 E0.34297
G1 X79.421 Y58.358 E0.38289
G1 X79.94 Y59.463 E0.4235
G1 X80.378 Y60.569 E0.46306
G1 X80.752 Y61.728 E0.50357
G1 X81.06 Y62.937 E0.54507
G1 X81.276 Y64.097 E0.58431
G1 X81.425 Y65.326 E0.62549
G1 X81.493 Y66.504 E0.66473
G1 X81.485 Y67.724 E0.70531
G1 X81.399 Y68.964 E0.74665
G1 X81.24 Y70.133 E0.78589
G1 X81 Y71.327 E0.8264
G1 X80.683 Y72.507 E0.86704
G1 X80.296 Y73.654 E0.9073
G1 X79.84 Y74.765 E0.94724
G1 X79.29 Y75.893 E0.98898
G1 X78.71 Y76.908 E1.02786
G1 X78.045 Y77.923 E1.06822
G1 X77.296 Y78.917 E1.10962
G1 X76.51 Y79.834 E1.14979
G1 X75.691 Y80.674 E1.18881
G1 X74.776 Y81.5 E1.22981
G1 X73.82 Y82.258 E1.27039
G1 X72.804 Y82.962 E1.3115
G1 X71.793 Y83.572 E1.35077
G1 X70.698 Y84.139 E1.39178
G1 X69.621 Y84.613 E1.43092
G1 X68.446 Y85.044 E1.47255
G1 X67.271 Y85.391 E1.5133
G1 X66.109 Y85.654 E1.55292
G1 X64.91 Y85.845 E1.59331
G1 X63.718 Y85.959 E1.63313
G1 X62.491 Y86 E1.67397
G1 X61.261 Y85.958 E1.7149
G1 X60.076 Y85.845 E1.75449
G1 X58.875 Y85.651 E1.79495
G1 X57.708 Y85.385 E1.83476
G1 X56.506 Y85.029 E1.87646
G1 X55.394 Y84.62 E1.91587
G1 X54.282 Y84.129 E1.9563
G1 X53.195 Y83.566 E1.99701
G1 X52.175 Y82.948 E2.03668
G1 X51.165 Y82.248 E2.07755
G1 X50.214 Y81.492 E2.11796
G1 X49.321 Y80.685 E2.15799
G1 X48.462 Y79.802 E2.19896
G1 X47.679 Y78.887 E2.23902
G1 X46.955 Y77.923 E2.27912
G1 X46.295 Y76.915 E2.31919
G1 X45.687 Y75.845 E2.36012
G1 X45.154 Y74.749 E2.40066
G1 X44.7 Y73.642 E2.44045
G1 X44.302 Y72.46 E2.48194
G1 X43.997 Y71.319 E2.52122
G1 X43.758 Y70.12 E2.56188
G1 X43.601 Y68.946 E2.60128
G1 X43.515 Y67.712 E2.64242
G1 X43.507 Y66.491 E2.68303
G1 X43.576 Y65.306 E2.72251
G1 X43.726 Y64.083 E2.76349
G1 X43.944 Y62.917 E2.80295
G1 X44.254 Y61.704 E2.84459
G1 X44.618 Y60.581 E2.88385
G1 X45.064 Y59.452 E2.92423
G1 X45.587 Y58.345 E2.96495
G1 X46.182 Y57.268 E3.00587
G1 X46.82 Y56.271 E3.04524
G1 X47.554 Y55.271 E3.0865
G1 X48.325 Y54.35 E3.12645
G1 X49.15 Y53.482 E3.16628
G1 X50.063 Y52.637 E3.20765
G1 X50.985 Y51.887 E3.24718
G1 X51.974 Y51.184 E3.28754
G1 X53.5 Y50.234 E3.34733
G1 X53.5 Y39 E3.72097
G1 X71.5 Y39 E4.31966
G1 X71.5 Y50.234 E4.6933
G0 F1440 X75.75 Y54.611
G0 X76.564 Y55.544
G0 X77.313 Y56.531
G0 X77.993 Y57.566
G0 X78.601 Y58.646
G0 X79.133 Y59.763
G0 X79.589 Y60.916
G0 X79.964 Y62.097
G0 X80.259 Y63.299
G0 X80.468 Y64.52
G0 X80.596 Y65.751
G0 X80.64 Y66.989
G0 X80.597 Y68.226
G0 X80.472 Y69.458
G0 X80.263 Y70.68
G0 X79.969 Y71.883
G0 X79.596 Y73.064
G0 X79.142 Y74.216
G0 X78.61 Y75.335
G0 X78.004 Y76.416
G0 X77.326 Y77.452
G0 X76.578 Y78.439
G0 X75.765 Y79.373
G0 X74.889 Y80.25
G0 X73.956 Y81.064
G0 X72.969 Y81.813
G0 X71.934 Y82.493
G0 X70.854 Y83.101
G0 X69.737 Y83.633
G0 X68.584 Y84.089
G0 X67.403 Y84.464
G0 X66.201 Y84.759
G0 X61.249 Y85.457
G1 F1080 X62.511 Y85.5 E4.7353
G1 X63.775 Y85.456 E4.77736
G1 X65.03 Y85.325 E4.81933
G1 X66.275 Y85.112 E4.86134
G1 X67.501 Y84.811 E4.90333
G1 X68.705 Y84.429 E4.94534
G1 X69.882 Y83.964 E4.98744
G1 X71.02 Y83.421 E5.02937
G1 X72.122 Y82.801 E5.07143
G1 X73.177 Y82.108 E5.11341
G1 X74.184 Y81.343 E5.15547
G1 X75.135 Y80.513 E5.19746
G1 X76.029 Y79.619 E5.23951
G1 X76.858 Y78.666 E5.28152
G1 X77.621 Y77.66 E5.32351
G1 X78.312 Y76.604 E5.36549
G1 X78.93 Y75.501 E5.40754
G1 X79.473 Y74.36 E5.44957
G1 X79.936 Y73.185 E5.49157
G1 X80.316 Y71.981 E5.53356
G1 X80.616 Y70.753 E5.57561
G1 X80.83 Y69.507 E5.61766
G1 X80.957 Y68.251 E5.65965
G1 X81 Y66.989 E5.70164
G1 X80.956 Y65.725 E5.74371
G1 X80.825 Y64.47 E5.78568
G1 X80.612 Y63.225 E5.82769
G1 X80.311 Y61.999 E5.86968
G1 X79.929 Y60.795 E5.91169
G1 X79.464 Y59.618 E5.95378
G1 X78.921 Y58.48 E5.99572
G1 X78.301 Y57.378 E6.03777
G1 X77.608 Y56.323 E6.07976
G1 X76.843 Y55.316 E6.12182
G1 X76.013 Y54.365 E6.1638
G1 X75.119 Y53.471 E6.20585
G1 X74.166 Y52.642 E6.24786
G1 X73.16 Y51.879 E6.28986
G1 X72.104 Y51.188 E6.33183
G1 X71.001 Y50.57 E6.37388
G1 X69.86 Y50.027 E6.41591
G1 X68.685 Y49.564 E6.45792
G1 X67.481 Y49.184 E6.49991
G1 X66.253 Y48.884 E6.54195
G1 X65.007 Y48.67 E6.584
G1 X63.751 Y48.543 E6.62599
G1 X62.489 Y48.5 E6.66799
G1 X61.225 Y48.544 E6.71006
G1 X59.97 Y48.675 E6.75202
G1 X58.725 Y48.888 E6.79404
G1 X57.499 Y49.189 E6.83602
G1 X56.295 Y49.571 E6.87804
G1 X55.118 Y50.036 E6.92013
G1 X53.98 Y50.579 E6.96206
G1 X52.878 Y51.199 E7.00412
G1 X51.823 Y51.892 E7.0461
G1 X50.816 Y52.657 E7.08816
G1 X49.865 Y53.487 E7.13015
G1 X48.971 Y54.381 E7.1722
G1 X48.142 Y55.334 E7.21421
G1 X47.379 Y56.34 E7.2562
G1 X46.688 Y57.396 E7.29818
G1 X46.07 Y58.499 E7.34023
G1 X45.527 Y59.64 E7.38226
G1 X45.064 Y60.815 E7.42426
G1 X44.684 Y62.019 E7.46626
G1 X44.384 Y63.247 E7.5083
G1 X44.17 Y64.493 E7.55035
G1 X44.043 Y65.749 E7.59234
G1 X44 Y67.011 E7.63434
G1 X44.044 Y68.275 E7.6764
G1 X44.175 Y69.53 E7.71837
G1 X44.388 Y70.775 E7.76038
G1 X44.689 Y72.001 E7.80237
G1 X45.071 Y73.205 E7.84438
G1 X45.536 Y74.382 E7.88647
G1 X46.079 Y75.52 E7.92841
G1 X46.699 Y76.622 E7.97047
G1 X47.392 Y77.677 E8.01245
G1 X48.157 Y78.684 E8.05451
G1 X48.987 Y79.635 E8.09649
G1 X49.881 Y80.529 E8.13854
G1 X50.834 Y81.358 E8.18056
G1 X51.84 Y82.121 E8.22255
G1 X52.896 Y82.812 E8.26452
G1 X53.999 Y83.43 E8.30658
G1 X55.14 Y83.973 E8.3486
G1 X56.315 Y84.436 E8.39061
G1 X57.519 Y84.816 E8.4326
G1 X58.747 Y85.116 E8.47465
G1 X59.993 Y85.33 E8.5167
G1 X61.249 Y85.457 E8.55868
G0 F1440 X61.276 Y85.058
G1 F1080 X62.511 Y85.1 E8.59978
G1 X63.747 Y85.057 E8.64092
G1 X64.975 Y84.929 E8.68198
G1 X66.193 Y84.72 E8.72309
G1 X67.393 Y84.426 E8.76418
G1 X68.571 Y84.052 E8.80529
G1 X69.722 Y83.597 E8.84645
G1 X70.836 Y83.066 E8.8875
G1 X71.914 Y82.459 E8.92864
G1 X72.946 Y81.781 E8.96971
G1 X73.931 Y81.033 E9.01085
G1 X74.862 Y80.221 E9.05194
G1 X75.736 Y79.346 E9.09307
G1 X76.547 Y78.414 E9.13416
G1 X77.294 Y77.429 E9.17528
G1 X77.97 Y76.396 E9.21634
G1 X78.575 Y75.317 E9.25748
G1 X79.106 Y74.201 E9.29859
G1 X79.559 Y73.051 E9.3397
G1 X79.931 Y71.873 E9.38079
G1 X80.224 Y70.672 E9.42191
G1 X80.433 Y69.453 E9.46304
G1 X80.558 Y68.224 E9.50413
G1 X80.6 Y66.989 E9.54523
G1 X80.557 Y65.753 E9.58636
G1 X80.429 Y64.525 E9.62743
G1 X80.22 Y63.307 E9.66853
G1 X79.926 Y62.107 E9.70962
G1 X79.552 Y60.929 E9.75073
G1 X79.097 Y59.778 E9.7919
G1 X78.566 Y58.664 E9.83294
G1 X77.959 Y57.586 E9.87409
G1 X77.281 Y56.554 E9.91516
G1 X76.533 Y55.569 E9.9563
G1 X75.721 Y54.638 E9.99738
G1 X74.846 Y53.764 E10.03852
G1 X73.914 Y52.953 E10.07961
G1 X72.929 Y52.206 E10.12073
G1 X71.896 Y51.53 E10.16179
G1 X70.817 Y50.925 E10.20293
G1 X69.701 Y50.394 E10.24404
G1 X68.551 Y49.941 E10.28515
G1 X67.373 Y49.569 E10.32623
G1 X66.172 Y49.276 E10.36735
G1 X64.953 Y49.067 E10.40849
G1 X63.724 Y48.942 E10.44957
G1 X62.489 Y48.9 E10.49067
G1 X61.253 Y48.943 E10.53181
G1 X60.025 Y49.071 E10.57287
G1 X58.807 Y49.28 E10.61398
G1 X57.607 Y49.574 E10.65507
G1 X56.429 Y49.948 E10.69618
G1 X55.278 Y50.403 E10.73734
G1 X54.164 Y50.934 E10.77839
G1 X53.086 Y51.541 E10.81953
G1 X52.054 Y52.219 E10.8606
G1 X51.069 Y52.967 E10.90174
G1 X50.138 Y53.779 E10.94283
G1 X49.264 Y54.654 E10.98396
G1 X48.453 Y55.586 E11.02505
G1 X47.706 Y56.571 E11.06617
G1 X47.03 Y57.604 E11.10723
G1 X46.425 Y58.683 E11.14838
G1 X45.894 Y59.799 E11.18948
G1 X45.441 Y60.949 E11.23059
G1 X45.069 Y62.127 E11.27168
G1 X44.776 Y63.328 E11.3128
G1 X44.567 Y64.547 E11.35393
G1 X44.442 Y65.776 E11.39502
G1 X44.4 Y67.011 E11.43612
G1 X44.443 Y68.247 E11.47725
G1 X44.571 Y69.475 E11.51832
G1 X44.78 Y70.693 E11.55942
G1 X45.074 Y71.893 E11.60051
G1 X45.448 Y73.071 E11.64162
G1 X45.903 Y74.222 E11.68279
G1 X46.434 Y75.336 E11.72383
G1 X47.041 Y76.414 E11.76498
G1 X47.719 Y77.446 E11.80605
G1 X48.467 Y78.431 E11.84719
G1 X49.279 Y79.362 E11.88827
G1 X50.154 Y80.236 E11.92941
G1 X51.086 Y81.047 E11.9705
G1 X52.071 Y81.794 E12.01162
G1 X53.104 Y82.47 E12.05268
G1 X54.183 Y83.075 E12.09382
G1 X55.299 Y83.606 E12.13493
G1 X56.449 Y84.059 E12.17604
G1 X57.627 Y84.431 E12.21712
G1 X58.828 Y84.724 E12.25824
G1 X60.047 Y84.933 E12.29938
G1 X61.276 Y85.058 E12.34046
G0 F1440 X61.27 Y85.157
G0 X63.749 Y85.096
G0 X64.98 Y84.968
G0 X66.201 Y84.759
G0 X67.403 Y84.464
G0 X68.584 Y84.089
G0 X69.737 Y83.633
G0 X70.854 Y83.101
G0 X71.934 Y82.493
G0 X72.969 Y81.813
G0 X73.956 Y81.064
G0 X74.889 Y80.25
G0 X75.765 Y79.373
G0 X76.578 Y78.439
G0 X77.326 Y77.452
G0 X78.004 Y76.416
G0 X78.61 Y75.335
G0 X79.142 Y74.216
G0 X79.596 Y73.064
G0 X79.969 Y71.883
G0 X80.263 Y70.68
G0 X80.472 Y69.458
G0 X80.597 Y68.226
G0 X80.64 Y66.989
G0 X80.596 Y65.751
G0 X80.468 Y64.52
G0 X80.259 Y63.299
G0 X79.964 Y62.097
G0 X79.589 Y60.916
G0 X79.133 Y59.763
G0 X78.601 Y58.646
G0 X77.993 Y57.566
G0 X77.313 Y56.531
G0 X76.889 Y55.972
G0 X71.813 Y50.06
G0 X71.9 Y50.012
G1 F1080 X73.265 Y50.862 E12.39395
G1 X74.274 Y51.581 E12.43515
G1 X75.228 Y52.359 E12.4761
G1 X76.143 Y53.208 E12.51761
G1 X76.985 Y54.094 E12.55827
G1 X77.776 Y55.042 E12.59933
G1 X78.512 Y56.049 E12.64082
G1 X79.184 Y57.102 E12.68236
G1 X79.779 Y58.179 E12.72329
G1 X80.308 Y59.305 E12.76467
G1 X80.759 Y60.446 E12.80547
G1 X81.137 Y61.618 E12.84643
G1 X81.448 Y62.838 E12.88831
G1 X81.672 Y64.039 E12.92894
G1 X81.823 Y65.287 E12.97075
G1 X81.893 Y66.507 E13.0114
G1 X81.885 Y67.742 E13.05247
G1 X81.797 Y69 E13.09442
G1 X81.634 Y70.203 E13.13479
G1 X81.39 Y71.417 E13.17598
G1 X81.065 Y72.627 E13.21765
G1 X80.671 Y73.794 E13.25862
G1 X80.203 Y74.934 E13.29961
G1 X79.649 Y76.07 E13.34164
G1 X79.045 Y77.127 E13.38213
G1 X78.369 Y78.158 E13.42314
G1 X77.614 Y79.161 E13.46489
G1 X76.81 Y80.098 E13.50596
G1 X75.959 Y80.971 E13.54651
G1 X75.035 Y81.805 E13.58791
G1 X74.054 Y82.583 E13.62955
G1 X73.028 Y83.293 E13.67105
G1 X71.987 Y83.922 E13.7115
G1 X70.871 Y84.5 E13.7533
G1 X69.759 Y84.989 E13.79371
G1 X68.575 Y85.423 E13.83565
G1 X67.379 Y85.776 E13.87713
G1 X66.182 Y86.047 E13.91795
G1 X64.963 Y86.242 E13.959
G1 X63.737 Y86.359 E13.99997
G1 X62.491 Y86.4 E14.04143
G1 X61.242 Y86.358 E14.083
G1 X60.02 Y86.241 E14.12383
G1 X58.8 Y86.044 E14.16493
G1 X57.598 Y85.77 E14.20593
G1 X56.392 Y85.413 E14.24777
G1 X55.24 Y84.989 E14.28859
G1 X54.109 Y84.49 E14.32971
G1 X53 Y83.915 E14.37126
G1 X51.95 Y83.279 E14.41209
G1 X50.93 Y82.572 E14.45337
G1 X49.955 Y81.797 E14.49479
G1 X49.041 Y80.971 E14.53577
G1 X48.169 Y80.075 E14.57735
G1 X47.367 Y79.138 E14.61837
G1 X46.625 Y78.15 E14.65947
G1 X45.952 Y77.122 E14.70034
G1 X45.333 Y76.033 E14.742
G1 X44.79 Y74.917 E14.78328
G1 X44.327 Y73.787 E14.82389
G1 X43.923 Y72.588 E14.86598
G1 X43.607 Y71.407 E14.90664
G1 X43.364 Y70.188 E14.94798
G1 X43.203 Y68.982 E14.98845
G1 X43.115 Y67.727 E15.03029
G1 X43.107 Y66.491 E15.0714
G1 X43.178 Y65.265 E15.11225
G1 X43.329 Y64.034 E15.1535
G1 X43.556 Y62.818 E15.19464
G1 X43.866 Y61.605 E15.23628
G1 X44.246 Y60.434 E15.27723
G1 X44.699 Y59.288 E15.31821
G1 X45.229 Y58.165 E15.35952
G1 X45.839 Y57.062 E15.40144
G1 X46.493 Y56.04 E15.44179
G1 X47.236 Y55.027 E15.48358
G1 X48.025 Y54.085 E15.52445
G1 X48.871 Y53.195 E15.56529
G1 X49.796 Y52.339 E15.60721
G1 X50.742 Y51.569 E15.64778
G1 X51.752 Y50.851 E15.68899
G1 X53.1 Y50.012 E15.7418
G1 X53.1 Y38.6 E16.12137
G1 X71.9 Y38.6 E16.74666
G1 X71.9 Y50.012 E17.12622
G0 F1440 X72.3 Y49.79
;TYPE:WALL-OUTER
G1 F1080 X73.487 Y50.529 E17.17273
G1 X74.517 Y51.263 E17.21479
G1 X75.487 Y52.054 E17.25642
G1 X76.423 Y52.922 E17.29888
G1 X77.284 Y53.829 E17.34048
G1 X78.094 Y54.799 E17.38251
G1 X78.84 Y55.82 E17.42456
G1 X79.527 Y56.897 E17.46705
G1 X80.138 Y58.003 E17.50908
G1 X80.676 Y59.147 E17.55113
G1 X81.14 Y60.323 E17.59317
G1 X81.524 Y61.514 E17.6348
G1 X81.836 Y62.739 E17.67684
G1 X82.068 Y63.981 E17.71886
G1 X82.221 Y65.248 E17.76131
G1 X82.293 Y66.51 E17.80335
G1 X82.285 Y67.762 E17.845
G1 X82.195 Y69.036 E17.88747
G1 X82.027 Y70.276 E17.92909
G1 X81.778 Y71.515 E17.97113
G1 X81.447 Y72.747 E18.01356
G1 X81.046 Y73.934 E18.05523
G1 X80.566 Y75.102 E18.09723
G1 X80.008 Y76.247 E18.13959
G1 X79.38 Y77.346 E18.18169
G1 X78.693 Y78.394 E18.22337
G1 X77.932 Y79.405 E18.26546
G1 X77.11 Y80.363 E18.30744
G1 X76.227 Y81.268 E18.3495
G1 X75.286 Y82.117 E18.39165
G1 X74.289 Y82.907 E18.43396
G1 X73.252 Y83.625 E18.47591
G1 X72.177 Y84.274 E18.51768
G1 X71.044 Y84.861 E18.56012
G1 X69.897 Y85.365 E18.60179
G1 X68.704 Y85.802 E18.64404
G1 X67.487 Y86.161 E18.68625
G1 X66.255 Y86.44 E18.72826
G1 X65.017 Y86.639 E18.76997
G1 X63.756 Y86.759 E18.8121
G1 X62.491 Y86.8 E18.85419
G1 X61.223 Y86.758 E18.89639
G1 X59.964 Y86.637 E18.93846
G1 X58.725 Y86.437 E18.9802
G1 X57.493 Y86.156 E19.02223
G1 X56.276 Y85.796 E19.06444
G1 X55.088 Y85.359 E19.10654
G1 X53.936 Y84.851 E19.14842
G1 X52.805 Y84.264 E19.1908
G1 X51.725 Y83.61 E19.23279
G1 X50.695 Y82.896 E19.27448
G1 X49.695 Y82.102 E19.31695
G1 X48.767 Y81.263 E19.35856
G1 X47.876 Y80.348 E19.40103
G1 X47.055 Y79.389 E19.44302
G1 X46.295 Y78.377 E19.48512
G1 X45.609 Y77.329 E19.52678
G1 X44.979 Y76.221 E19.56917
G1 X44.426 Y75.084 E19.61122
G1 X43.952 Y73.926 E19.65284
G1 X43.544 Y72.716 E19.69531
G1 X43.217 Y71.495 E19.73735
G1 X42.97 Y70.256 E19.77937
G1 X42.804 Y69.016 E19.82098
G1 X42.715 Y67.742 E19.86346
G1 X42.707 Y66.491 E19.90507
G1 X42.781 Y65.216 E19.94755
G1 X42.933 Y63.974 E19.98916
G1 X43.168 Y62.719 E20.03163
G1 X43.481 Y61.495 E20.07365
G1 X43.867 Y60.304 E20.11529
G1 X44.337 Y59.117 E20.15775
G1 X44.871 Y57.985 E20.19938
G1 X45.489 Y56.868 E20.24184
G1 X46.17 Y55.803 E20.28389
G1 X46.918 Y54.783 E20.32596
G1 X47.721 Y53.824 E20.36756
G1 X48.592 Y52.908 E20.4096
G1 X49.529 Y52.041 E20.45206
G1 X50.499 Y51.251 E20.49367
G1 X51.53 Y50.518 E20.53574
G1 X52.7 Y49.79 E20.58157
G1 X52.7 Y38.2 E20.96706
G1 X72.3 Y38.2 E21.61896
G1 X72.3 Y49.79 E22.00444
G0 F1440 X72.469 Y49.895
G0 X72.205 Y50.318
G0 X76.564 Y55.544
G0 X77.313 Y56.531
G0 X77.993 Y57.566
G0 X78.601 Y58.646
G0 X79.133 Y59.763
G0 X79.589 Y60.916
G0 X79.964 Y62.097
G0 X80.259 Y63.299
G0 X80.468 Y64.52
G0 X80.596 Y65.751
G0 X80.64 Y66.989
G0 X80.597 Y68.226
G0 X80.472 Y69.458
G0 X80.263 Y70.68
G0 X79.969 Y71.883
G0 X79.596 Y73.064
G0 X79.142 Y74.216
G0 X78.61 Y75.335
G0 X78.004 Y76.416
G0 X77.326 Y77.452
G0 X76.578 Y78.439
G0 X75.765 Y79.373
G0 X74.889 Y80.25
G0 X73.956 Y81.064
G0 X72.969 Y81.813
G0 X71.934 Y82.493
G0 X70.854 Y83.101
G0 X69.737 Y83.633
G0 X68.584 Y84.089
G0 X67.403 Y84.464
G0 X66.201 Y84.759
G0 X64.98 Y84.968
G0 X64.283 Y85.04
G0 X61.252 Y85.155
G0 X61.303 Y84.659
G1 F1080 X62.511 Y84.7 E22.04464
G1 X63.719 Y84.658 E22.08485
G1 X64.92 Y84.533 E22.12501
G1 X66.111 Y84.328 E22.1652
G1 X67.285 Y84.041 E22.2054
G1 X68.437 Y83.675 E22.2456
G1 X69.562 Y83.23 E22.28584
G1 X70.652 Y82.711 E22.32599
G1 X71.706 Y82.117 E22.36623
G1 X72.715 Y81.454 E22.40639
G1 X73.678 Y80.723 E22.4466
G1 X74.589 Y79.929 E22.4868
G1 X75.443 Y79.073 E22.52701
G1 X76.236 Y78.162 E22.56718
G1 X76.967 Y77.198 E22.60742
G1 X77.628 Y76.188 E22.64757
G1 X78.22 Y75.133 E22.68781
G1 X78.739 Y74.042 E22.72799
G1 X79.182 Y72.917 E22.7682
G1 X79.546 Y71.765 E22.80839
G1 X79.832 Y70.591 E22.84858
G1 X80.036 Y69.399 E22.8888
G1 X80.159 Y68.197 E22.92899
G1 X80.2 Y66.989 E22.96919
G1 X80.158 Y65.781 E23.00939
G1 X80.033 Y64.58 E23.04955
G1 X79.828 Y63.389 E23.08975
G1 X79.541 Y62.215 E23.12994
G1 X79.175 Y61.063 E23.17015
G1 X78.73 Y59.938 E23.21039
