;FLAVOR:Marlin
;TIME:918
;Filament used: 0.420515m
;Layer height: 0.16
;MINX:51.638
;MINY:58.233
;MINZ:0.2
;MAXX:73.368
;MAXY:66.767
;MAXZ:18.92
;Generated with Cura_SteamEngine 4.12.1
M82 ;absolute extrusion mode
M104 S208.0 ;Set Hotend Temperature
M140 S58.0 ;Set Bed Temperature
G28 ;home
G90 ;absolute positioning
G1 X-10 Y-10 F3000 ;Move to corner 
G1 Z0 F1800 ;Go to zero offset
M109 S208.0 ;Wait for Hotend Temperature
M190 S58.0 ;Wait for Bed Temperature
G92 E0 ;Zero set extruder position
G1 E20 F200 ;Feed filament to clear nozzle
G92 E0 ;Zero set extruder position
G92 E0
G92 E0
G1 F1500 E-6.5
;LAYER_COUNT:118
;LAYER:0
M107
;MESH:holder-under.stl
G0 F1440 X70.962 Y62.164 Z0.2
;TYPE:WALL-INNER
G1 F1500 E0
G1 F1080 X70.745 Y62.506 E0.01347
G1 X70.67 Y62.902 E0.02688
G1 X70.66 Y63.186 E0.03633
G1 X70.66 Y66.367 E0.14213
G1 X52.038 Y66.367 E0.7615
G1 X52.039 Y58.633 E1.01873
G1 X72.968 Y58.633 E1.71483
G1 X72.968 Y61.931 E1.82453
G1 X71.889 Y61.932 E1.86041
G1 X71.34 Y61.975 E1.87873
G1 X70.962 Y62.164 E1.89279
G0 F1440 X71.24 Y62.472
;TYPE:WALL-OUTER
G1 F1080 X71.124 Y62.655 E1.89999
G1 X71.069 Y62.947 E1.90988
G1 X71.06 Y63.193 E1.91806
G1 X71.06 Y66.767 E2.03693
G1 X51.638 Y66.767 E2.68291
G1 X51.639 Y58.233 E2.96675
G1 X73.368 Y58.233 E3.68946
G1 X73.368 Y62.33 E3.82573
G1 X71.905 Y62.332 E3.87439
G1 X71.449 Y62.368 E3.8896
G1 X71.24 Y62.472 E3.89737
G0 F1440 X71.133 Y62.641
G0 X70.712 Y62.373
G0 X72.787 Y59.211
;TYPE:SKIN
G1 F1080 X72.389 Y58.812 E3.91611
G0 F1440 X71.823 Y58.812
G1 F1080 X72.787 Y59.776 E3.96146
G0 F1440 X72.787 Y60.342
G1 F1080 X71.257 Y58.812 E4.03342
G0 F1440 X70.692 Y58.812
G1 F1080 X72.787 Y60.908 E4.13199
G0 F1440 X72.787 Y61.473
G1 F1080 X70.126 Y58.812 E4.25715
G0 F1440 X69.56 Y58.812
G1 F1080 X72.498 Y61.75 E4.39535
G0 F1440 X71.933 Y61.751
G1 F1080 X68.995 Y58.812 E4.53357
G0 F1440 X68.429 Y58.812
G1 F1080 X71.406 Y61.789 E4.6736
G0 F1440 X70.995 Y61.944
G1 F1080 X67.863 Y58.812 E4.82092
G0 F1440 X67.298 Y58.812
G1 F1080 X70.709 Y62.224 E4.98138
G0 F1440 X70.54 Y62.62
G1 F1080 X66.732 Y58.812 E5.1605
G0 F1440 X66.166 Y58.812
G1 F1080 X70.481 Y63.127 E5.36346
G0 F1440 X70.479 Y63.691
G1 F1080 X65.601 Y58.812 E5.59293
G0 F1440 X65.035 Y58.812
G1 F1080 X70.479 Y64.256 E5.849
G0 F1440 X70.478 Y64.821
G1 F1080 X64.469 Y58.812 E6.13165
G0 F1440 X63.904 Y58.812
G1 F1080 X70.478 Y65.387 E6.44089
G0 F1440 X70.478 Y65.953
G1 F1080 X63.338 Y58.812 E6.77676
G0 F1440 X62.772 Y58.812
G1 F1080 X70.146 Y66.186 E7.12361
G0 F1440 X69.58 Y66.186
G1 F1080 X62.207 Y58.812 E7.47044
G0 F1440 X61.641 Y58.812
G1 F1080 X69.015 Y66.186 E7.81729
G0 F1440 X68.449 Y66.186
G1 F1080 X61.075 Y58.812 E8.16414
G0 F1440 X60.509 Y58.812
G1 F1080 X67.883 Y66.186 E8.51099
G0 F1440 X67.317 Y66.186
G1 F1080 X59.944 Y58.812 E8.85781
G0 F1440 X59.378 Y58.812
G1 F1080 X66.752 Y66.186 E9.20466
G0 F1440 X66.186 Y66.186
G1 F1080 X58.812 Y58.812 E9.55151
G0 F1440 X58.247 Y58.812
G1 F1080 X65.62 Y66.186 E9.89834
G0 F1440 X65.055 Y66.186
G1 F1080 X57.681 Y58.812 E10.24519
G0 F1440 X57.115 Y58.812
G1 F1080 X64.489 Y66.186 E10.59204
G0 F1440 X63.923 Y66.186
G1 F1080 X56.55 Y58.812 E10.93887
G0 F1440 X55.984 Y58.812
G1 F1080 X63.358 Y66.186 E11.28572
G0 F1440 X62.792 Y66.186
G1 F1080 X55.418 Y58.812 E11.63257
G0 F1440 X54.853 Y58.812
G1 F1080 X62.226 Y66.186 E11.9794
G0 F1440 X61.661 Y66.186
G1 F1080 X54.287 Y58.812 E12.32625
G0 F1440 X53.721 Y58.812
G1 F1080 X61.094 Y66.185 E12.67305
G0 F1440 X60.529 Y66.185
G1 F1080 X53.156 Y58.812 E13.01985
G0 F1440 X52.59 Y58.812
G1 F1080 X59.963 Y66.185 E13.36666
G0 F1440 X59.397 Y66.185
G1 F1080 X52.218 Y59.006 E13.70433
G0 F1440 X52.218 Y59.572
G1 F1080 X58.831 Y66.185 E14.01539
G0 F1440 X58.266 Y66.185
G1 F1080 X52.218 Y60.138 E14.29985
G0 F1440 X52.218 Y60.703
G1 F1080 X57.7 Y66.185 E14.5577
G0 F1440 X57.134 Y66.185
G1 F1080 X52.218 Y61.269 E14.78894
G0 F1440 X52.218 Y61.835
G1 F1080 X56.569 Y66.185 E14.99357
G0 F1440 X56.003 Y66.185
G1 F1080 X52.218 Y62.4 E15.1716
G0 F1440 X52.217 Y62.965
G1 F1080 X55.437 Y66.185 E15.32306
G0 F1440 X54.872 Y66.185
G1 F1080 X52.217 Y63.531 E15.44792
G0 F1440 X52.217 Y64.097
G1 F1080 X54.306 Y66.185 E15.54616
G0 F1440 X53.74 Y66.185
G1 F1080 X52.217 Y64.662 E15.6178
G0 F1440 X52.217 Y65.228
G1 F1080 X53.175 Y66.185 E15.66283
G0 F1440 X52.609 Y66.185
G1 F1080 X52.217 Y65.794 E15.68125
M104 S208
G0 F1440 X52.438 Y65.794
;MESH:NONMESH
G0 F600 X52.438 Y65.794 Z0.36
G0 F1440 X70.955 Y61.962
;TIME_ELAPSED:33.832052
;LAYER:1
M106 S255
;TYPE:WALL-INNER
;MESH:holder-under.stl
G1 F1140 X70.742 Y62.309 E15.69208
G1 X70.663 Y62.858 E15.70684
G1 X70.659 Y63.186 E15.71557
G1 X70.66 Y66.367 E15.80021
G1 X52.05 Y66.367 E16.29539
G1 X52.051 Y58.633 E16.50117
G1 X72.968 Y58.633 E17.05774
G1 X72.968 Y61.721 E17.1399
G1 X71.811 Y61.723 E17.17069
G1 X71.333 Y61.769 E17.18346
G1 X70.955 Y61.962 E17.19476
G0 F2220 X71.237 Y62.267
;TYPE:WALL-OUTER
G1 F990 X71.126 Y62.448 E17.20041
G1 X71.063 Y62.889 E17.21226
G1 X71.059 Y63.189 E17.22024
G1 X71.06 Y66.767 E17.31545
G1 X51.65 Y66.767 E17.83191
G1 X51.651 Y58.233 E18.05898
G1 X73.368 Y58.233 E18.63683
G1 X73.368 Y62.12 E18.74026
G1 X71.831 Y62.123 E18.78116
G1 X71.447 Y62.16 E18.79142
G1 X71.237 Y62.267 E18.79769
G0 F2220 X71.133 Y62.437
G0 X70.707 Y62.175
G0 X70.478 Y65.851
;TYPE:SKIN
G1 F1290 X70.142 Y66.187 E18.81034
G0 F2220 X69.577 Y66.187
G1 F1290 X70.478 Y65.285 E18.84426
G0 F2220 X70.478 Y64.72
G1 F1290 X69.011 Y66.187 E18.89946
G0 F2220 X68.445 Y66.187
G1 F1290 X70.478 Y64.155 E18.97594
G0 F2220 X70.478 Y63.589
G1 F1290 X67.88 Y66.187 E19.0737
G0 F2220 X67.314 Y66.187
G1 F1290 X70.479 Y63.022 E19.1928
G0 F2220 X70.548 Y62.387
G1 F1290 X66.748 Y66.187 E19.33579
G0 F2220 X66.183 Y66.187
G1 F1290 X72.786 Y59.583 E19.58428
G0 F2220 X72.786 Y59.017
G1 F1290 X65.617 Y66.187 E19.85407
G0 F2220 X65.051 Y66.187
G1 F1290 X72.426 Y58.812 E20.13158
G0 F2220 X71.861 Y58.812
G1 F1290 X64.486 Y66.187 E20.4091
G0 F2220 X63.92 Y66.187
G1 F1290 X71.295 Y58.812 E20.68662
G0 F2220 X70.729 Y58.812
G1 F1290 X63.354 Y66.187 E20.96414
G0 F2220 X62.788 Y66.187
G1 F1290 X70.164 Y58.812 E21.24167
G0 F2220 X69.598 Y58.812
G1 F1290 X62.223 Y66.187 E21.51919
G0 F2220 X61.657 Y66.187
G1 F1290 X69.032 Y58.812 E21.79671
G0 F2220 X68.467 Y58.812
G1 F1290 X61.091 Y66.187 E22.07425
G0 F2220 X60.526 Y66.187
G1 F1290 X67.901 Y58.812 E22.35176
G0 F2220 X67.335 Y58.812
G1 F1290 X59.96 Y66.187 E22.62928
G0 F2220 X59.394 Y66.187
G1 F1290 X66.769 Y58.812 E22.9068
G0 F2220 X66.204 Y58.812
G1 F1290 X58.829 Y66.187 E23.18432
G0 F2220 X58.263 Y66.187
G1 F1290 X65.638 Y58.812 E23.46184
G0 F2220 X65.072 Y58.812
G1 F1290 X57.697 Y66.187 E23.73935
G0 F2220 X57.132 Y66.187
G1 F1290 X64.507 Y58.812 E24.01687
G0 F2220 X63.941 Y58.812
G1 F1290 X56.566 Y66.187 E24.29439
G0 F2220 X56 Y66.187
G1 F1290 X63.375 Y58.812 E24.57191
G0 F2220 X62.81 Y58.812
G1 F1290 X55.435 Y66.187 E24.84943
G0 F2220 X54.869 Y66.187
G1 F1290 X62.244 Y58.812 E25.12694
G0 F2220 X61.678 Y58.812
G1 F1290 X54.303 Y66.187 E25.40446
G0 F2220 X53.737 Y66.187
G1 F1290 X61.113 Y58.812 E25.682
G0 F2220 X60.547 Y58.812
G1 F1290 X53.172 Y66.187 E25.95952
G0 F2220 X52.606 Y66.187
G1 F1290 X59.981 Y58.812 E26.23703
G0 F2220 X59.416 Y58.812
G1 F1290 X52.23 Y65.997 E26.50742
G0 F2220 X52.23 Y65.432
G1 F1290 X58.85 Y58.812 E26.75653
G0 F2220 X58.284 Y58.812
G1 F1290 X52.23 Y64.866 E26.98434
G0 F2220 X52.23 Y64.3
G1 F1290 X57.719 Y58.812 E27.19087
G0 F2220 X57.153 Y58.812
G1 F1290 X52.23 Y63.735 E27.37612
G0 F2220 X52.23 Y63.169
G1 F1290 X56.587 Y58.812 E27.54007
G0 F2220 X56.021 Y58.812
G1 F1290 X52.23 Y62.603 E27.68272
G0 F2220 X52.23 Y62.038
G1 F1290 X55.456 Y58.812 E27.80412
G0 F2220 X54.89 Y58.812
G1 F1290 X52.23 Y61.472 E27.90421
G0 F2220 X52.23 Y60.906
G1 F1290 X54.324 Y58.812 E27.98301
G0 F2220 X53.759 Y58.812
G1 F1290 X52.23 Y60.34 E28.04052
G0 F2220 X52.23 Y59.775
G1 F1290 X53.193 Y58.812 E28.07676
G0 F2220 X52.627 Y58.812
G1 F1290 X52.23 Y59.209 E28.0917
G0 F2220 X71.348 Y61.587
G1 F1290 X72.786 Y60.149 E28.14581
G0 F2220 X72.786 Y60.715
G1 F1290 X71.958 Y61.543 E28.17697
G0 F2220 X72.525 Y61.541
G1 F1290 X72.786 Y61.28 E28.18679
G0 F2220 X72.568 Y61.28
;MESH:NONMESH
G0 F600 X72.568 Y61.28 Z0.52
G0 F2220 X70.926 Y61.799
;TIME_ELAPSED:59.133882
;LAYER:2
;TYPE:WALL-INNER
;MESH:holder-under.stl
G1 F1200 X70.704 Y62.264 E28.2005
G1 X70.66 Y62.84 E28.21587
G1 X70.66 Y66.367 E28.30972
G1 X52.06 Y66.367 E28.80463
G1 X52.061 Y58.633 E29.01042
G1 X72.968 Y58.633 E29.56671
G1 X72.968 Y61.532 E29.64385
G1 X71.886 Y61.533 E29.67264
G1 X71.327 Y61.582 E29.68757
G1 X70.926 Y61.799 E29.6997
G0 F3000 X71.231 Y62.089
;TYPE:WALL-OUTER
G1 F900 X71.097 Y62.369 E29.70796
G1 X71.06 Y62.855 E29.72093
G1 X71.06 Y66.767 E29.82502
G1 X51.66 Y66.767 E30.34122
G1 X51.661 Y58.233 E30.56829
G1 X73.368 Y58.233 E31.14587
G1 X73.368 Y61.931 E31.24427
G1 X71.904 Y61.933 E31.28323
G1 X71.445 Y61.973 E31.29549
G1 X71.231 Y62.089 E31.30196
G0 F3000 X71.145 Y62.269
G0 X70.694 Y62.053
G0 X72.787 Y59.211
;TYPE:SKIN
G1 F1500 X72.389 Y58.812 E31.31696
G0 F3000 X71.823 Y58.812
G1 F1500 X72.787 Y59.776 E31.35323
G0 F3000 X72.787 Y60.342
G1 F1500 X71.257 Y58.812 E31.41081
G0 F3000 X70.692 Y58.812
G1 F1500 X72.787 Y60.908 E31.48966
G0 F3000 X72.665 Y61.352
G1 F1500 X70.126 Y58.812 E31.58522
G0 F3000 X69.56 Y58.812
G1 F1500 X72.1 Y61.352 E31.6808
G0 F3000 X71.562 Y61.38
G1 F1500 X68.995 Y58.812 E31.77741
G0 F3000 X68.429 Y58.812
G1 F1500 X71.11 Y61.493 E31.8783
G0 F3000 X70.766 Y61.715
G1 F1500 X67.863 Y58.812 E31.98753
G0 F3000 X67.298 Y58.812
G1 F1500 X70.583 Y62.098 E32.11117
G0 F3000 X70.499 Y62.579
G1 F1500 X66.732 Y58.812 E32.25292
G0 F3000 X66.166 Y58.812
G1 F1500 X70.479 Y63.125 E32.41521
G0 F3000 X70.479 Y63.691
G1 F1500 X65.601 Y58.812 E32.59879
G0 F3000 X65.035 Y58.812
G1 F1500 X70.479 Y64.256 E32.80364
G0 F3000 X70.479 Y64.822
G1 F1500 X64.469 Y58.812 E33.0298
G0 F3000 X63.904 Y58.812
G1 F1500 X70.479 Y65.388 E33.27723
G0 F3000 X70.479 Y65.953
G1 F1500 X63.338 Y58.812 E33.54594
G0 F3000 X62.772 Y58.812
G1 F1500 X70.146 Y66.186 E33.82342
G0 F3000 X69.58 Y66.186
G1 F1500 X62.207 Y58.812 E34.10089
G0 F3000 X61.641 Y58.812
G1 F1500 X69.015 Y66.186 E34.37837
G0 F3000 X68.449 Y66.186
G1 F1500 X61.075 Y58.812 E34.65585
G0 F3000 X60.509 Y58.812
G1 F1500 X67.883 Y66.186 E34.93333
G0 F3000 X67.317 Y66.186
G1 F1500 X59.944 Y58.812 E35.21079
G0 F3000 X59.378 Y58.812
G1 F1500 X66.752 Y66.186 E35.48827
G0 F3000 X66.186 Y66.186
G1 F1500 X58.812 Y58.812 E35.76575
G0 F3000 X58.247 Y58.812
G1 F1500 X65.62 Y66.186 E36.04321
G0 F3000 X65.055 Y66.186
G1 F1500 X57.681 Y58.812 E36.32069
G0 F3000 X57.115 Y58.812
G1 F1500 X64.489 Y66.186 E36.59817
G0 F3000 X63.923 Y66.186
G1 F1500 X56.55 Y58.812 E36.87563
G0 F3000 X55.984 Y58.812
G1 F1500 X63.358 Y66.186 E37.15311
G0 F3000 X62.792 Y66.186
G1 F1500 X55.418 Y58.812 E37.43059
G0 F3000 X54.853 Y58.812
G1 F1500 X62.226 Y66.186 E37.70805
G0 F3000 X61.661 Y66.186
G1 F1500 X54.287 Y58.812 E37.98553
G0 F3000 X53.721 Y58.812
G1 F1500 X61.095 Y66.186 E38.26301
G0 F3000 X60.529 Y66.186
G1 F1500 X53.156 Y58.812 E38.54048
G0 F3000 X52.59 Y58.812
G1 F1500 X59.964 Y66.186 E38.81796
G0 F3000 X59.398 Y66.186
G1 F1500 X52.24 Y59.028 E39.08731
G0 F3000 X52.24 Y59.594
G1 F1500 X58.832 Y66.186 E39.33536
G0 F3000 X58.267 Y66.186
G1 F1500 X52.24 Y60.159 E39.56216
G0 F3000 X52.24 Y60.725
G1 F1500 X57.701 Y66.186 E39.76765
G0 F3000 X57.135 Y66.186
G1 F1500 X52.24 Y61.291 E39.95185
G0 F3000 X52.24 Y61.856
G1 F1500 X56.569 Y66.186 E40.11476
G0 F3000 X56.004 Y66.186
G1 F1500 X52.24 Y62.422 E40.2564
G0 F3000 X52.239 Y62.987
G1 F1500 X55.438 Y66.186 E40.37678
G0 F3000 X54.872 Y66.186
G1 F1500 X52.239 Y63.553 E40.47586
G0 F3000 X52.239 Y64.119
G1 F1500 X54.307 Y66.186 E40.55366
G0 F3000 X53.741 Y66.186
G1 F1500 X52.239 Y64.684 E40.61018
G0 F3000 X52.239 Y65.25
G1 F1500 X53.175 Y66.186 E40.6454
G0 F3000 X52.61 Y66.186
G1 F1500 X52.239 Y65.816 E40.65934
G0 F3000 X52.46 Y65.816
;MESH:NONMESH
G0 F600 X52.46 Y65.816 Z0.68
G0 F3000 X70.933 Y61.589
;TIME_ELAPSED:82.299279
;LAYER:3
;TYPE:WALL-INNER
;MESH:holder-under.stl
G1 F1200 X70.738 Y61.943 E40.67009
G1 X70.667 Y62.44 E40.68345
G1 X70.66 Y62.681 E40.68987
G1 X70.66 Y66.367 E40.78794
G1 X52.07 Y66.367 E41.28259
G1 X52.071 Y58.633 E41.48838
G1 X72.968 Y58.633 E42.04441
G1 X72.968 Y61.318 E42.11585
G1 X71.887 Y61.319 E42.14461
G1 X71.321 Y61.369 E42.15973
G1 X70.933 Y61.589 E42.1716
G0 F3000 X71.229 Y61.881
;TYPE:WALL-OUTER
G1 F900 X71.124 Y62.072 E42.1774
G1 X71.066 Y62.474 E42.18821
G1 X71.06 Y62.687 E42.19388
G1 X71.06 Y66.767 E42.30244
G1 X51.67 Y66.767 E42.81837
G1 X51.671 Y58.233 E43.04544
G1 X54.138 Y58.233 E43.11108
G1 X73.368 Y58.233 E43.62276
G1 X73.368 Y61.717 E43.71546
G1 X71.905 Y61.719 E43.75439
G1 X71.443 Y61.76 E43.76673
G1 X71.229 Y61.881 E43.77327
G0 F3000 X71.133 Y62.057
G0 X70.695 Y61.815
G0 X70.478 Y65.852
;TYPE:SKIN
G1 F1500 X70.142 Y66.187 E43.78589
G0 F3000 X69.577 Y66.187
G1 F1500 X70.478 Y65.286 E43.8198
G0 F3000 X70.478 Y64.72
G1 F1500 X69.011 Y66.187 E43.875
G0 F3000 X68.445 Y66.187
G1 F1500 X70.478 Y64.154 E43.9515
G0 F3000 X70.478 Y63.588
G1 F1500 X67.88 Y66.187 E44.04928
G0 F3000 X67.314 Y66.187
G1 F1500 X70.478 Y63.023 E44.16834
G0 F3000 X70.485 Y62.45
G1 F1500 X66.748 Y66.187 E44.30896
G0 F3000 X66.183 Y66.187
G1 F1500 X70.661 Y61.708 E44.47749
G0 F3000 X71.061 Y61.308
G1 F1500 X72.786 Y59.583 E44.5424
G0 F3000 X72.786 Y59.017
G1 F1500 X65.617 Y66.187 E44.81218
G0 F3000 X65.051 Y66.187
G1 F1500 X72.426 Y58.812 E45.0897
G0 F3000 X71.86 Y58.812
G1 F1500 X64.486 Y66.187 E45.3672
G0 F3000 X63.92 Y66.187
G1 F1500 X71.294 Y58.812 E45.6447
G0 F3000 X70.729 Y58.812
G1 F1500 X63.354 Y66.187 E45.92222
G0 F3000 X62.788 Y66.187
G1 F1500 X70.163 Y58.812 E46.19974
G0 F3000 X69.597 Y58.812
G1 F1500 X62.223 Y66.187 E46.47724
G0 F3000 X61.657 Y66.187
G1 F1500 X69.032 Y58.812 E46.75475
G0 F3000 X68.466 Y58.812
G1 F1500 X61.092 Y66.186 E47.03223
G0 F3000 X60.526 Y66.186
G1 F1500 X67.9 Y58.812 E47.30971
G0 F3000 X67.334 Y58.812
G1 F1500 X59.961 Y66.186 E47.58718
G0 F3000 X59.395 Y66.186
G1 F1500 X66.769 Y58.812 E47.86466
G0 F3000 X66.203 Y58.812
G1 F1500 X58.829 Y66.186 E48.14214
G0 F3000 X58.264 Y66.186
G1 F1500 X65.637 Y58.812 E48.4196
G0 F3000 X65.072 Y58.812
G1 F1500 X57.698 Y66.186 E48.69708
G0 F3000 X57.132 Y66.186
G1 F1500 X64.506 Y58.812 E48.97456
G0 F3000 X63.94 Y58.812
G1 F1500 X56.567 Y66.186 E49.25202
G0 F3000 X56.001 Y66.186
G1 F1500 X63.375 Y58.812 E49.5295
G0 F3000 X62.809 Y58.812
G1 F1500 X55.435 Y66.186 E49.80698
G0 F3000 X54.87 Y66.186
G1 F1500 X62.243 Y58.812 E50.08444
G0 F3000 X61.678 Y58.812
G1 F1500 X54.304 Y66.186 E50.36192
G0 F3000 X53.738 Y66.186
G1 F1500 X61.112 Y58.812 E50.6394
G0 F3000 X60.546 Y58.812
G1 F1500 X53.173 Y66.186 E50.91686
G0 F3000 X52.607 Y66.186
G1 F1500 X59.981 Y58.812 E51.19434
G0 F3000 X59.415 Y58.812
G1 F1500 X52.25 Y65.977 E51.46396
G0 F3000 X52.25 Y65.411
G1 F1500 X58.849 Y58.812 E51.71228
G0 F3000 X58.283 Y58.812
G1 F1500 X52.25 Y64.845 E51.9393
G0 F3000 X52.25 Y64.28
G1 F1500 X57.718 Y58.812 E52.14505
G0 F3000 X57.152 Y58.812
G1 F1500 X52.25 Y63.714 E52.32951
G0 F3000 X52.25 Y63.148
G1 F1500 X56.586 Y58.812 E52.49268
G0 F3000 X56.021 Y58.812
G1 F1500 X52.25 Y62.583 E52.63458
G0 F3000 X52.25 Y62.017
G1 F1500 X55.455 Y58.812 E52.75518
G0 F3000 X54.889 Y58.812
G1 F1500 X52.25 Y61.451 E52.85448
G0 F3000 X52.25 Y60.886
G1 F1500 X54.324 Y58.812 E52.93253
G0 F3000 X53.758 Y58.812
G1 F1500 X52.25 Y60.32 E52.98927
G0 F3000 X52.25 Y59.754
G1 F1500 X53.192 Y58.812 E53.02472
G0 F3000 X52.627 Y58.812
G1 F1500 X52.25 Y59.189 E53.03891
G0 F3000 X71.789 Y61.147
G1 F1500 X72.786 Y60.149 E53.07644
G0 F3000 X72.786 Y60.715
G1 F1500 X72.363 Y61.138 E53.09236
G0 F3000 X72.364 Y60.918
;MESH:NONMESH
G0 F600 X72.364 Y60.918 Z0.84
G0 F3000 X70.922 Y61.391
;TIME_ELAPSED:105.410933
;LAYER:4
;TYPE:WALL-INNER
;MESH:holder-under.stl
G1 F1200 X70.738 Y61.737 E53.10279
G1 X70.66 Y62.495 E53.12306
G1 X70.66 Y66.367 E53.22609
G1 X52.08 Y66.367 E53.72047
G1 X52.081 Y58.633 E53.92625
G1 X72.968 Y58.633 E54.48202
G1 X72.968 Y61.102 E54.54771
