;FLAVOR:Marlin
;TIME:15000
;Filament used: 5.5086m
;Layer height: 0.16
;MINX:1.608
;MINY:34.294
;MINZ:0.2
;MAXX:123.392
;MAXY:90.706
;MAXZ:18.28
;Generated with Cura_SteamEngine 4.12.1
M82 ;absolute extrusion mode
M104 S208.0 ;Set Hotend Temperature
M140 S58.0 ;Set Bed Temperature
G28 ;home
G90 ;absolute positioning
G1 X-10 Y-10 F3000 ;Move to corner 
G1 Z0 F1800 ;Go to zero offset
M109 S208.0 ;Wait for Hotend Temperature
M190 S58.0 ;Wait for Bed Temperature
G92 E0 ;Zero set extruder position
G1 E20 F200 ;Feed filament to clear nozzle
G92 E0 ;Zero set extruder position
G92 E0
G92 E0
G1 F1500 E-6.5
;LAYER_COUNT:114
;LAYER:0
M107
;MESH:punch-guide-v1.stl
G0 F1200 X36.009 Y58.3 Z0.2
;TYPE:WALL-INNER
G1 F1500 E0
G1 F960 X36.009 Y66.7 E0.25145
G1 X89.011 Y66.7 E1.83801
G1 X89.011 Y58.3 E2.08946
G1 X36.009 Y58.3 E3.67603
G0 F1200 X43.637 Y58.872
G0 X44.215 Y66.128
G0 X122.592 Y89.906
G1 F960 X2.408 Y89.906 E7.27363
G1 X2.408 Y35.094 E8.91438
G1 X122.592 Y35.094 E12.51198
G1 X122.592 Y89.906 E14.15273
G0 F1200 X122.992 Y90.306
G1 F960 X2.008 Y90.306 E17.77428
G1 X2.008 Y34.694 E19.43898
G1 X122.992 Y34.694 E23.06053
G1 X122.992 Y90.306 E24.72523
G0 F1200 X44.215 Y66.128
G0 X43.637 Y58.872
G0 X36.409 Y58.7
G1 F960 X36.409 Y66.3 E24.95272
G1 X88.611 Y66.3 E26.51535
G1 X88.611 Y58.7 E26.74284
G1 X36.409 Y58.7 E28.30547
G0 F1200 X36.809 Y59.1
;TYPE:WALL-OUTER
G1 F960 X36.809 Y65.9 E28.50902
G1 X43.609 Y65.9 E28.71257
G1 X43.609 Y59.1 E28.91612
G1 X36.809 Y59.1 E29.11967
G0 F1200 X36.809 Y59.3
G0 X36.509 Y59.3
G0 X43.637 Y58.872
G0 X44.143 Y59.1
G0 X44.243 Y59.1
G1 F960 X44.243 Y65.9 E29.32323
G1 X51.043 Y65.9 E29.52678
G1 X51.043 Y59.1 E29.73033
G1 X44.243 Y59.1 E29.93388
G0 F1200 X44.243 Y59.3
G0 X44.143 Y59.3
G0 X51.071 Y58.872
G0 X51.577 Y59.1
G0 X51.677 Y59.1
G1 F960 X51.677 Y65.9 E30.13743
G1 X58.477 Y65.9 E30.34099
G1 X58.477 Y59.1 E30.54454
G1 X51.677 Y59.1 E30.74809
G0 F1200 X51.677 Y59.3
G0 X51.577 Y59.3
G0 X58.505 Y58.872
G0 X59.01 Y59.1
G0 X59.11 Y59.1
G1 F960 X59.11 Y65.9 E30.95164
G1 X65.91 Y65.9 E31.15519
G1 X65.91 Y59.1 E31.35875
G1 X59.11 Y59.1 E31.5623
G0 F1200 X59.11 Y59.3
G0 X59.01 Y59.3
G0 X65.938 Y58.872
G0 X66.444 Y59.1
G0 X66.544 Y59.1
G1 F960 X66.544 Y65.9 E31.76585
G1 X73.344 Y65.9 E31.9694
G1 X73.344 Y59.1 E32.17295
G1 X66.544 Y59.1 E32.37651
G0 F1200 X66.544 Y59.3
G0 X66.444 Y59.3
G0 X73.372 Y58.872
G0 X73.877 Y59.1
G0 X73.977 Y59.1
G1 F960 X73.977 Y65.9 E32.58006
G1 X80.777 Y65.9 E32.78361
G1 X80.777 Y59.1 E32.98716
G1 X73.977 Y59.1 E33.19071
G0 F1200 X73.977 Y59.3
G0 X73.877 Y59.3
G0 X80.805 Y58.872
G0 X81.311 Y59.1
G0 X81.411 Y59.1
G1 F960 X81.411 Y65.9 E33.39427
G1 X88.211 Y65.9 E33.59782
G1 X88.211 Y59.1 E33.80137
G1 X81.411 Y59.1 E34.00492
G0 F1200 X81.411 Y59.3
G0 X81.311 Y59.3
G0 X88.439 Y58.872
G0 X123.122 Y90.436
G0 X123.392 Y90.706
G1 F960 X1.608 Y90.706 E37.65042
G1 X1.608 Y34.294 E39.33906
G1 X123.392 Y34.294 E42.98456
G1 X123.392 Y90.706 E44.6732
G0 F1200 X123.192 Y90.706
G0 X123.122 Y90.436
G0 X122.411 Y35.861
;TYPE:SKIN
G1 F960 X121.823 Y35.274 E44.69807
G0 F1200 X121.258 Y35.274
G1 F960 X122.411 Y36.427 E44.74689
G0 F1200 X122.411 Y36.992
G1 F960 X120.692 Y35.274 E44.81963
G0 F1200 X120.126 Y35.274
G1 F960 X122.411 Y37.558 E44.91635
G0 F1200 X122.411 Y38.124
G1 F960 X119.561 Y35.274 E45.03699
G0 F1200 X118.995 Y35.274
G1 F960 X122.411 Y38.69 E45.18161
G0 F1200 X122.411 Y39.255
G1 F960 X118.429 Y35.274 E45.35015
G0 F1200 X117.864 Y35.274
G1 F960 X122.411 Y39.821 E45.54264
G0 F1200 X122.411 Y40.387
G1 F960 X117.298 Y35.274 E45.75909
G0 F1200 X116.732 Y35.274
G1 F960 X122.411 Y40.952 E45.99948
G0 F1200 X122.411 Y41.518
G1 F960 X116.167 Y35.274 E46.26381
G0 F1200 X115.601 Y35.274
G1 F960 X122.411 Y42.084 E46.5521
G0 F1200 X122.411 Y42.649
G1 F960 X115.035 Y35.274 E46.86433
G0 F1200 X114.469 Y35.274
G1 F960 X122.411 Y43.215 E47.20052
G0 F1200 X122.411 Y43.781
G1 F960 X113.904 Y35.274 E47.56065
G0 F1200 X113.338 Y35.274
G1 F960 X122.411 Y44.346 E47.94472
G0 F1200 X122.411 Y44.912
G1 F960 X112.772 Y35.274 E48.35275
G0 F1200 X112.207 Y35.274
G1 F960 X122.411 Y45.478 E48.78471
G0 F1200 X122.411 Y46.043
G1 F960 X111.641 Y35.274 E49.24062
G0 F1200 X111.075 Y35.274
G1 F960 X122.411 Y46.609 E49.72049
G0 F1200 X122.411 Y47.175
G1 F960 X110.51 Y35.274 E50.2243
G0 F1200 X109.944 Y35.274
G1 F960 X122.411 Y47.741 E50.75207
G0 F1200 X122.411 Y48.306
G1 F960 X109.378 Y35.274 E51.30377
G0 F1200 X108.813 Y35.274
G1 F960 X122.411 Y48.872 E51.87942
G0 F1200 X122.411 Y49.438
G1 F960 X108.247 Y35.274 E52.47903
G0 F1200 X107.681 Y35.274
G1 F960 X122.411 Y50.003 E53.10258
G0 F1200 X122.411 Y50.569
G1 F960 X107.116 Y35.274 E53.75006
G0 F1200 X106.55 Y35.274
G1 F960 X122.411 Y51.135 E54.42151
G0 F1200 X122.411 Y51.7
G1 F960 X105.984 Y35.274 E55.1169
G0 F1200 X105.419 Y35.274
G1 F960 X122.411 Y52.266 E55.83623
G0 F1200 X122.411 Y52.832
G1 F960 X104.853 Y35.274 E56.57951
G0 F1200 X104.287 Y35.274
G1 F960 X122.411 Y53.397 E57.34674
G0 F1200 X122.411 Y53.963
G1 F960 X103.721 Y35.274 E58.13793
G0 F1200 X103.156 Y35.274
G1 F960 X122.411 Y54.529 E58.95305
G0 F1200 X122.411 Y55.094
G1 F960 X102.59 Y35.274 E59.79212
G0 F1200 X102.024 Y35.274
G1 F960 X122.411 Y55.66 E60.65515
G0 F1200 X122.411 Y56.226
G1 F960 X101.459 Y35.274 E61.54211
G0 F1200 X100.893 Y35.274
G1 F960 X122.411 Y56.791 E62.45302
G0 F1200 X122.411 Y57.357
G1 F960 X100.327 Y35.274 E63.38788
G0 F1200 X99.762 Y35.274
G1 F960 X122.411 Y57.923 E64.34669
G0 F1200 X122.411 Y58.489
G1 F960 X99.196 Y35.274 E65.32945
G0 F1200 X98.63 Y35.274
G1 F960 X122.411 Y59.054 E66.33616
G0 F1200 X122.411 Y59.62
G1 F960 X98.065 Y35.274 E67.36681
G0 F1200 X97.499 Y35.274
G1 F960 X122.411 Y60.186 E68.42141
G0 F1200 X122.411 Y60.751
G1 F960 X96.933 Y35.274 E69.49996
G0 F1200 X96.368 Y35.274
G1 F960 X122.411 Y61.317 E70.60244
G0 F1200 X122.411 Y61.883
G1 F960 X95.802 Y35.274 E71.72889
G0 F1200 X95.236 Y35.274
G1 F960 X122.411 Y62.448 E72.87927
G0 F1200 X122.411 Y63.014
G1 F960 X94.67 Y35.274 E74.05362
G0 F1200 X94.105 Y35.274
G1 F960 X122.411 Y63.58 E75.2519
G0 F1200 X122.411 Y64.145
G1 F960 X93.539 Y35.274 E76.47412
G0 F1200 X92.973 Y35.274
G1 F960 X122.411 Y64.711 E77.72031
G0 F1200 X122.411 Y65.277
G1 F960 X92.408 Y35.274 E78.99043
G0 F1200 X91.842 Y35.274
G1 F960 X122.411 Y65.842 E80.2845
G0 F1200 X122.411 Y66.408
G1 F960 X91.276 Y35.274 E81.60252
G0 F1200 X90.711 Y35.274
G1 F960 X122.411 Y66.974 E82.94449
G0 F1200 X122.411 Y67.54
G1 F960 X90.145 Y35.274 E84.31041
G0 F1200 X89.579 Y35.274
G1 F960 X122.411 Y68.105 E85.70027
G0 F1200 X122.411 Y68.671
G1 F960 X89.014 Y35.274 E87.11408
G0 F1200 X88.448 Y35.274
G1 F960 X122.411 Y69.237 E88.55184
G0 F1200 X122.411 Y69.802
G1 F960 X87.882 Y35.274 E90.01354
G0 F1200 X87.317 Y35.274
G1 F960 X122.411 Y70.368 E91.49919
G0 F1200 X122.411 Y70.934
G1 F960 X86.751 Y35.274 E93.00879
G0 F1200 X86.185 Y35.274
G1 F960 X122.411 Y71.499 E94.54233
G0 F1200 X122.411 Y72.065
G1 F960 X85.62 Y35.274 E96.09982
G0 F1200 X85.054 Y35.274
G1 F960 X122.411 Y72.631 E97.68126
G0 F1200 X122.411 Y73.196
G1 F960 X84.488 Y35.274 E99.28664
G0 F1200 X83.922 Y35.274
G1 F960 X122.411 Y73.762 E100.91598
G0 F1200 X122.411 Y74.328
G1 F960 X83.357 Y35.274 E102.56927
G0 F1200 X82.791 Y35.274
G1 F960 X122.411 Y74.893 E104.24649
G0 F1200 X122.411 Y75.459
G1 F960 X82.225 Y35.274 E105.94767
G0 F1200 X81.66 Y35.274
G1 F960 X122.411 Y76.025 E107.67279
G0 F1200 X122.411 Y76.59
G1 F960 X81.094 Y35.274 E109.42185
G0 F1200 X80.528 Y35.274
G1 F960 X122.411 Y77.156 E111.19488
G0 F1200 X122.411 Y77.722
G1 F960 X79.963 Y35.274 E112.99184
G0 F1200 X79.397 Y35.274
G1 F960 X122.411 Y78.288 E114.81276
G0 F1200 X122.411 Y78.853
G1 F960 X78.831 Y35.274 E116.65762
G0 F1200 X78.266 Y35.274
G1 F960 X122.411 Y79.419 E118.52642
G0 F1200 X122.411 Y79.985
G1 F960 X77.7 Y35.274 E120.41918
G0 F1200 X77.134 Y35.274
G1 F960 X122.411 Y80.55 E122.33588
G0 F1200 X122.411 Y81.116
G1 F960 X76.569 Y35.274 E124.27652
G0 F1200 X76.003 Y35.274
G1 F960 X122.411 Y81.682 E126.24113
G0 F1200 X122.411 Y82.247
G1 F960 X75.437 Y35.274 E128.22967
G0 F1200 X74.872 Y35.274
G1 F960 X122.411 Y82.813 E130.24215
G0 F1200 X122.411 Y83.379
G1 F960 X74.306 Y35.274 E132.27859
G0 F1200 X73.74 Y35.274
G1 F960 X122.411 Y83.944 E134.33897
G0 F1200 X122.411 Y84.51
G1 F960 X73.174 Y35.274 E136.42331
G0 F1200 X72.609 Y35.274
G1 F960 X122.411 Y85.076 E138.53159
G0 F1200 X122.411 Y85.641
G1 F960 X72.043 Y35.274 E140.66381
G0 F1200 X71.477 Y35.274
G1 F960 X122.411 Y86.207 E142.81999
G0 F1200 X122.411 Y86.773
G1 F960 X70.912 Y35.274 E145.00011
G0 F1200 X70.346 Y35.274
G1 F960 X122.411 Y87.339 E147.20419
G0 F1200 X122.411 Y87.904
G1 F960 X69.78 Y35.274 E149.43221
G0 F1200 X69.215 Y35.274
G1 F960 X122.411 Y88.47 E151.68416
G0 F1200 X122.411 Y89.036
G1 F960 X68.649 Y35.274 E153.96008
G0 F1200 X68.083 Y35.274
G1 F960 X122.411 Y89.601 E156.25994
G0 F1200 X121.969 Y89.725
G1 F960 X67.518 Y35.274 E158.56503
G0 F1200 X66.952 Y35.274
G1 F960 X121.403 Y89.725 E160.87012
G0 F1200 X120.838 Y89.725
G1 F960 X66.386 Y35.274 E163.17523
G0 F1200 X65.821 Y35.274
G1 F960 X88.666 Y58.119 E164.14233
G0 F1200 X88.1 Y58.119
G1 F960 X65.255 Y35.274 E165.10943
G0 F1200 X64.689 Y35.274
G1 F960 X87.534 Y58.119 E166.07654
G0 F1200 X86.969 Y58.119
G1 F960 X64.123 Y35.274 E167.04366
G0 F1200 X63.558 Y35.274
G1 F960 X86.403 Y58.119 E168.01076
G0 F1200 X85.837 Y58.119
G1 F960 X62.992 Y35.274 E168.97786
G0 F1200 X62.426 Y35.274
G1 F960 X85.272 Y58.119 E169.94499
G0 F1200 X84.706 Y58.119
G1 F960 X61.861 Y35.274 E170.91209
G0 F1200 X61.295 Y35.274
G1 F960 X84.14 Y58.119 E171.87919
G0 F1200 X83.575 Y58.119
G1 F960 X60.729 Y35.274 E172.84632
G0 F1200 X60.164 Y35.274
G1 F960 X83.009 Y58.119 E173.81342
G0 F1200 X82.443 Y58.119
G1 F960 X59.598 Y35.274 E174.78052
G0 F1200 X59.032 Y35.274
G1 F960 X81.878 Y58.119 E175.74765
G0 F1200 X81.312 Y58.119
G1 F960 X58.467 Y35.274 E176.71475
G0 F1200 X57.901 Y35.274
G1 F960 X80.746 Y58.119 E177.68185
G0 F1200 X80.18 Y58.119
G1 F960 X57.335 Y35.274 E178.64896
G0 F1200 X56.77 Y35.274
G1 F960 X79.615 Y58.119 E179.61606
G0 F1200 X79.049 Y58.119
G1 F960 X56.204 Y35.274 E180.58316
G0 F1200 X55.638 Y35.274
G1 F960 X78.483 Y58.119 E181.55027
G0 F1200 X77.918 Y58.119
G1 F960 X55.073 Y35.274 E182.51737
G0 F1200 X54.507 Y35.274
G1 F960 X77.352 Y58.119 E183.48447
G0 F1200 X76.786 Y58.119
G1 F960 X53.941 Y35.274 E184.45157
G0 F1200 X53.375 Y35.274
G1 F960 X76.221 Y58.119 E185.4187
G0 F1200 X75.655 Y58.119
G1 F960 X52.81 Y35.274 E186.3858
G0 F1200 X52.244 Y35.274
G1 F960 X75.089 Y58.119 E187.3529
G0 F1200 X74.524 Y58.119
G1 F960 X51.678 Y35.274 E188.32003
G0 F1200 X51.113 Y35.274
G1 F960 X73.958 Y58.119 E189.28713
G0 F1200 X73.392 Y58.119
G1 F960 X50.547 Y35.274 E190.25423
G0 F1200 X49.981 Y35.274
G1 F960 X72.827 Y58.119 E191.22136
G0 F1200 X72.261 Y58.119
G1 F960 X49.416 Y35.274 E192.18846
G0 F1200 X48.85 Y35.274
G1 F960 X71.695 Y58.119 E193.15556
G0 F1200 X71.129 Y58.119
G1 F960 X48.284 Y35.274 E194.12267
G0 F1200 X47.719 Y35.274
G1 F960 X70.564 Y58.119 E195.08977
G0 F1200 X69.998 Y58.119
G1 F960 X47.153 Y35.274 E196.05687
G0 F1200 X46.587 Y35.274
G1 F960 X69.432 Y58.119 E197.02398
G0 F1200 X68.867 Y58.119
G1 F960 X46.022 Y35.274 E197.99108
G0 F1200 X45.456 Y35.274
G1 F960 X68.301 Y58.119 E198.95818
G0 F1200 X67.735 Y58.119
G1 F960 X44.89 Y35.274 E199.92528
G0 F1200 X44.324 Y35.274
G1 F960 X67.17 Y58.119 E200.89241
G0 F1200 X66.604 Y58.119
G1 F960 X43.759 Y35.274 E201.85951
G0 F1200 X43.193 Y35.274
G1 F960 X66.038 Y58.119 E202.82661
G0 F1200 X65.473 Y58.119
G1 F960 X42.627 Y35.274 E203.79374
G0 F1200 X42.062 Y35.274
G1 F960 X64.907 Y58.119 E204.76084
G0 F1200 X64.341 Y58.119
G1 F960 X41.496 Y35.274 E205.72794
G0 F1200 X40.93 Y35.274
G1 F960 X63.776 Y58.119 E206.69507
G0 F1200 X63.21 Y58.119
G1 F960 X40.365 Y35.274 E207.66217
G0 F1200 X39.799 Y35.274
G1 F960 X62.644 Y58.119 E208.62927
G0 F1200 X62.079 Y58.119
G1 F960 X39.233 Y35.274 E209.5964
G0 F1200 X38.668 Y35.274
G1 F960 X61.513 Y58.119 E210.5635
G0 F1200 X60.947 Y58.119
G1 F960 X38.102 Y35.274 E211.5306
G0 F1200 X37.536 Y35.274
G1 F960 X60.381 Y58.119 E212.49771
G0 F1200 X59.816 Y58.119
G1 F960 X36.971 Y35.274 E213.46481
G0 F1200 X36.405 Y35.274
G1 F960 X59.25 Y58.119 E214.43191
G0 F1200 X58.684 Y58.119
G1 F960 X35.839 Y35.274 E215.39902
G0 F1200 X35.274 Y35.274
G1 F960 X58.119 Y58.119 E216.36612
G0 F1200 X57.553 Y58.119
G1 F960 X34.708 Y35.274 E217.33322
G0 F1200 X34.142 Y35.274
G1 F960 X56.987 Y58.119 E218.30032
G0 F1200 X56.422 Y58.119
G1 F960 X33.576 Y35.274 E219.26745
G0 F1200 X33.011 Y35.274
G1 F960 X55.856 Y58.119 E220.23455
G0 F1200 X55.29 Y58.119
G1 F960 X32.445 Y35.274 E221.20165
G0 F1200 X31.879 Y35.274
G1 F960 X54.725 Y58.119 E222.16878
G0 F1200 X54.159 Y58.119
G1 F960 X31.314 Y35.274 E223.13588
G0 F1200 X30.748 Y35.274
G1 F960 X53.593 Y58.119 E224.10298
G0 F1200 X53.028 Y58.119
G1 F960 X30.182 Y35.274 E225.07011
G0 F1200 X29.617 Y35.274
G1 F960 X52.462 Y58.119 E226.03721
G0 F1200 X51.896 Y58.119
G1 F960 X29.051 Y35.274 E227.00431
G0 F1200 X28.485 Y35.274
G1 F960 X51.331 Y58.119 E227.97144
G0 F1200 X50.765 Y58.119
G1 F960 X27.92 Y35.274 E228.93854
G0 F1200 X27.354 Y35.274
G1 F960 X50.199 Y58.119 E229.90564
G0 F1200 X49.633 Y58.119
G1 F960 X26.788 Y35.274 E230.87275
G0 F1200 X26.223 Y35.274
G1 F960 X49.068 Y58.119 E231.83985
G0 F1200 X48.502 Y58.119
G1 F960 X25.657 Y35.274 E232.80695
G0 F1200 X25.091 Y35.274
G1 F960 X47.936 Y58.119 E233.77405
G0 F1200 X47.371 Y58.119
G1 F960 X24.525 Y35.274 E234.74118
G0 F1200 X23.96 Y35.274
G1 F960 X46.805 Y58.119 E235.70828
G0 F1200 X46.239 Y58.119
G1 F960 X23.394 Y35.274 E236.67538
G0 F1200 X22.828 Y35.274
G1 F960 X45.674 Y58.119 E237.64251
G0 F1200 X45.108 Y58.119
G1 F960 X22.263 Y35.274 E238.60961
G0 F1200 X21.697 Y35.274
G1 F960 X44.542 Y58.119 E239.57671
G0 F1200 X43.977 Y58.119
G1 F960 X21.131 Y35.274 E240.54384
G0 F1200 X20.566 Y35.274
G1 F960 X43.411 Y58.119 E241.51094
G0 F1200 X42.845 Y58.119
G1 F960 X20 Y35.274 E242.47804
G0 F1200 X19.434 Y35.274
G1 F960 X42.28 Y58.119 E243.44517
G0 F1200 X41.714 Y58.119
G1 F960 X18.869 Y35.274 E244.41227
G0 F1200 X18.303 Y35.274
G1 F960 X41.148 Y58.119 E245.37937
G0 F1200 X40.582 Y58.119
G1 F960 X17.737 Y35.274 E246.34648
G0 F1200 X17.172 Y35.274
G1 F960 X40.017 Y58.119 E247.31358
G0 F1200 X39.451 Y58.119
G1 F960 X16.606 Y35.274 E248.28068
G0 F1200 X16.04 Y35.274
G1 F960 X38.885 Y58.119 E249.24779
G0 F1200 X38.32 Y58.119
G1 F960 X15.475 Y35.274 E250.21489
G0 F1200 X14.909 Y35.274
G1 F960 X37.754 Y58.119 E251.18199
G0 F1200 X37.188 Y58.119
G1 F960 X14.343 Y35.274 E252.14909
G0 F1200 X13.777 Y35.274
G1 F960 X36.623 Y58.119 E253.11622
G0 F1200 X36.057 Y58.119
G1 F960 X13.212 Y35.274 E254.08332
G0 F1200 X12.646 Y35.274
G1 F960 X35.829 Y58.456 E255.06471
G0 F1200 X35.829 Y59.022
G1 F960 X12.08 Y35.274 E256.07006
G0 F1200 X11.515 Y35.274
G1 F960 X35.829 Y59.587 E257.09933
G0 F1200 X35.829 Y60.153
G1 F960 X10.949 Y35.274 E258.15256
G0 F1200 X10.383 Y35.274
G1 F960 X35.829 Y60.719 E259.22975
G0 F1200 X35.829 Y61.284
G1 F960 X9.818 Y35.274 E260.33086
G0 F1200 X9.252 Y35.274
G1 F960 X35.829 Y61.85 E261.45593
G0 F1200 X35.829 Y62.416
G1 F960 X8.686 Y35.274 E262.60496
G0 F1200 X8.121 Y35.274
G1 F960 X35.829 Y62.982 E263.77793
G0 F1200 X35.829 Y63.547
G1 F960 X7.555 Y35.274 E264.97484
G0 F1200 X6.989 Y35.274
G1 F960 X35.829 Y64.113 E266.19571
G0 F1200 X35.829 Y64.679
G1 F960 X6.424 Y35.274 E267.44052
G0 F1200 X5.858 Y35.274
G1 F960 X35.829 Y65.244 E268.70926
G0 F1200 X35.829 Y65.81
G1 F960 X5.292 Y35.274 E270.00197
G0 F1200 X4.727 Y35.274
G1 F960 X35.829 Y66.376 E271.31862
G0 F1200 X36.332 Y66.879
G1 F960 X59.177 Y89.724 E272.28573
G0 F1200 X58.612 Y89.724
G1 F960 X4.161 Y35.274 E274.59079
G0 F1200 X3.595 Y35.274
G1 F960 X58.046 Y89.724 E276.89586
G0 F1200 X57.48 Y89.724
G1 F960 X3.029 Y35.274 E279.20092
G0 F1200 X2.588 Y35.397
G1 F960 X56.915 Y89.724 E281.50076
G0 F1200 X56.349 Y89.724
G1 F960 X2.588 Y35.963 E283.77664
G0 F1200 X2.588 Y36.529
G1 F960 X55.783 Y89.724 E286.02856
G0 F1200 X55.217 Y89.724
G1 F960 X2.588 Y37.094 E288.25653
G0 F1200 X2.588 Y37.66
G1 F960 X54.652 Y89.724 E290.46057
