;FLAVOR:Marlin
;TIME:2426
;Filament used: 1.04047m
;Layer height: 0.16
;MINX:43.936
;MINY:41.872
;MINZ:0.2
;MAXX:81.917
;MAXY:67.738
;MAXZ:10.92
;Generated with Cura_SteamEngine 4.12.1
M82 ;absolute extrusion mode
M104 S208.0 ;Set Hotend Temperature
M140 S58.0 ;Set Bed Temperature
G28 ;home
G90 ;absolute positioning
G1 X-10 Y-10 F3000 ;Move to corner 
G1 Z0 F1800 ;Go to zero offset
M109 S208.0 ;Wait for Hotend Temperature
M190 S58.0 ;Wait for Bed Temperature
G92 E0 ;Zero set extruder position
G1 E20 F200 ;Feed filament to clear nozzle
G92 E0 ;Zero set extruder position
G92 E0
G92 E0
G1 F1500 E-6.5
;LAYER_COUNT:68
;LAYER:0
M107
;MESH:print-register.stl(1)
G0 F1440 X49.902 Y47.541 Z0.2
;TYPE:WALL-INNER
G1 F1500 E0
G1 F1080 X44.336 Y47.541 E0.18513
G1 X44.336 Y46.68 E0.21376
G1 X45.428 Y46.678 E0.25008
G1 X49.902 Y46.679 E0.39889
G1 X49.902 Y47.541 E0.42756
G0 F1440 X57.426 Y47.344
G0 X61.367 Y46.68
G1 F1080 X61.368 Y47.543 E0.45626
G1 X57.598 Y47.542 E0.58165
G1 X57.598 Y46.68 E0.61032
G1 X61.367 Y46.68 E0.73568
G0 F1440 X57.198 Y47.416
G0 X57.198 Y47.316
;TYPE:WALL-OUTER
G1 F1080 X57.198 Y46.28 E0.77014
G1 X61.755 Y46.28 E0.9217
G1 X61.762 Y46.412 E0.9261
G1 X61.775 Y47.108 E0.94925
G1 X61.764 Y47.766 E0.97114
G1 X61.755 Y47.944 E0.97707
G1 X60.39 Y47.942 E1.02247
G1 X43.936 Y47.941 E1.56973
G1 X43.936 Y46.281 E1.62494
G1 X45.427 Y46.278 E1.67454
G1 X50.302 Y46.279 E1.83668
G1 X50.302 Y47.316 E1.87117
G1 X57.198 Y47.316 E2.10053
G0 F1440 X57.198 Y47.116
G0 X58.11 Y47.362
;TYPE:SKIN
G1 F1080 X57.777 Y47.029 E2.11619
G0 F1440 X58.173 Y46.859
G1 F1080 X58.675 Y47.362 E2.13983
G0 F1440 X58.739 Y46.859
G1 F1080 X59.241 Y47.362 E2.16347
G0 F1440 X59.305 Y46.859
G1 F1080 X59.807 Y47.362 E2.1871
G0 F1440 X59.87 Y46.859
G1 F1080 X60.373 Y47.362 E2.21076
G0 F1440 X60.436 Y46.859
G1 F1080 X60.939 Y47.362 E2.23442
G0 F1440 X61.186 Y47.044
G1 F1080 X61.002 Y46.859 E2.2431
G0 F1440 X57.426 Y47.344
G0 X49.623 Y47.36
G1 F1080 X49.122 Y46.859 E2.26667
G0 F1440 X49.057 Y47.36
G1 F1080 X48.556 Y46.859 E2.29023
G0 F1440 X48.491 Y47.36
G1 F1080 X47.99 Y46.859 E2.3138
G0 F1440 X47.926 Y47.36
G1 F1080 X47.424 Y46.858 E2.33741
G0 F1440 X47.36 Y47.36
G1 F1080 X46.858 Y46.858 E2.36102
G0 F1440 X46.794 Y47.359
G1 F1080 X46.292 Y46.858 E2.38461
G0 F1440 X46.228 Y47.359
G1 F1080 X45.727 Y46.858 E2.40818
G0 F1440 X45.662 Y47.359
G1 F1080 X45.161 Y46.858 E2.43174
G0 F1440 X45.097 Y47.359
G1 F1080 X44.596 Y46.859 E2.45528
G0 F1440 X50.08 Y47.535
G0 X50.185 Y47.64
;TYPE:SKIN
G1 F1080 X50.456 Y47.628 E2.46084
G1 X57.244 Y47.628 E2.59976
G0 F1440 X57.363 Y47.716
G1 F1500 E-3.90024
G0 F1440 X57.363 Y47.643
G0 X61.567 Y46.765
G0 X62.633 Y46.746
G0 X63.982 Y46.743
G0 X65.269 Y46.765
G0 X80.594 Y46.75
G1 F1500 E2.59976
G0 F1440 X80.664 Y46.68
;TYPE:WALL-INNER
G1 F1080 X80.664 Y47.54 E2.62836
G1 X79.336 Y47.532 E2.67253
G1 X65.249 Y47.531 E3.14107
G1 X65.249 Y46.678 E3.16944
G1 X65.716 Y46.675 E3.18497
G1 X66.349 Y46.68 E3.20603
G1 X80.664 Y46.68 E3.68215
G0 F1440 X81.064 Y46.28
;TYPE:WALL-OUTER
G1 F1080 X81.064 Y47.942 E3.73742
G1 X79.335 Y47.932 E3.79493
G1 X64.86 Y47.931 E4.27637
G1 X64.854 Y47.804 E4.2806
G1 X64.841 Y47.115 E4.30352
G1 X64.854 Y46.418 E4.32671
G1 X64.861 Y46.281 E4.33127
G1 X65.716 Y46.275 E4.35971
G1 X66.351 Y46.28 E4.38083
G1 X81.064 Y46.28 E4.87019
G0 F1440 X81.064 Y46.48
G0 X80.482 Y47.107
;TYPE:SKIN
G1 F1080 X80.235 Y46.859 E4.88183
G0 F1440 X80.166 Y47.357
G1 F1080 X79.669 Y46.859 E4.90523
G0 F1440 X79.597 Y47.353
G1 F1080 X79.104 Y46.859 E4.92844
G0 F1440 X79.029 Y47.351
G1 F1080 X78.538 Y46.859 E4.95156
G0 F1440 X78.464 Y47.351
G1 F1080 X77.972 Y46.859 E4.9747
G0 F1440 X77.898 Y47.351
G1 F1080 X77.406 Y46.859 E4.99784
G0 F1440 X77.332 Y47.351
G1 F1080 X76.841 Y46.859 E5.02096
G0 F1440 X76.767 Y47.351
G1 F1080 X76.275 Y46.859 E5.0441
G0 F1440 X76.201 Y47.351
G1 F1080 X75.709 Y46.859 E5.06725
G0 F1440 X75.635 Y47.351
G1 F1080 X75.144 Y46.859 E5.09037
G0 F1440 X75.069 Y47.351
G1 F1080 X74.578 Y46.859 E5.11348
G0 F1440 X74.504 Y47.351
G1 F1080 X74.012 Y46.859 E5.13663
G0 F1440 X73.938 Y47.351
G1 F1080 X73.447 Y46.859 E5.15974
G0 F1440 X73.372 Y47.351
G1 F1080 X72.881 Y46.859 E5.18286
G0 F1440 X72.807 Y47.351
G1 F1080 X72.315 Y46.859 E5.20601
G0 F1440 X72.24 Y47.35
G1 F1080 X71.75 Y46.859 E5.22908
G0 F1440 X71.675 Y47.35
G1 F1080 X71.184 Y46.859 E5.25217
G0 F1440 X71.109 Y47.35
G1 F1080 X70.618 Y46.859 E5.27527
G0 F1440 X70.543 Y47.35
G1 F1080 X70.053 Y46.859 E5.29834
G0 F1440 X69.978 Y47.35
G1 F1080 X69.487 Y46.859 E5.32143
G0 F1440 X69.412 Y47.35
G1 F1080 X68.921 Y46.859 E5.34453
G0 F1440 X68.846 Y47.35
G1 F1080 X68.356 Y46.859 E5.3676
G0 F1440 X68.281 Y47.35
G1 F1080 X67.79 Y46.859 E5.3907
G0 F1440 X67.715 Y47.35
G1 F1080 X67.224 Y46.859 E5.41379
G0 F1440 X67.149 Y47.35
G1 F1080 X66.658 Y46.859 E5.43689
G0 F1440 X66.584 Y47.35
G1 F1080 X66.091 Y46.858 E5.46005
G0 F1440 X66.018 Y47.35
G1 F1080 X65.524 Y46.856 E5.48329
G0 F1440 X65.649 Y47.077
G1 F1500 E-1.01671
;MESH:print-register.stl
G0 F1440 X65.263 Y47.517
G0 X65.263 Y48.797
G0 X61.553 Y60.804
G0 X61.553 Y61.883
G0 X61.367 Y62.069
;TYPE:WALL-INNER
G1 F1500 E5.48329
G1 F1080 X61.368 Y62.933 E5.51203
G1 X60.391 Y62.931 E5.54452
G1 X57.598 Y62.931 E5.63742
G1 X57.598 Y62.069 E5.66609
G1 X61.367 Y62.069 E5.79144
G0 F1440 X57.426 Y62.733
G0 X49.902 Y62.93
G1 F1080 X44.336 Y62.93 E5.97657
G1 X44.336 Y62.069 E6.00521
G1 X45.428 Y62.067 E6.04153
G1 X49.902 Y62.068 E6.19033
G1 X49.902 Y62.93 E6.219
G0 F1440 X57.198 Y62.805
G0 X57.198 Y62.705
;TYPE:WALL-OUTER
G1 F1080 X57.198 Y61.669 E6.25346
G1 X61.755 Y61.669 E6.40503
G1 X61.762 Y61.801 E6.40942
G1 X61.775 Y62.497 E6.43258
G1 X61.764 Y63.155 E6.45446
G1 X61.755 Y63.334 E6.46043
G1 X60.39 Y63.331 E6.50583
G1 X43.936 Y63.33 E7.05309
G1 X43.936 Y61.67 E7.1083
G1 X45.427 Y61.667 E7.15789
G1 X50.302 Y61.668 E7.32003
G1 X50.302 Y62.705 E7.35452
G1 X57.198 Y62.705 E7.58389
G0 F1440 X57.198 Y62.505
G0 X57.498 Y62.505
G0 X58.224 Y62.75
;TYPE:SKIN
G1 F1080 X57.777 Y62.303 E7.60491
G0 F1440 X58.288 Y62.248
G1 F1080 X58.79 Y62.75 E7.62852
G0 F1440 X58.853 Y62.248
G1 F1080 X59.355 Y62.75 E7.65214
G0 F1440 X59.419 Y62.248
G1 F1080 X59.921 Y62.75 E7.67575
G0 F1440 X59.985 Y62.248
G1 F1080 X60.487 Y62.75 E7.69936
G0 F1440 X60.55 Y62.248
G1 F1080 X61.054 Y62.751 E7.72305
G0 F1440 X61.188 Y62.319
G1 F1080 X61.116 Y62.248 E7.72641
G0 F1440 X57.426 Y62.733
G0 X49.721 Y62.732
G1 F1080 X49.236 Y62.247 E7.74922
G0 F1440 X49.172 Y62.749
G1 F1080 X48.67 Y62.247 E7.77283
G0 F1440 X48.607 Y62.749
G1 F1080 X48.105 Y62.247 E7.79645
G0 F1440 X48.041 Y62.749
G1 F1080 X47.538 Y62.246 E7.82011
G0 F1440 X47.475 Y62.749
G1 F1080 X46.973 Y62.246 E7.84374
G0 F1440 X46.91 Y62.749
G1 F1080 X46.407 Y62.246 E7.8674
G0 F1440 X46.344 Y62.749
G1 F1080 X45.841 Y62.246 E7.89106
G0 F1440 X45.778 Y62.749
G1 F1080 X45.276 Y62.246 E7.9147
G0 F1440 X45.213 Y62.749
G1 F1080 X44.712 Y62.248 E7.93826
G0 F1440 X44.515 Y62.617
G1 F1080 X44.647 Y62.749 E7.94447
G0 F1440 X50.082 Y63.03
G0 X50.102 Y63.113
;TYPE:SKIN
G1 F1080 X50.288 Y63.016 E7.94861
G1 X57.077 Y63.016 E8.0827
G1 X57.329 Y62.986 E8.08771
G0 F1440 X57.242 Y62.731
G1 F1500 E1.58771
G0 F1440 X57.242 Y62.805
G0 X61.567 Y62.154
G0 X62.633 Y62.135
G0 X63.982 Y62.132
G0 X65.269 Y62.154
G0 X80.594 Y62.139
G1 F1500 E8.08771
G0 F1440 X80.664 Y62.069
;TYPE:WALL-INNER
G1 F1080 X80.664 Y62.929 E8.11631
G1 X79.336 Y62.921 E8.16048
G1 X65.249 Y62.92 E8.62902
G1 X65.249 Y62.067 E8.65739
G1 X65.716 Y62.064 E8.67292
G1 X66.349 Y62.069 E8.69398
G1 X80.664 Y62.069 E9.1701
G0 F1440 X81.064 Y61.669
;TYPE:WALL-OUTER
G1 F1080 X81.064 Y63.331 E9.22537
G1 X79.335 Y63.321 E9.28288
G1 X64.86 Y63.32 E9.76432
G1 X64.854 Y63.193 E9.76855
G1 X64.841 Y62.504 E9.79147
G1 X64.854 Y61.807 E9.81466
G1 X64.861 Y61.67 E9.81922
G1 X65.716 Y61.664 E9.84766
G1 X66.351 Y61.669 E9.86878
G1 X81.064 Y61.669 E10.35814
G0 F1440 X81.064 Y61.869
G0 X80.483 Y62.381
;TYPE:SKIN
G1 F1080 X80.35 Y62.248 E10.36439
G0 F1440 X80.282 Y62.746
G1 F1080 X79.784 Y62.248 E10.38782
G0 F1440 X79.713 Y62.742
G1 F1080 X79.219 Y62.248 E10.41105
G0 F1440 X79.145 Y62.74
G1 F1080 X78.653 Y62.248 E10.43419
G0 F1440 X78.579 Y62.74
G1 F1080 X78.087 Y62.248 E10.45734
G0 F1440 X78.013 Y62.74
G1 F1080 X77.522 Y62.248 E10.48046
G0 F1440 X77.447 Y62.74
G1 F1080 X76.956 Y62.248 E10.50357
G0 F1440 X76.882 Y62.74
G1 F1080 X76.39 Y62.248 E10.52672
G0 F1440 X76.316 Y62.74
G1 F1080 X75.825 Y62.248 E10.54983
G0 F1440 X75.75 Y62.74
G1 F1080 X75.259 Y62.248 E10.57295
G0 F1440 X75.185 Y62.74
G1 F1080 X74.693 Y62.248 E10.5961
G0 F1440 X74.619 Y62.74
G1 F1080 X74.128 Y62.248 E10.61921
G0 F1440 X74.053 Y62.74
G1 F1080 X73.562 Y62.248 E10.64233
G0 F1440 X73.488 Y62.74
G1 F1080 X72.996 Y62.248 E10.66547
G0 F1440 X72.922 Y62.74
G1 F1080 X72.431 Y62.248 E10.68859
G0 F1440 X72.356 Y62.74
G1 F1080 X71.865 Y62.248 E10.71171
G0 F1440 X71.791 Y62.74
G1 F1080 X71.299 Y62.248 E10.73485
G0 F1440 X71.225 Y62.74
G1 F1080 X70.734 Y62.248 E10.75797
G0 F1440 X70.659 Y62.74
G1 F1080 X70.168 Y62.248 E10.78109
G0 F1440 X70.094 Y62.74
G1 F1080 X69.602 Y62.248 E10.80423
G0 F1440 X69.528 Y62.74
G1 F1080 X69.036 Y62.248 E10.82738
G0 F1440 X68.962 Y62.74
G1 F1080 X68.471 Y62.248 E10.85049
G0 F1440 X68.397 Y62.74
G1 F1080 X67.905 Y62.248 E10.87364
G0 F1440 X67.831 Y62.74
G1 F1080 X67.339 Y62.248 E10.89678
G0 F1440 X67.265 Y62.74
G1 F1080 X66.774 Y62.248 E10.9199
G0 F1440 X66.699 Y62.74
G1 F1080 X66.207 Y62.248 E10.94304
G0 F1440 X66.134 Y62.74
G1 F1080 X65.638 Y62.244 E10.96637
G0 F1440 X65.427 Y62.599
G1 F1080 X65.568 Y62.74 E10.973
M104 S208
G0 F1440 X65.649 Y62.521
G1 F1500 E4.473
;MESH:NONMESH
G0 F600 X65.649 Y62.521 Z0.36
G0 F1440 X65.263 Y62.081
G0 X65.253 Y60.803
G0 X61.553 Y48.809
G0 X61.554 Y47.729
G0 X57.598 Y47.643
G1 F1500 E10.973
G0 F1440 X57.598 Y47.716
;TIME_ELAPSED:34.291144
;LAYER:1
M106 S255
;TYPE:WALL-INNER
;MESH:print-register.stl(1)
G1 F1140 X57.598 Y45.992 E11.01887
G1 X61.387 Y45.991 E11.11969
G1 X61.411 Y46.442 E11.13171
G1 X61.423 Y47.101 E11.14925
G1 X61.411 Y47.772 E11.1671
G1 X61.387 Y48.231 E11.17933
G1 X44.336 Y48.229 E11.63303
G1 X44.336 Y45.992 E11.69255
G1 X49.902 Y45.992 E11.84065
G1 X49.902 Y47.716 E11.88652
G1 X57.598 Y47.716 E12.0913
G0 F2220 X57.198 Y47.316
;TYPE:WALL-OUTER
G1 F990 X57.198 Y45.592 E12.13717
G1 X61.762 Y45.591 E12.25861
G1 X61.774 Y45.739 E12.26256
G1 X61.811 Y46.435 E12.28111
G1 X61.823 Y47.108 E12.29902
G1 X61.811 Y47.779 E12.31688
G1 X61.774 Y48.482 E12.33561
G1 X61.761 Y48.631 E12.33959
G1 X43.936 Y48.629 E12.81388
G1 X43.936 Y45.592 E12.89469
G1 X50.302 Y45.592 E13.06407
G1 X50.302 Y47.316 E13.10994
G1 X57.198 Y47.316 E13.29343
G0 F2220 X57.198 Y47.116
G0 X57.698 Y47.116
G0 X61.125 Y48.051
;TYPE:SKIN
G1 F1290 X61.22 Y47.956 E13.29701
G0 F2220 X61.236 Y47.374
G1 F1290 X60.56 Y48.051 E13.32247
G0 F2220 X59.994 Y48.051
G1 F1290 X61.236 Y46.809 E13.3692
G0 F2220 X61.219 Y46.26
G1 F1290 X59.428 Y48.051 E13.4366
G0 F2220 X58.863 Y48.051
G1 F1290 X60.743 Y46.171 E13.50734
G0 F2220 X60.177 Y46.171
G1 F1290 X58.297 Y48.051 E13.57808
G0 F2220 X57.731 Y48.051
G1 F1290 X59.611 Y46.171 E13.64883
G0 F2220 X59.046 Y46.171
G1 F1290 X57.776 Y47.44 E13.6966
G0 F2220 X57.776 Y46.874
G1 F1290 X58.48 Y46.171 E13.72307
G0 F2220 X57.914 Y46.171
G1 F1290 X57.776 Y46.309 E13.72826
G0 F2220 X57.626 Y47.744
G0 X57.321 Y47.895
G1 F1290 X57.166 Y48.051 E13.73411
G0 F2220 X56.755 Y47.895
G1 F1290 X56.601 Y48.05 E13.73993
G0 F2220 X56.19 Y47.895
G1 F1290 X56.035 Y48.05 E13.74576
G0 F2220 X55.624 Y47.895
G1 F1290 X55.469 Y48.05 E13.75159
G0 F2220 X55.058 Y47.895
G1 F1290 X54.904 Y48.05 E13.75741
G0 F2220 X54.493 Y47.895
G1 F1290 X54.338 Y48.05 E13.76324
G0 F2220 X53.927 Y47.895
G1 F1290 X53.772 Y48.05 E13.76907
G0 F2220 X53.361 Y47.895
G1 F1290 X53.206 Y48.05 E13.7749
G0 F2220 X52.796 Y47.895
G1 F1290 X52.641 Y48.05 E13.78074
G0 F2220 X52.23 Y47.895
G1 F1290 X52.076 Y48.05 E13.78655
G0 F2220 X51.664 Y47.895
G1 F1290 X51.51 Y48.05 E13.79236
G0 F2220 X51.099 Y47.895
G1 F1290 X50.944 Y48.05 E13.7982
G0 F2220 X50.533 Y47.895
G1 F1290 X50.379 Y48.05 E13.80401
G0 F2220 X49.967 Y47.895
G1 F1290 X49.813 Y48.05 E13.80982
G0 F2220 X49.721 Y47.576
G1 F1290 X49.247 Y48.05 E13.82766
G0 F2220 X48.682 Y48.049
G1 F1290 X49.721 Y47.01 E13.86676
G0 F2220 X49.721 Y46.444
G1 F1290 X48.117 Y48.049 E13.92714
G0 F2220 X47.551 Y48.049
G1 F1290 X49.429 Y46.171 E13.9978
G0 F2220 X48.863 Y46.171
G1 F1290 X46.985 Y48.049 E14.06847
G0 F2220 X46.42 Y48.049
G1 F1290 X48.298 Y46.171 E14.13914
G0 F2220 X47.732 Y46.171
G1 F1290 X45.854 Y48.049 E14.20981
G0 F2220 X45.288 Y48.049
G1 F1290 X47.166 Y46.171 E14.28048
G0 F2220 X46.601 Y46.171
G1 F1290 X44.723 Y48.049 E14.35114
G0 F2220 X44.516 Y47.69
G1 F1290 X46.035 Y46.171 E14.4083
G0 F2220 X45.469 Y46.171
G1 F1290 X44.516 Y47.124 E14.44417
G0 F2220 X44.516 Y46.558
G1 F1290 X44.904 Y46.171 E14.45875
G0 F2220 X44.904 Y46.392
G1 F1500 E7.95875
G0 F2220 X49.874 Y47.744
G0 X61.392 Y47.772
G0 X62.675 Y47.839
G0 X63.942 Y47.84
G0 X65.224 Y47.772
G0 X80.594 Y48.159
G1 F1500 E14.45875
G0 F2220 X80.664 Y48.229
;TYPE:WALL-INNER
G1 F1140 X65.229 Y48.229 E14.86944
G1 X65.205 Y47.772 E14.88162
G1 X65.193 Y47.122 E14.89892
G1 X65.205 Y46.449 E14.91683
G1 X65.229 Y45.99 E14.92906
G1 X80.664 Y45.992 E15.33975
G1 X80.664 Y48.229 E15.39928
G0 F2220 X81.064 Y48.629
;TYPE:WALL-OUTER
G1 F990 X64.854 Y48.629 E15.83059
G1 X64.842 Y48.482 E15.83452
G1 X64.805 Y47.779 E15.85325
G1 X64.793 Y47.115 E15.87092
G1 X64.805 Y46.442 E15.88883
G1 X64.842 Y45.739 E15.90756
G1 X64.855 Y45.59 E15.91154
G1 X81.064 Y45.592 E16.34283
G1 X81.064 Y48.629 E16.42364
G0 F2220 X80.864 Y48.629
G0 X80.361 Y48.048
;TYPE:SKIN
G1 F1290 X80.483 Y47.926 E16.42823
G0 F2220 X80.483 Y47.361
G1 F1290 X79.796 Y48.048 E16.45408
G0 F2220 X79.23 Y48.048
G1 F1290 X80.483 Y46.795 E16.50123
G0 F2220 X80.483 Y46.229
G1 F1290 X78.664 Y48.048 E16.56968
G0 F2220 X78.099 Y48.048
G1 F1290 X79.976 Y46.171 E16.64031
G0 F2220 X79.41 Y46.171
G1 F1290 X77.533 Y48.048 E16.71094
G0 F2220 X76.967 Y48.048
G1 F1290 X78.845 Y46.171 E16.78159
G0 F2220 X78.279 Y46.171
G1 F1290 X76.402 Y48.048 E16.85222
G0 F2220 X75.836 Y48.048
G1 F1290 X77.713 Y46.171 E16.92285
G0 F2220 X77.148 Y46.171
G1 F1290 X75.27 Y48.048 E16.9935
G0 F2220 X74.705 Y48.048
G1 F1290 X76.582 Y46.171 E17.06413
G0 F2220 X76.016 Y46.171
G1 F1290 X74.139 Y48.048 E17.13476
G0 F2220 X73.573 Y48.048
G1 F1290 X75.451 Y46.171 E17.20541
G0 F2220 X74.885 Y46.171
G1 F1290 X73.008 Y48.048 E17.27604
G0 F2220 X72.442 Y48.048
G1 F1290 X74.319 Y46.171 E17.34667
G0 F2220 X73.754 Y46.171
G1 F1290 X71.876 Y48.048 E17.41732
G0 F2220 X71.311 Y48.048
G1 F1290 X73.188 Y46.171 E17.48795
G0 F2220 X72.623 Y46.17
G1 F1290 X70.745 Y48.048 E17.55862
G0 F2220 X70.179 Y48.048
G1 F1290 X72.057 Y46.17 E17.62929
G0 F2220 X71.492 Y46.17
G1 F1290 X69.613 Y48.048 E17.69998
G0 F2220 X69.048 Y48.048
G1 F1290 X70.926 Y46.17 E17.77065
G0 F2220 X70.36 Y46.17
G1 F1290 X68.482 Y48.048 E17.84132
G0 F2220 X67.916 Y48.048
G1 F1290 X69.794 Y46.17 E17.91198
G0 F2220 X69.229 Y46.17
G1 F1290 X67.351 Y48.048 E17.98265
G0 F2220 X66.785 Y48.048
G1 F1290 X68.663 Y46.17 E18.05332
G0 F2220 X68.097 Y46.17
G1 F1290 X66.219 Y48.048 E18.12399
G0 F2220 X65.654 Y48.048
G1 F1290 X67.532 Y46.17 E18.19466
G0 F2220 X66.966 Y46.17
G1 F1290 X65.384 Y47.753 E18.25421
G0 F2220 X65.373 Y47.197
G1 F1290 X66.4 Y46.17 E18.29285
G0 F2220 X65.835 Y46.17
G1 F1290 X65.381 Y46.624 E18.30993
G0 F2220 X65.601 Y46.628
G1 F1500 E11.80993
;MESH:print-register.stl
G0 F2220 X65.242 Y48.215
G0 X65.242 Y49.494
G0 X61.373 Y60.117
G0 X61.374 Y61.395
G0 X57.668 Y63.175
G1 F1500 E18.30993
G0 F2220 X57.598 Y63.105
;TYPE:WALL-INNER
G1 F1140 X57.598 Y61.382 E18.35578
G1 X61.387 Y61.381 E18.4566
G1 X61.411 Y61.832 E18.46862
G1 X61.423 Y62.49 E18.48613
G1 X61.411 Y63.162 E18.50401
G1 X61.387 Y63.62 E18.51621
G1 X44.336 Y63.618 E18.96991
G1 X44.336 Y61.382 E19.0294
G1 X49.902 Y61.382 E19.1775
G1 X49.902 Y63.105 E19.22335
G1 X57.598 Y63.105 E19.42813
G0 F2220 X57.198 Y62.705
;TYPE:WALL-OUTER
G1 F990 X57.198 Y60.982 E19.47397
G1 X61.762 Y60.981 E19.59541
G1 X61.774 Y61.127 E19.59931
