;FLAVOR:Marlin
;TIME:886
;Filament used: 0.395835m
;Layer height: 0.16
;MINX:57.262
;MINY:48.923
;MINZ:0.2
;MAXX:67.737
;MAXY:76.077
;MAXZ:10.92
;Generated with Cura_SteamEngine 4.12.1
M82 ;absolute extrusion mode
M104 S208.0 ;Set Hotend Temperature
M140 S58.0 ;Set Bed Temperature
G28 ;home
G90 ;absolute positioning
G1 X-10 Y-10 F3000 ;Move to corner 
G1 Z0 F1800 ;Go to zero offset
M109 S208.0 ;Wait for Hotend Temperature
M190 S58.0 ;Wait for Bed Temperature
G92 E0 ;Zero set extruder position
G1 E20 F200 ;Feed filament to clear nozzle
G92 E0 ;Zero set extruder position
G92 E0
G92 E0
G1 F1500 E-6.5
;LAYER_COUNT:68
;LAYER:0
M107
;MESH:holder-front.stl
G0 F1440 X62.931 Y65.939 Z0.2
;TYPE:WALL-INNER
G1 F1500 E0
G1 F1080 X62.069 Y65.939 E0.02867
G1 X62.069 Y49.323 E0.58132
G1 X62.932 Y49.323 E0.61002
G1 X62.931 Y65.939 E1.16267
G0 F1440 X62.93 Y75.677
G1 F1080 X62.069 Y75.677 E1.19131
G1 X62.067 Y75.036 E1.21263
G1 X62.068 Y71.909 E1.31664
G1 X62.93 Y71.909 E1.34531
G1 X62.93 Y75.677 E1.47063
G0 F1440 X62.805 Y66.339
G0 X62.705 Y66.339
;TYPE:WALL-OUTER
G1 F1080 X61.669 Y66.339 E1.50509
G1 X61.669 Y48.923 E2.08435
G1 X63.332 Y48.923 E2.13966
G1 X63.33 Y76.077 E3.0428
G1 X61.67 Y76.077 E3.09802
G1 X61.667 Y75.036 E3.13264
G1 X61.668 Y71.509 E3.24995
G1 X62.705 Y71.509 E3.28444
G1 X62.705 Y66.339 E3.45639
G0 F1440 X62.505 Y66.339
G0 X62.363 Y65.758
;TYPE:SKIN
G1 F1080 X62.248 Y65.642 E3.46183
G0 F1440 X62.751 Y65.579
G1 F1080 X62.248 Y65.077 E3.48546
G0 F1440 X62.751 Y65.014
G1 F1080 X62.248 Y64.511 E3.50912
G0 F1440 X62.751 Y64.448
G1 F1080 X62.248 Y63.945 E3.53278
G0 F1440 X62.751 Y63.882
G1 F1080 X62.248 Y63.38 E3.55642
G0 F1440 X62.751 Y63.317
G1 F1080 X62.248 Y62.814 E3.58008
G0 F1440 X62.751 Y62.751
G1 F1080 X62.248 Y62.248 E3.60374
G0 F1440 X62.751 Y62.185
G1 F1080 X62.248 Y61.683 E3.62737
G0 F1440 X62.751 Y61.62
G1 F1080 X62.248 Y61.117 E3.65103
G0 F1440 X62.751 Y61.054
G1 F1080 X62.248 Y60.551 E3.67469
G0 F1440 X62.751 Y60.488
G1 F1080 X62.248 Y59.985 E3.69835
G0 F1440 X62.751 Y59.923
G1 F1080 X62.248 Y59.42 E3.72201
G0 F1440 X62.751 Y59.357
G1 F1080 X62.248 Y58.854 E3.74567
G0 F1440 X62.751 Y58.791
G1 F1080 X62.248 Y58.288 E3.76933
G0 F1440 X62.751 Y58.226
G1 F1080 X62.248 Y57.723 E3.79299
G0 F1440 X62.751 Y57.66
G1 F1080 X62.248 Y57.156 E3.81667
G0 F1440 X62.751 Y57.094
G1 F1080 X62.248 Y56.591 E3.84033
G0 F1440 X62.751 Y56.528
G1 F1080 X62.248 Y56.025 E3.86399
G0 F1440 X62.751 Y55.963
G1 F1080 X62.248 Y55.459 E3.88768
G0 F1440 X62.751 Y55.397
G1 F1080 X62.248 Y54.894 E3.91133
G0 F1440 X62.751 Y54.831
G1 F1080 X62.248 Y54.328 E3.93499
G0 F1440 X62.751 Y54.266
G1 F1080 X62.248 Y53.762 E3.95868
G0 F1440 X62.751 Y53.7
G1 F1080 X62.248 Y53.197 E3.98234
G0 F1440 X62.751 Y53.134
G1 F1080 X62.248 Y52.631 E4.006
G0 F1440 X62.751 Y52.569
G1 F1080 X62.248 Y52.065 E4.02968
G0 F1440 X62.751 Y52.003
G1 F1080 X62.248 Y51.5 E4.05334
G0 F1440 X62.751 Y51.437
G1 F1080 X62.248 Y50.934 E4.077
G0 F1440 X62.751 Y50.872
G1 F1080 X62.248 Y50.368 E4.10068
G0 F1440 X62.751 Y50.306
G1 F1080 X62.248 Y49.802 E4.12437
G0 F1440 X62.513 Y49.503
G1 F1080 X62.751 Y49.74 E4.13554
G0 F1440 X62.75 Y72.366
G1 F1080 X62.471 Y72.088 E4.14864
G0 F1440 X62.247 Y72.429
G1 F1080 X62.75 Y72.932 E4.1723
G0 F1440 X62.247 Y72.995
G1 F1080 X62.75 Y73.498 E4.19596
G0 F1440 X62.247 Y73.561
G1 F1080 X62.75 Y74.063 E4.21959
G0 F1440 X62.247 Y74.126
G1 F1080 X62.75 Y74.629 E4.24325
G0 F1440 X62.247 Y74.692
G1 F1080 X62.75 Y75.195 E4.26691
G0 F1440 X62.485 Y75.496
G1 F1080 X62.247 Y75.258 E4.27811
G0 F1440 X62.96 Y71.728
G0 X62.929 Y71.698
;TYPE:SKIN
G1 F1080 X63.017 Y71.503 E4.28236
G1 X63.017 Y66.412 E4.38366
G1 X63.071 Y66.182 E4.38836
M104 S208
G0 F1440 X63.105 Y66.246
;MESH:NONMESH
G0 F600 X63.105 Y66.246 Z0.36
G0 F1440 X63.105 Y65.939
;TIME_ELAPSED:15.565054
;LAYER:1
M106 S255
;TYPE:WALL-INNER
;MESH:holder-front.stl
G1 F1140 X61.382 Y65.939 E4.4342
G1 X61.382 Y49.323 E4.87632
G1 X63.618 Y49.323 E4.93582
G1 X63.618 Y75.677 E5.63705
G1 X61.382 Y75.677 E5.69655
G1 X61.382 Y71.909 E5.7968
G1 X63.105 Y71.909 E5.84265
G1 X63.105 Y65.939 E6.0015
G0 F2220 X62.705 Y66.339
;TYPE:WALL-OUTER
G1 F990 X60.982 Y66.339 E6.04735
G1 X60.982 Y48.923 E6.51075
G1 X64.018 Y48.923 E6.59154
G1 X64.018 Y76.077 E7.31405
G1 X60.982 Y76.077 E7.39483
G1 X60.982 Y71.509 E7.51638
G1 X62.705 Y71.509 E7.56223
G1 X62.705 Y66.339 E7.69979
G0 F2220 X62.505 Y66.339
G0 X62.505 Y65.839
G0 X63.133 Y65.911
G0 X63.096 Y75.496
;TYPE:SKIN
G1 F1290 X63.437 Y75.155 E7.71262
G0 F2220 X63.437 Y74.589
G1 F1290 X62.53 Y75.496 E7.74675
G0 F2220 X61.965 Y75.496
G1 F1290 X63.437 Y74.024 E7.80214
G0 F2220 X63.437 Y73.458
G1 F1290 X61.562 Y75.333 E7.8727
G0 F2220 X61.562 Y74.768
G1 F1290 X63.437 Y72.892 E7.94327
G0 F2220 X63.437 Y72.327
G1 F1290 X61.562 Y74.202 E8.01383
G0 F2220 X61.562 Y73.636
G1 F1290 X63.11 Y72.088 E8.07208
G0 F2220 X63.284 Y71.914
G1 F1290 X63.437 Y71.761 E8.07784
G0 F2220 X63.284 Y71.348
G1 F1290 X63.437 Y71.195 E8.08359
G0 F2220 X63.284 Y70.782
G1 F1290 X63.437 Y70.63 E8.08933
G0 F2220 X63.284 Y70.217
G1 F1290 X63.437 Y70.064 E8.09509
G0 F2220 X63.284 Y69.651
G1 F1290 X63.437 Y69.498 E8.10085
G0 F2220 X63.284 Y69.085
G1 F1290 X63.437 Y68.933 E8.10658
G0 F2220 X63.284 Y68.52
G1 F1290 X63.437 Y68.367 E8.11234
G0 F2220 X63.284 Y67.954
G1 F1290 X63.437 Y67.801 E8.1181
G0 F2220 X63.284 Y67.388
G1 F1290 X63.437 Y67.235 E8.12386
G0 F2220 X63.284 Y66.823
G1 F1290 X63.437 Y66.67 E8.12961
G0 F2220 X63.284 Y66.257
G1 F1290 X63.437 Y66.104 E8.13537
G0 F2220 X63.218 Y65.758
G1 F1290 X63.437 Y65.538 E8.14363
G0 F2220 X63.437 Y64.973
G1 F1290 X62.652 Y65.758 E8.17317
G0 F2220 X62.086 Y65.758
G1 F1290 X63.437 Y64.407 E8.22401
G0 F2220 X63.437 Y63.841
G1 F1290 X61.562 Y65.717 E8.29458
G0 F2220 X61.562 Y65.151
G1 F1290 X63.437 Y63.276 E8.36514
G0 F2220 X63.437 Y62.71
G1 F1290 X61.562 Y64.585 E8.43569
G0 F2220 X61.562 Y64.02
G1 F1290 X63.437 Y62.144 E8.50627
G0 F2220 X63.437 Y61.579
G1 F1290 X61.562 Y63.454 E8.57682
G0 F2220 X61.562 Y62.888
G1 F1290 X63.437 Y61.013 E8.64738
G0 F2220 X63.437 Y60.447
G1 F1290 X61.562 Y62.322 E8.71793
G0 F2220 X61.562 Y61.757
G1 F1290 X63.437 Y59.882 E8.78849
G0 F2220 X63.437 Y59.316
G1 F1290 X61.562 Y61.191 E8.85904
G0 F2220 X61.562 Y60.625
G1 F1290 X63.437 Y58.75 E8.9296
G0 F2220 X63.437 Y58.184
G1 F1290 X61.562 Y60.06 E9.00017
G0 F2220 X61.562 Y59.494
G1 F1290 X63.437 Y57.619 E9.07073
G0 F2220 X63.437 Y57.053
G1 F1290 X61.562 Y58.928 E9.14128
G0 F2220 X61.562 Y58.363
G1 F1290 X63.437 Y56.487 E9.21186
G0 F2220 X63.437 Y55.922
G1 F1290 X61.562 Y57.797 E9.28241
G0 F2220 X61.562 Y57.231
G1 F1290 X63.437 Y55.356 E9.35297
G0 F2220 X63.437 Y54.79
G1 F1290 X61.562 Y56.666 E9.42354
G0 F2220 X61.562 Y56.1
G1 F1290 X63.437 Y54.225 E9.4941
G0 F2220 X63.437 Y53.659
G1 F1290 X61.562 Y55.534 E9.56465
G0 F2220 X61.562 Y54.969
G1 F1290 X63.437 Y53.093 E9.63523
G0 F2220 X63.437 Y52.528
G1 F1290 X61.562 Y54.403 E9.70578
G0 F2220 X61.562 Y53.837
G1 F1290 X63.437 Y51.962 E9.77634
G0 F2220 X63.437 Y51.396
G1 F1290 X61.562 Y53.272 E9.84691
G0 F2220 X61.562 Y52.706
G1 F1290 X63.437 Y50.831 E9.91747
G0 F2220 X63.437 Y50.265
G1 F1290 X61.562 Y52.14 E9.98802
G0 F2220 X61.562 Y51.574
G1 F1290 X63.437 Y49.699 E10.05858
G0 F2220 X63.068 Y49.502
G1 F1290 X61.562 Y51.009 E10.11527
G0 F2220 X61.562 Y50.443
G1 F1290 X62.503 Y49.502 E10.15068
G0 F2220 X61.937 Y49.502
G1 F1290 X61.562 Y49.877 E10.16479
G0 F2220 X63.133 Y65.911
G0 X63.133 Y71.937
G0 X61.979 Y72.088
G1 F1290 X61.562 Y72.505 E10.18048
G0 F2220 X61.562 Y73.071
G1 F1290 X62.545 Y72.088 E10.21747
G1 X62.615 Y72.018
G0 F2220 X62.615 Y72.309
;MESH:NONMESH
G0 F600 X62.615 Y72.309 Z0.52
G0 F2220 X63.133 Y71.937
G0 X63.175 Y65.869
G0 X63.105 Y65.939
;TIME_ELAPSED:29.765427
;LAYER:2
;TYPE:WALL-INNER
;MESH:holder-front.stl
G1 F1200 X60.961 Y65.939 E10.27452
G1 X60.961 Y49.323 E10.71664
G1 X64.039 Y49.323 E10.79854
G1 X64.038 Y75.677 E11.49977
G1 X60.962 Y75.677 E11.58161
G1 X60.962 Y71.909 E11.68187
G1 X63.105 Y71.909 E11.7389
G1 X63.105 Y65.939 E11.89775
G0 F3000 X62.705 Y66.339
;TYPE:WALL-OUTER
G1 F900 X60.561 Y66.339 E11.95479
G1 X60.561 Y48.923 E12.4182
G1 X64.439 Y48.923 E12.52139
G1 X64.438 Y76.077 E13.2439
G1 X60.562 Y76.077 E13.34704
G1 X60.562 Y71.509 E13.46858
G1 X62.705 Y71.509 E13.5256
G1 X62.705 Y66.339 E13.66317
G0 F3000 X62.505 Y66.339
G0 X62.505 Y65.839
G0 X63.133 Y65.911
G0 X63.133 Y71.937
G0 X61.354 Y75.496
;TYPE:SKIN
G1 F1500 X61.142 Y75.284 E13.67114
G0 F3000 X61.142 Y74.718
G1 F1500 X61.919 Y75.496 E13.7004
G0 F3000 X62.485 Y75.496
G1 F1500 X61.142 Y74.152 E13.75096
G0 F3000 X61.142 Y73.587
G1 F1500 X63.051 Y75.496 E13.82279
G0 F3000 X63.616 Y75.496
G1 F1500 X61.142 Y73.021 E13.91591
G0 F3000 X61.142 Y72.455
G1 F1500 X63.858 Y75.171 E14.01811
G0 F3000 X63.858 Y74.606
G1 F1500 X61.34 Y72.088 E14.11286
G0 F3000 X61.905 Y72.088
G1 F1500 X63.858 Y74.04 E14.18633
G0 F3000 X63.858 Y73.474
G1 F1500 X62.471 Y72.088 E14.2385
G0 F3000 X63.037 Y72.088
G1 F1500 X63.858 Y72.909 E14.2694
G0 F3000 X63.858 Y72.343
G1 F1500 X63.284 Y71.769 E14.291
G0 F3000 X63.284 Y71.204
G1 F1500 X63.858 Y71.777 E14.31258
G0 F3000 X63.858 Y71.212
G1 F1500 X63.284 Y70.638 E14.33418
G0 F3000 X63.284 Y70.072
G1 F1500 X63.858 Y70.646 E14.35578
G0 F3000 X63.858 Y70.08
G1 F1500 X63.284 Y69.507 E14.37736
G0 F3000 X63.284 Y68.941
G1 F1500 X63.858 Y69.514 E14.39894
G0 F3000 X63.858 Y68.949
G1 F1500 X63.284 Y68.375 E14.42054
G0 F3000 X63.284 Y67.81
G1 F1500 X63.858 Y68.383 E14.44212
G0 F3000 X63.858 Y67.817
G1 F1500 X63.284 Y67.244 E14.4637
G0 F3000 X63.284 Y66.678
G1 F1500 X63.858 Y67.252 E14.4853
G0 F3000 X63.858 Y66.686
G1 F1500 X63.284 Y66.113 E14.50688
G0 F3000 X62.929 Y65.758
G1 F1500 X61.14 Y63.969 E14.5742
G0 F3000 X61.14 Y64.534
G1 F1500 X62.363 Y65.758 E14.62024
G0 F3000 X61.798 Y65.758
G1 F1500 X61.14 Y65.1 E14.645
G0 F3000 X61.14 Y65.666
G1 F1500 X61.232 Y65.758 E14.64846
G0 F3000 X61.14 Y63.403
G1 F1500 X63.858 Y66.12 E14.75072
G0 F3000 X63.858 Y65.555
G1 F1500 X61.14 Y62.837 E14.85299
G0 F3000 X61.14 Y62.272
G1 F1500 X63.858 Y64.989 E14.95525
G0 F3000 X63.858 Y64.423
G1 F1500 X61.14 Y61.706 E15.05751
G0 F3000 X61.14 Y61.14
G1 F1500 X63.858 Y63.858 E15.15979
G0 F3000 X63.858 Y63.292
G1 F1500 X61.14 Y60.575 E15.26205
G0 F3000 X61.14 Y60.009
G1 F1500 X63.858 Y62.726 E15.3643
G0 F3000 X63.858 Y62.161
G1 F1500 X61.14 Y59.443 E15.46658
G0 F3000 X61.14 Y58.877
G1 F1500 X63.858 Y61.596 E15.56888
G0 F3000 X63.858 Y61.03
G1 F1500 X61.14 Y58.312 E15.67115
G0 F3000 X61.14 Y57.746
G1 F1500 X63.858 Y60.464 E15.77343
G0 F3000 X63.858 Y59.899
G1 F1500 X61.14 Y57.18 E15.87573
G0 F3000 X61.14 Y56.615
G1 F1500 X63.858 Y59.333 E15.97801
G0 F3000 X63.858 Y58.767
G1 F1500 X61.14 Y56.049 E16.08028
G0 F3000 X61.14 Y55.483
G1 F1500 X63.858 Y58.201 E16.18256
G0 F3000 X63.858 Y57.636
G1 F1500 X61.14 Y54.918 E16.28484
G0 F3000 X61.14 Y54.352
G1 F1500 X63.858 Y57.07 E16.38711
G0 F3000 X63.858 Y56.504
G1 F1500 X61.14 Y53.786 E16.48939
G0 F3000 X61.14 Y53.221
G1 F1500 X63.858 Y55.939 E16.59167
G0 F3000 X63.858 Y55.373
G1 F1500 X61.14 Y52.655 E16.69394
G0 F3000 X61.14 Y52.089
G1 F1500 X63.858 Y54.807 E16.79622
G0 F3000 X63.858 Y54.242
G1 F1500 X61.14 Y51.524 E16.8985
G0 F3000 X61.14 Y50.958
G1 F1500 X63.858 Y53.676 E17.00078
G0 F3000 X63.858 Y53.11
G1 F1500 X61.14 Y50.392 E17.10305
G0 F3000 X61.14 Y49.826
G1 F1500 X63.858 Y52.545 E17.20535
G0 F3000 X63.858 Y51.979
G1 F1500 X61.382 Y49.503 E17.29852
G0 F3000 X61.948 Y49.503
G1 F1500 X63.858 Y51.413 E17.37039
G0 F3000 X63.858 Y50.848
G1 F1500 X62.513 Y49.503 E17.421
G0 F3000 X63.079 Y49.503
G1 F1500 X63.858 Y50.282 E17.45032
G0 F3000 X63.858 Y49.716
G1 F1500 X63.645 Y49.503 E17.45833
G0 F3000 X63.639 Y49.723
;MESH:NONMESH
G0 F600 X63.639 Y49.723 Z0.68
G0 F3000 X63.175 Y65.869
G0 X63.105 Y65.939
;TIME_ELAPSED:45.646929
;LAYER:3
;TYPE:WALL-INNER
;MESH:holder-front.stl
G1 F1200 X60.621 Y65.939 E17.52443
G1 X60.623 Y49.323 E17.96655
G1 X64.379 Y49.323 E18.06649
G1 X64.378 Y75.677 E18.76772
G1 X60.622 Y75.677 E18.86766
G1 X60.621 Y71.909 E18.96792
G1 X63.105 Y71.909 E19.03401
G1 X63.105 Y65.939 E19.19286
G0 F3000 X62.705 Y66.339
;TYPE:WALL-OUTER
G1 F900 X60.221 Y66.339 E19.25896
G1 X60.223 Y48.923 E19.72236
G1 X64.779 Y48.923 E19.84359
G1 X64.778 Y76.077 E20.56611
G1 X60.222 Y76.077 E20.68733
G1 X60.221 Y71.509 E20.80888
G1 X62.705 Y71.509 E20.87497
G1 X62.705 Y66.339 E21.01254
G0 F3000 X62.505 Y66.339
G0 X62.505 Y65.839
G0 X63.133 Y65.911
G0 X63.662 Y75.496
;TYPE:SKIN
G1 F1500 X64.198 Y74.96 E21.03271
G0 F3000 X64.198 Y74.394
G1 F1500 X63.096 Y75.496 E21.07417
G0 F3000 X62.53 Y75.496
G1 F1500 X64.198 Y73.829 E21.13692
G0 F3000 X64.198 Y73.263
G1 F1500 X61.965 Y75.496 E21.22095
G0 F3000 X61.399 Y75.496
G1 F1500 X64.198 Y72.697 E21.32627
G0 F3000 X64.198 Y72.131
G1 F1500 X60.833 Y75.496 E21.4529
G0 F3000 X60.801 Y74.962
G1 F1500 X64.198 Y71.566 E21.58071
G0 F3000 X64.198 Y71
G1 F1500 X63.284 Y71.914 E21.6151
G0 F3000 X63.11 Y72.088
G1 F1500 X60.801 Y74.396 E21.70197
G0 F3000 X60.801 Y73.831
G1 F1500 X62.545 Y72.088 E21.76757
G0 F3000 X61.979 Y72.088
G1 F1500 X60.801 Y73.265 E21.81188
G0 F3000 X60.801 Y72.699
G1 F1500 X61.413 Y72.088 E21.83489
G1 X61.483 Y72.018
G0 F3000 X63.133 Y71.937
G0 X63.284 Y71.348
G1 F1500 X64.198 Y70.434 E21.86929
G0 F3000 X64.198 Y69.869
G1 F1500 X63.284 Y70.782 E21.90366
G0 F3000 X63.284 Y70.217
G1 F1500 X64.198 Y69.303 E21.93805
G0 F3000 X64.198 Y68.737
G1 F1500 X63.284 Y69.651 E21.97245
G0 F3000 X63.284 Y69.085
G1 F1500 X64.198 Y68.172 E22.00682
G0 F3000 X64.198 Y67.606
G1 F1500 X63.284 Y68.52 E22.04122
G0 F3000 X63.284 Y67.954
G1 F1500 X64.198 Y67.04 E22.07561
G0 F3000 X64.198 Y66.475
G1 F1500 X63.284 Y67.388 E22.10998
G0 F3000 X63.284 Y66.823
G1 F1500 X64.198 Y65.909 E22.14438
G0 F3000 X64.198 Y65.343
G1 F1500 X63.284 Y66.257 E22.17877
G0 F3000 X63.218 Y65.758
G1 F1500 X64.198 Y64.778 E22.21565
G0 F3000 X64.198 Y64.212
G1 F1500 X62.652 Y65.758 E22.27382
G0 F3000 X62.086 Y65.758
G1 F1500 X64.198 Y63.646 E22.3533
G0 F3000 X64.198 Y63.08
G1 F1500 X61.521 Y65.758 E22.45405
G0 F3000 X60.955 Y65.758
G1 F1500 X64.198 Y62.515 E22.57608
G0 F3000 X64.198 Y61.949
G1 F1500 X60.801 Y65.345 E22.70389
G0 F3000 X60.801 Y64.78
G1 F1500 X64.198 Y61.383 E22.83172
G0 F3000 X64.198 Y60.818
G1 F1500 X60.801 Y64.214 E22.95953
G0 F3000 X60.801 Y63.648
G1 F1500 X64.198 Y60.252 E23.08734
G0 F3000 X64.198 Y59.686
G1 F1500 X60.801 Y63.083 E23.21516
G0 F3000 X60.801 Y62.517
G1 F1500 X64.198 Y59.121 E23.34297
G0 F3000 X64.198 Y58.555
G1 F1500 X60.801 Y61.951 E23.47078
G0 F3000 X60.801 Y61.386
G1 F1500 X64.198 Y57.989 E23.59861
G0 F3000 X64.198 Y57.424
G1 F1500 X60.801 Y60.82 E23.72642
G0 F3000 X60.801 Y60.254
G1 F1500 X64.198 Y56.858 E23.85423
G0 F3000 X64.198 Y56.292
G1 F1500 X60.801 Y59.689 E23.98205
G0 F3000 X60.801 Y59.123
G1 F1500 X64.198 Y55.727 E24.10986
G0 F3000 X64.198 Y55.161
G1 F1500 X60.801 Y58.557 E24.23767
G0 F3000 X60.801 Y57.991
G1 F1500 X64.198 Y54.595 E24.36548
G0 F3000 X64.198 Y54.03
G1 F1500 X60.802 Y57.425 E24.49325
G0 F3000 X60.802 Y56.859
G1 F1500 X64.198 Y53.464 E24.62102
G0 F3000 X64.198 Y52.898
G1 F1500 X60.802 Y56.294 E24.74881
G0 F3000 X60.802 Y55.728
G1 F1500 X64.198 Y52.332 E24.8766
G0 F3000 X64.198 Y51.767
G1 F1500 X60.802 Y55.162 E25.00437
G0 F3000 X60.802 Y54.597
G1 F1500 X64.198 Y51.201 E25.13216
G0 F3000 X64.198 Y50.635
G1 F1500 X60.802 Y54.031 E25.25995
G0 F3000 X60.802 Y53.465
G1 F1500 X64.198 Y50.07 E25.38772
G0 F3000 X64.198 Y49.504
G1 F1500 X60.802 Y52.9 E25.51551
G0 F3000 X60.802 Y52.334
G1 F1500 X63.633 Y49.503 E25.62204
G0 F3000 X63.068 Y49.503
G1 F1500 X60.802 Y51.768 E25.70729
G0 F3000 X60.802 Y51.203
G1 F1500 X62.502 Y49.503 E25.77126
G0 F3000 X61.936 Y49.503
G1 F1500 X60.802 Y50.637 E25.81394
G0 F3000 X60.802 Y50.071
G1 F1500 X61.371 Y49.503 E25.83533
G1 X61.441 Y49.433
G0 F3000 X61.441 Y49.723
;MESH:NONMESH
G0 F600 X61.441 Y49.723 Z0.84
G0 F3000 X63.175 Y65.869
G0 X63.105 Y65.939
;TIME_ELAPSED:63.309442
;LAYER:4
;TYPE:WALL-INNER
;MESH:holder-front.stl
G1 F1200 X60.33 Y65.939 E25.90917
G1 X60.33 Y50.791 E26.31223
G1 X60.333 Y49.323 E26.35129
G1 X64.67 Y49.323 E26.46669
