;FLAVOR:Marlin
;TIME:6666
;Filament used: 0m
;Layer height: 0.2

;Generated with Cura_SteamEngine 3.6.0
M82 ;absolute extrusion mode
;Start GCode begin
M104 S200 ;Set Hotend Temperature
M140 S50 ;Set Bed Temperature
M109 ;Wait for Hotend Temperature
M190 ;Wait for Bed Temperature
G28 ;Home
G90 ;absolute positioning
G1 X-4 Y-4
G1 Z0 F3000
G92 E0
G1 F200 E20
G92 E0
;Start GCode end
G92 E0
G1 F1500 E-6.5
;LAYER_COUNT:569
;LAYER:0
M107
G0 F900 X39.301 Y32.032 Z0.3
;TYPE:SKIRT
G1 F1500 E0
G1 F480 X39.639 Y31.616 E0.02674
G1 X40.036 Y31.256 E0.05348
G1 X40.482 Y30.958 E0.08024
G1 X40.967 Y30.729 E0.107
G1 X41.481 Y30.576 E0.13375
G1 X41.973 Y30.503 E0.15857
G1 X44.056 Y30.341 E0.2628
G1 X49.505 Y29.706 E0.53649
G1 X54.892 Y28.768 E0.8093
G1 X60.198 Y27.531 E1.08111
G1 X62.796 Y26.808 E1.21565
G1 X68.02 Y25.113 E1.48966
G1 X71.716 Y23.712 E1.68685
G1 X72.23 Y23.56 E1.71359
G1 X72.761 Y23.485 E1.74035
G1 X73.298 Y23.491 E1.76714
G1 X73.827 Y23.576 E1.79387
G1 X74.338 Y23.739 E1.82063
G1 X74.819 Y23.976 E1.84738
G1 X75.26 Y24.282 E1.87416
G1 X75.59 Y24.586 E1.89655
G1 X78.978 Y28.117 E2.14069
G1 X82.966 Y31.859 E2.41352
G1 X85.015 Y33.623 E2.54841
G1 X89.305 Y37.011 E2.82113
G1 X93.769 Y40.145 E3.09325
G1 X96.063 Y41.614 E3.22915
G1 X99.475 Y43.637 E3.42705
G1 X99.915 Y43.944 E3.45382
G1 X100.304 Y44.313 E3.48057
G1 X100.634 Y44.736 E3.50733
G1 X100.898 Y45.203 E3.5341
G1 X101.089 Y45.704 E3.56085
G1 X101.203 Y46.228 E3.5876
G1 X101.239 Y46.763 E3.61435
G1 X101.208 Y47.208 E3.63661
G1 X100.558 Y52.091 E3.88237
G1 X100.122 Y57.542 E4.15519
G1 X99.995 Y62.985 E4.42682
G1 X100.177 Y68.443 E4.69927
G1 X100.667 Y73.872 E4.97122
G1 X101.206 Y77.773 E5.16769
G1 X101.24 Y78.308 E5.19444
G1 X101.194 Y78.842 E5.22118
G1 X101.069 Y79.364 E5.24796
G1 X100.867 Y79.861 E5.27472
G1 X100.595 Y80.323 E5.30147
G1 X100.256 Y80.739 E5.32824
G1 X99.86 Y81.1 E5.35498
G1 X99.45 Y81.378 E5.37969
G1 X97.658 Y82.42 E5.48311
G1 X93.008 Y85.364 E5.75768
G1 X88.583 Y88.533 E6.02922
G1 X84.326 Y91.96 E6.30187
G1 X80.304 Y95.59 E6.57217
G1 X75.562 Y100.438 E6.91051
G1 X75.159 Y100.793 E6.9373
G1 X74.709 Y101.083 E6.96401
G1 X74.22 Y101.304 E6.99078
G1 X73.703 Y101.449 E7.01757
G1 X73.171 Y101.516 E7.04432
G1 X72.635 Y101.504 E7.07107
G1 X72.107 Y101.412 E7.09781
G1 X71.681 Y101.275 E7.12013
G1 X69.776 Y100.533 E7.22213
G1 X64.587 Y98.737 E7.49608
G1 X59.345 Y97.25 E7.76792
G1 X53.977 Y96.048 E8.04236
G1 X51.354 Y95.578 E8.17531
G1 X45.915 Y94.839 E8.44915
G1 X41.941 Y94.493 E8.64817
G1 X41.411 Y94.407 E8.67496
G1 X40.901 Y94.243 E8.70168
G1 X40.42 Y94.006 E8.72844
G1 X39.98 Y93.699 E8.7552
G1 X39.591 Y93.33 E8.78195
G1 X39.26 Y92.908 E8.80871
G1 X38.996 Y92.441 E8.83547
G1 X38.831 Y92.025 E8.8578
G1 X37.323 Y87.41 E9.10002
G1 X35.354 Y82.306 E9.37295
G1 X33.11 Y77.345 E9.6446
G1 X30.581 Y72.504 E9.91709
G1 X27.779 Y67.809 E10.18987
G1 X25.575 Y64.492 E10.38856
G1 X25.312 Y64.025 E10.4153
G1 X25.122 Y63.524 E10.44203
G1 X25.008 Y62.999 E10.46883
G1 X24.973 Y62.464 E10.49558
G1 X25.018 Y61.93 E10.52231
G1 X25.143 Y61.408 E10.54909
G1 X25.343 Y60.911 E10.57582
G1 X25.593 Y60.48 E10.60068
G1 X26.744 Y58.783 E10.70298
G1 X29.652 Y54.117 E10.97728
G1 X32.265 Y49.347 E11.24862
G1 X34.614 Y44.413 E11.52125
G1 X36.697 Y39.321 E11.79573
G1 X37.597 Y36.815 E11.92857
G1 X38.826 Y32.99 E12.12901
G1 X39.027 Y32.494 E12.15571
G1 X39.301 Y32.032 E12.18251
G0 F900 X39.662 Y32.214
G1 F480 X39.99 Y31.829 E12.20774
G1 X40.375 Y31.501 E12.23297
G1 X40.807 Y31.238 E12.25821
G1 X41.274 Y31.045 E12.28342
G1 X42.005 Y30.902 E12.32058
G1 X44.079 Y30.74 E12.42436
G1 X49.568 Y30.101 E12.70006
G1 X54.98 Y29.159 E12.97413
G1 X60.276 Y27.924 E13.24543
G1 X62.907 Y27.192 E13.38168
G1 X68.165 Y25.486 E13.65746
G1 X71.858 Y24.086 E13.8545
G1 X72.343 Y23.944 E13.87972
G1 X72.845 Y23.881 E13.90496
G1 X73.35 Y23.898 E13.93017
G1 X73.847 Y23.994 E13.95542
G1 X74.322 Y24.167 E13.98064
G1 X74.763 Y24.413 E14.00583
G1 X75.301 Y24.863 E14.04083
G1 X78.688 Y28.394 E14.28493
G1 X82.703 Y32.16 E14.55957
G1 X84.764 Y33.935 E14.69527
G1 X89.053 Y37.322 E14.96792
G1 X93.567 Y40.491 E15.24308
G1 X95.845 Y41.949 E15.37802
G1 X99.271 Y43.981 E15.57674
G1 X99.685 Y44.272 E15.60199
G1 X100.047 Y44.625 E15.62722
G1 X100.349 Y45.03 E15.65242
G1 X100.583 Y45.478 E15.67764
G1 X100.744 Y45.958 E15.7029
G1 X100.827 Y46.456 E15.72808
G1 X100.811 Y47.155 E15.76297
G1 X100.161 Y52.044 E16.00903
G1 X99.723 Y57.518 E16.283
G1 X99.595 Y62.989 E16.55602
G1 X99.777 Y68.456 E16.82892
G1 X100.27 Y73.921 E17.10268
G1 X100.81 Y77.828 E17.29945
G1 X100.839 Y78.332 E17.32464
G1 X100.789 Y78.835 E17.34986
G1 X100.66 Y79.324 E17.37509
G1 X100.456 Y79.787 E17.40033
G1 X100.181 Y80.211 E17.42554
G1 X99.843 Y80.587 E17.45077
G1 X99.249 Y81.032 E17.4878
G1 X97.452 Y82.077 E17.59151
G1 X92.787 Y85.03 E17.86695
G1 X88.344 Y88.212 E18.1396
G1 X84.071 Y91.652 E18.41328
G1 X80.011 Y95.317 E18.68616
G1 X75.276 Y100.158 E19.024
G1 X74.895 Y100.491 E19.04924
G1 X74.466 Y100.759 E19.07448
G1 X74.001 Y100.956 E19.09967
G1 X73.51 Y101.078 E19.12491
G1 X73.006 Y101.121 E19.15015
G1 X72.502 Y101.084 E19.17536
G1 X71.826 Y100.903 E19.21028
G1 X69.895 Y100.151 E19.31366
G1 X64.701 Y98.353 E19.58788
G1 X59.454 Y96.865 E19.85997
G1 X54.048 Y95.654 E20.13636
G1 X51.428 Y95.185 E20.26915
G1 X45.963 Y94.442 E20.54431
G1 X41.975 Y94.095 E20.74403
G1 X41.477 Y94.011 E20.76922
G1 X40.998 Y93.85 E20.79443
G1 X40.55 Y93.616 E20.81965
G1 X40.144 Y93.314 E20.8449
G1 X39.791 Y92.952 E20.87012
G1 X39.5 Y92.539 E20.89533
G1 X39.211 Y91.901 E20.93027
G1 X37.694 Y87.257 E21.17401
G1 X35.725 Y82.154 E21.44689
G1 X33.472 Y77.174 E21.71959
G1 X30.936 Y72.319 E21.99286
G1 X28.117 Y67.595 E22.26731
G1 X25.908 Y64.271 E22.46643
G1 X25.662 Y63.829 E22.49167
G1 X25.489 Y63.354 E22.51689
G1 X25.393 Y62.858 E22.54209
G1 X25.376 Y62.352 E22.56735
G1 X25.44 Y61.851 E22.59255
G1 X25.581 Y61.365 E22.61779
G1 X25.924 Y60.704 E22.65495
G1 X27.081 Y58.997 E22.75783
G1 X29.996 Y54.321 E23.03273
G1 X32.631 Y49.512 E23.30631
G1 X34.975 Y44.587 E23.57843
G1 X37.066 Y39.475 E23.85398
G1 X37.974 Y36.946 E23.98804
G1 X39.206 Y33.113 E24.1889
G1 X39.399 Y32.645 E24.21416
G1 X39.662 Y32.214 E24.23935
G1 F1500 E17.73935
;MESH:/Users/x/Library/Application Support/snapmakerjs/Tmp/simple-christmas-tree_20201205183732171.stl
G0 F900 X41.919 Y33.193
G0 X60.416 Y42.827
G0 X60.786 Y44.452
G0 X76.398 Y48.089
G0 X76.461 Y48.011
;TYPE:WALL-INNER
G1 F1500 E24.23935
G1 F480 X95.867 Y47.387 E25.20802
G1 X96.317 Y47.373 E25.23048
G1 X96.025 Y47.716 E25.24268
G1 X83.439 Y62.5 E26.21134
G1 X96.025 Y77.284 E27.17999
G1 X96.317 Y77.627 E27.20247
G1 X95.867 Y77.613 E27.21466
G1 X76.461 Y76.989 E28.18333
G1 X72.751 Y96.047 E29.15199
G1 X72.665 Y96.489 E29.17445
G1 X72.396 Y96.128 E29.18664
G1 X60.782 Y80.567 E30.15537
G1 X43.568 Y89.55 E31.12409
G1 X43.169 Y89.758 E31.14653
G1 X43.282 Y89.323 E31.15871
G1 X43.283 Y89.322 E31.15878
G1 X48.21 Y70.541 E32.12747
G1 X30.456 Y62.682 E33.09612
G1 X30.044 Y62.5 E33.11859
G1 X30.456 Y62.318 E33.13078
G1 X48.21 Y54.459 E34.09943
G1 X43.283 Y35.678 E35.06812
G1 X43.282 Y35.677 E35.0682
G1 X43.169 Y35.242 E35.09062
G1 X43.568 Y35.45 E35.1028
G1 X60.782 Y44.433 E36.07152
G1 X72.396 Y28.872 E37.04025
G1 X72.665 Y28.511 E37.06271
G1 X72.751 Y28.953 E37.0749
G1 X76.461 Y48.011 E38.04356
G0 F900 X76.789 Y47.6
;TYPE:WALL-OUTER
G1 F480 X96.758 Y46.958 E39.04033
G1 X97.208 Y46.944 E39.06279
G1 X96.916 Y47.287 E39.07499
G1 X83.964 Y62.5 E40.07178
G1 X96.916 Y77.713 E41.06858
G1 X97.208 Y78.056 E41.09105
G1 X96.758 Y78.042 E41.10324
G1 X76.789 Y77.4 E42.10001
G1 X72.971 Y97.011 E43.09678
G1 X72.885 Y97.453 E43.11924
G1 X72.616 Y97.092 E43.13144
G1 X60.665 Y81.079 E44.12829
G1 X42.952 Y90.323 E45.1251
G1 X42.553 Y90.531 E45.14755
G1 X42.666 Y90.096 E45.15972
G1 X42.667 Y90.095 E45.15979
G1 X47.737 Y70.769 E46.1566
G1 X29.467 Y62.682 E47.1534
G1 X29.055 Y62.5 E47.17587
G1 X29.467 Y62.318 E47.18805
G1 X47.737 Y54.231 E48.18485
G1 X42.667 Y34.905 E49.18165
G1 X42.666 Y34.904 E49.18172
G1 X42.553 Y34.469 E49.20414
G1 X42.952 Y34.677 E49.21633
G1 X60.665 Y43.921 E50.21314
G1 X72.616 Y27.908 E51.21
G1 X72.885 Y27.547 E51.23246
G1 X72.971 Y27.989 E51.24465
G1 X76.789 Y47.6 E52.24142
G0 F900 X76.988 Y47.594
G0 X76.141 Y48.411
;TYPE:SKIN
G1 F480 X95.449 Y47.791 E53.2052
G1 X82.926 Y62.5 E54.16897
G1 X95.449 Y77.209 E55.13274
G1 X76.141 Y76.589 E56.09652
G1 X72.451 Y95.551 E57.06028
G1 X60.896 Y80.068 E58.02413
G1 X43.77 Y89.005 E58.98789
G1 X48.672 Y70.319 E59.95169
G1 X31.008 Y62.5 E60.91542
G1 X48.672 Y54.681 E61.87916
G1 X43.77 Y35.995 E62.84296
G1 X60.896 Y44.932 E63.80671
G1 X72.451 Y29.449 E64.77057
G1 X76.141 Y48.411 E65.73433
G0 F900 X94.996 Y48.044
G0 X94.967 Y48.015
G1 F480 X94.563 Y48.177 E65.76264
G0 F900 X93.843 Y48.023
G1 F480 X94.476 Y48.656 E65.8073
G0 F900 X94.216 Y48.961
G1 F480 X93.294 Y48.04 E65.87231
G0 F900 X92.746 Y48.057
G1 F480 X93.956 Y49.266 E65.95765
G0 F900 X93.695 Y49.572
G1 F480 X92.198 Y48.075 E66.06327
G0 F900 X91.65 Y48.093
G1 F480 X93.435 Y49.877 E66.18918
G0 F900 X93.175 Y50.183
G1 F480 X91.102 Y48.11 E66.33544
G0 F900 X90.554 Y48.128
G1 F480 X92.915 Y50.488 E66.50199
G0 F900 X92.655 Y50.794
G1 F480 X90.006 Y48.145 E66.68889
G0 F900 X89.458 Y48.163
G1 F480 X92.394 Y51.099 E66.89604
G0 F900 X92.135 Y51.405
G1 F480 X88.91 Y48.18 E67.12358
G0 F900 X88.362 Y48.198
G1 F480 X91.875 Y51.711 E67.37144
G0 F900 X91.614 Y52.016
G1 F480 X87.814 Y48.216 E67.63955
G0 F900 X87.266 Y48.233
G1 F480 X91.354 Y52.322 E67.92802
G0 F900 X91.094 Y52.627
G1 F480 X86.718 Y48.251 E68.23677
G0 F900 X86.169 Y48.268
G1 F480 X90.834 Y52.933 E68.56591
G0 F900 X90.574 Y53.238
G1 F480 X85.621 Y48.286 E68.91533
G0 F900 X85.073 Y48.303
G1 F480 X90.313 Y53.544 E69.28508
G0 F900 X90.053 Y53.849
G1 F480 X84.525 Y48.321 E69.67511
G0 F900 X83.977 Y48.339
G1 F480 X89.794 Y54.155 E70.08549
G0 F900 X89.533 Y54.461
G1 F480 X83.429 Y48.356 E70.5162
G0 F900 X82.88 Y48.373
G1 F480 X89.273 Y54.766 E70.96726
G0 F900 X89.013 Y55.072
G1 F480 X82.332 Y48.391 E71.43864
G0 F900 X81.784 Y48.409
G1 F480 X88.753 Y55.377 E71.93031
G0 F900 X88.492 Y55.683
G1 F480 X81.236 Y48.426 E72.44229
G0 F900 X80.688 Y48.444
G1 F480 X88.232 Y55.988 E72.97456
G0 F900 X87.972 Y56.294
G1 F480 X80.14 Y48.462 E73.52715
G0 F900 X79.591 Y48.479
G1 F480 X87.712 Y56.599 E74.1001
G0 F900 X87.452 Y56.905
G1 F480 X79.043 Y48.496 E74.6934
G0 F900 X78.495 Y48.514
G1 F480 X87.192 Y57.211 E75.30702
G0 F900 X86.932 Y57.516
G1 F480 X77.947 Y48.532 E75.94092
G0 F900 X77.399 Y48.549
G1 F480 X86.672 Y57.822 E76.59518
G0 F900 X86.411 Y58.127
G1 F480 X76.851 Y48.567 E77.26969
G0 F900 X76.303 Y48.584
G1 F480 X86.151 Y58.433 E77.96456
G0 F900 X85.891 Y58.738
G1 F480 X65.805 Y38.652 E79.38173
G0 F900 X65.563 Y38.976
G1 F480 X85.631 Y59.044 E80.79764
G0 F900 X85.371 Y59.349
G1 F480 X65.321 Y39.3 E82.21224
G0 F900 X65.079 Y39.624
G1 F480 X85.11 Y59.655 E83.62553
G0 F900 X84.851 Y59.961
G1 F480 X64.838 Y39.947 E85.03759
G0 F900 X64.597 Y40.272
G1 F480 X84.591 Y60.266 E86.44828
G0 F900 X84.33 Y60.572
G1 F480 X64.355 Y40.596 E87.85766
G0 F900 X64.113 Y40.92
G1 F480 X84.07 Y60.877 E89.26573
G0 F900 X83.81 Y61.183
G1 F480 X63.871 Y41.244 E90.67254
G0 F900 X63.629 Y41.567
G1 F480 X83.55 Y61.488 E92.07807
G0 F900 X83.29 Y61.794
G1 F480 X63.387 Y41.891 E93.48234
G0 F900 X63.146 Y42.215
G1 F480 X83.029 Y62.099 E94.88522
G0 F900 X82.769 Y62.405
G1 F480 X62.904 Y42.539 E96.28684
G0 F900 X62.662 Y42.863
G1 F480 X84.917 Y65.118 E97.85705
G1 X84.945 Y65.146
G0 F900 X88.16 Y68.927
G1 F480 X62.42 Y43.187 E99.67315
G0 F900 X62.178 Y43.511
G1 F480 X91.404 Y72.736 E101.73517
G1 X91.432 Y72.764
G0 F900 X91.028 Y76.886
G1 F480 X57.511 Y43.368 E104.10001
G1 X57.483 Y43.34
G0 F900 X56.327 Y42.75
G1 F480 X90.444 Y76.868 E106.50718
G1 X90.472 Y76.896
G0 F900 X91.613 Y76.905
G1 F480 X58.694 Y43.986 E108.82979
G1 X58.666 Y43.958
G0 F900 X59.877 Y44.603
G1 F480 X92.198 Y76.924 E111.11021
G0 F900 X92.782 Y76.943
G1 F480 X60.97 Y45.131 E113.35472
G0 F900 X61.212 Y44.807
G1 F480 X93.367 Y76.962 E115.62343
G0 F900 X93.951 Y76.98
G1 F480 X61.453 Y44.483 E117.91631
G0 F900 X61.695 Y44.159
G1 F480 X94.535 Y76.999 E120.23335
G0 F900 X94.646 Y76.545
G1 F480 X61.937 Y43.835 E122.54118
G1 X61.909 Y43.807
G0 F900 X66.047 Y38.328
G1 F480 X75.916 Y48.197 E123.23749
G0 F900 X75.779 Y47.495
G1 F480 X66.289 Y38.004 E123.90709
G0 F900 X66.53 Y37.681
G1 F480 X75.643 Y46.793 E124.55003
G0 F900 X75.506 Y46.09
G1 F480 X66.772 Y37.357 E125.16623
G0 F900 X67.014 Y37.033
G1 F480 X75.369 Y45.388 E125.75572
G0 F900 X75.233 Y44.686
G1 F480 X67.255 Y36.708 E126.31861
G0 F900 X67.497 Y36.384
G1 F480 X75.096 Y43.983 E126.85476
G0 F900 X74.959 Y43.281
G1 F480 X67.739 Y36.061 E127.36417
G0 F900 X67.981 Y35.737
G1 F480 X74.823 Y42.579 E127.84691
G0 F900 X74.686 Y41.876
G1 F480 X68.223 Y35.413 E128.30291
G0 F900 X68.464 Y35.089
G1 F480 X74.549 Y41.174 E128.73224
G0 F900 X74.413 Y40.471
G1 F480 X68.706 Y34.765 E129.13486
G0 F900 X68.948 Y34.441
G1 F480 X74.275 Y39.769 E129.51075
G0 F900 X74.139 Y39.066
G1 F480 X69.19 Y34.117 E129.85992
G0 F900 X69.432 Y33.794
G1 F480 X74.002 Y38.364 E130.18236
G0 F900 X73.865 Y37.661
G1 F480 X69.673 Y33.469 E130.47813
G0 F900 X69.915 Y33.145
G1 F480 X73.729 Y36.959 E130.74723
G0 F900 X73.592 Y36.257
G1 F480 X70.157 Y32.821 E130.98962
G0 F900 X70.398 Y32.497
G1 F480 X73.455 Y35.554 E131.20531
G0 F900 X73.319 Y34.852
G1 F480 X70.64 Y32.174 E131.39429
G0 F900 X70.882 Y31.85
G1 F480 X73.182 Y34.15 E131.55657
G0 F900 X73.045 Y33.447
G1 F480 X71.124 Y31.526 E131.69211
G0 F900 X71.366 Y31.202
G1 F480 X72.909 Y32.745 E131.80097
G0 F900 X72.772 Y32.043
G1 F480 X71.607 Y30.878 E131.88317
G0 F900 X71.849 Y30.554
G1 F480 X72.635 Y31.34 E131.93863
G0 F900 X72.498 Y30.638
G1 F480 X72.09 Y30.23 E131.96741
G0 F900 X60.79 Y44.471
G0 X55.144 Y42.133
G1 F480 X89.859 Y76.849 E134.41678
G0 F900 X89.275 Y76.83
G1 F480 X53.961 Y41.516 E136.90837
G1 X53.933 Y41.488
G0 F900 X52.777 Y40.898
G1 F480 X88.69 Y76.811 E139.44223
G0 F900 X88.106 Y76.793
G1 F480 X51.594 Y40.281 E142.01835
G1 X51.566 Y40.253
G0 F900 X50.411 Y39.663
G1 F480 X87.522 Y76.774 E144.63673
G0 F900 X86.938 Y76.755
G1 F480 X49.228 Y39.046 E147.29734
G1 X49.2 Y39.018
G0 F900 X48.045 Y38.428
G1 F480 X86.353 Y76.736 E150.00018
G0 F900 X85.769 Y76.718
G1 F480 X46.862 Y37.811 E152.74527
G1 X46.834 Y37.783
G0 F900 X45.679 Y37.193
G1 F480 X85.184 Y76.699 E155.5326
G0 F900 X84.599 Y76.68
G1 F480 X44.496 Y36.576 E158.36212
G0 F900 X44.17 Y36.816
G1 F480 X84.015 Y76.661 E161.1734
G0 F900 X83.43 Y76.642
G1 F480 X44.371 Y37.583 E163.92922
G0 F900 X44.572 Y38.349
G1 F480 X82.846 Y76.624 E166.62969
G0 F900 X82.261 Y76.605
G1 F480 X44.774 Y39.117 E169.27464
G0 F900 X44.975 Y39.884
G1 F480 X81.677 Y76.586 E171.86416
G0 F900 X81.093 Y76.567
G1 F480 X45.176 Y40.65 E174.3983
G0 F900 X45.377 Y41.418
G1 F480 X80.509 Y76.549 E176.87702
G0 F900 X79.924 Y76.53
G1 F480 X45.579 Y42.185 E179.30025
G0 F900 X45.78 Y42.951
G1 F480 X79.339 Y76.511 E181.66805
G0 F900 X78.755 Y76.492
G1 F480 X45.981 Y43.718 E183.98043
G0 F900 X46.183 Y44.486
G1 F480 X78.17 Y76.473 E186.23729
G0 F900 X77.586 Y76.455
G1 F480 X46.384 Y45.252 E188.43879
G0 F900 X46.585 Y46.019
G1 F480 X77.001 Y76.436 E190.58484
G0 F900 X76.417 Y76.417
G1 F480 X46.787 Y46.787 E192.6754
G0 F900 X46.987 Y47.553
G1 F480 X75.969 Y76.535 E194.72023
G0 F900 X75.876 Y77.008
G1 F480 X47.189 Y48.32 E196.74429
G0 F900 X47.391 Y49.088
G1 F480 X75.784 Y77.481 E198.74757
G0 F900 X75.692 Y77.955
G1 F480 X47.591 Y49.854 E200.73025
G0 F900 X47.793 Y50.621
G1 F480 X75.6 Y78.428 E202.69218
G0 F900 X75.508 Y78.902
G1 F480 X47.994 Y51.388 E204.63344
G0 F900 X48.195 Y52.155
G1 F480 X75.416 Y79.376 E206.55403
G0 F900 X75.323 Y79.849
G1 F480 X48.397 Y52.922 E208.45384
G0 F900 X48.598 Y53.689
G1 F480 X75.231 Y80.323 E210.33298
G0 F900 X75.139 Y80.796
G1 F480 X48.8 Y54.457 E212.19134
G0 F900 X48.66 Y54.883
G1 F480 X75.047 Y81.269 E214.05305
G0 F900 X74.955 Y81.743
G1 F480 X48.268 Y55.056 E215.93596
G0 F900 X47.876 Y55.23
G1 F480 X74.863 Y82.217 E217.84004
G0 F900 X74.77 Y82.69
G1 F480 X47.484 Y55.403 E219.76525
