;FLAVOR:Marlin
;TIME:6666
;Filament used: 0m
;Layer height: 0.2

;Generated with Cura_SteamEngine 3.6.0
M82 ;absolute extrusion mode
;Start GCode begin
M104 S230 ;Set Hotend Temperature
M140 S60 ;Set Bed Temperature
M109 ;Wait for Hotend Temperature
M190 ;Wait for Bed Temperature
G28 ;Home
G90 ;absolute positioning
G1 X-4 Y-4
G1 Z0 F3000
G92 E0
G1 F200 E20
G92 E0
;Start GCode end
G92 E0
G1 F1500 E-6.5
;LAYER_COUNT:15
;LAYER:0
M107
G0 F900 X35.676 Y60.173 Z0.3
;TYPE:SKIRT
G1 F1500 E0
G1 F480 X36.392 Y59.84 E0.0394
G1 X37.138 Y59.582 E0.07878
G1 X37.648 Y59.453 E0.10502
G1 X37.973 Y59.382 E0.12162
G1 X38.752 Y59.252 E0.16102
G1 X39.353 Y59.207 E0.19109
G1 X41.435 Y59.131 E0.29503
G1 X41.665 Y59.126 E0.30651
G1 X53.665 Y59.041 E0.9052
G1 X53.745 Y58.768 E0.9194
G1 X54.004 Y58.022 E0.95879
G1 X54.337 Y57.306 E0.99819
G1 X54.741 Y56.627 E1.03761
G1 X55.212 Y55.993 E1.07701
G1 X55.477 Y55.687 E1.09721
G1 X55.616 Y55.535 E1.10748
G1 X56.178 Y54.98 E1.14689
G1 X56.793 Y54.485 E1.18628
G1 X57.455 Y54.054 E1.22569
G1 X58.157 Y53.693 E1.26507
G1 X58.892 Y53.404 E1.30447
G1 X59.589 Y53.206 E1.34062
G1 X59.968 Y53.117 E1.36004
G1 X60.745 Y52.975 E1.39945
G1 X61.617 Y52.911 E1.44307
G1 X62.416 Y52.897 E1.48294
G1 X62.52 Y52.354 E1.51052
G1 X62.505 Y52.287 E1.51395
G1 X62.442 Y51.934 E1.53184
G1 X62.343 Y51.151 E1.57121
G1 X62.324 Y50.362 E1.61059
G1 X62.363 Y49.757 E1.64083
G1 X62.41 Y49.305 E1.6635
G1 X62.531 Y48.525 E1.70288
G1 X62.731 Y47.761 E1.74229
G1 X63.007 Y47.021 E1.78169
G1 X63.356 Y46.313 E1.82107
G1 X63.775 Y45.643 E1.86049
G1 X64.259 Y45.02 E1.89985
G1 X64.805 Y44.449 E1.93927
G1 X65.246 Y44.061 E1.96857
G1 X65.541 Y43.821 E1.98755
G1 X66.178 Y43.355 E2.02692
G1 X66.858 Y42.955 E2.06628
G1 X67.576 Y42.626 E2.10568
G1 X68.449 Y42.336 E2.15158
G1 X68.943 Y42.204 E2.17709
G1 X69.716 Y42.039 E2.21652
G1 X70.871 Y41.94 E2.27436
G1 X81.31 Y41.825 E2.79519
G1 X82.099 Y41.857 E2.83459
G1 X82.881 Y41.968 E2.87399
G1 X83.648 Y42.157 E2.9134
G1 X84.391 Y42.423 E2.95278
G1 X85.104 Y42.763 E2.99219
G1 X85.779 Y43.173 E3.03159
G1 X86.409 Y43.649 E3.07098
G1 X86.873 Y44.071 E3.10227
G1 X87.378 Y44.569 E3.13766
G1 X87.911 Y45.151 E3.17703
G1 X88.383 Y45.785 E3.21646
G1 X88.723 Y46.341 E3.24898
G1 X88.937 Y46.727 E3.271
G1 X89.284 Y47.436 E3.31038
G1 X89.558 Y48.177 E3.34979
G1 X89.678 Y48.6 E3.37173
G1 X89.908 Y49.511 E3.4186
G1 X90.062 Y50.285 E3.45798
G1 X90.145 Y51.398 E3.51366
G1 X90.15 Y53.138 E3.60047
G1 X90.112 Y53.926 E3.63983
G1 X90.044 Y54.439 E3.66564
G1 X89.92 Y55.185 E3.70337
G1 X89.751 Y55.959 E3.7429
G1 X89.305 Y57.594 E3.82745
G1 X89.157 Y58.074 E3.85251
G1 X88.876 Y58.891 E3.89561
G1 X89.108 Y59.012 E3.90867
G1 X89.767 Y59.447 E3.94806
G1 X90.38 Y59.945 E3.98746
G1 X90.938 Y60.503 E4.02683
G1 X91.438 Y61.115 E4.06626
G1 X91.873 Y61.774 E4.10566
G1 X92.154 Y62.294 E4.13514
G1 X93.514 Y65.06 E4.28892
G1 X93.904 Y66.007 E4.34001
G1 X94.457 Y67.645 E4.42627
G1 X94.672 Y68.405 E4.46567
G1 X94.812 Y69.212 E4.50653
G1 X94.967 Y70.506 E4.57155
G1 X95.021 Y71.294 E4.61096
G1 X94.995 Y72.083 E4.65034
G1 X94.911 Y72.743 E4.68354
G1 X94.825 Y73.248 E4.70909
G1 X94.653 Y74.019 E4.7485
G1 X94.405 Y74.769 E4.78791
G1 X93.957 Y75.722 E4.84045
G1 X93.683 Y76.216 E4.86863
G1 X93.266 Y76.887 E4.90805
G1 X92.782 Y77.511 E4.94745
G1 X92.239 Y78.084 E4.98683
G1 X91.739 Y78.52 E5.01993
G1 X91.392 Y78.798 E5.04211
G1 X90.751 Y79.26 E5.08153
G1 X90.067 Y79.655 E5.12094
G1 X89.331 Y79.985 E5.16118
G1 X88.866 Y80.165 E5.18606
G1 X88.116 Y80.412 E5.22545
G1 X87.198 Y80.606 E5.27226
G1 X86.62 Y80.692 E5.30141
G1 X85.834 Y80.769 E5.34082
G1 X85.38 Y80.776 E5.36347
G1 X84.699 Y80.768 E5.39745
G1 X83.911 Y80.719 E5.43684
G1 X83.515 Y80.664 E5.45678
G1 X83.279 Y80.625 E5.46872
G1 X82.798 Y81.103 E5.50255
G1 X82.185 Y81.601 E5.54195
G1 X81.524 Y82.034 E5.58137
G1 X80.823 Y82.398 E5.62078
G1 X80.089 Y82.689 E5.66017
G1 X79.33 Y82.904 E5.69953
G1 X78.909 Y82.989 E5.72096
G1 X78.497 Y83.06 E5.74181
G1 X77.713 Y83.154 E5.78121
G1 X76.802 Y83.164 E5.82666
G1 X76.149 Y83.133 E5.85928
G1 X75.363 Y83.056 E5.89868
G1 X74.589 Y82.9 E5.93807
G1 X73.982 Y82.718 E5.96968
G1 X73.575 Y82.578 E5.99116
G1 X72.876 Y82.297 E6.02874
G1 X66.545 Y82.265 E6.3446
G1 X66.103 Y82.25 E6.36667
G1 X62.872 Y82.05 E6.52817
G1 X43.635 Y81.991 E7.48791
G1 X43.12 Y82.227 E7.51617
G1 X42.693 Y82.384 E7.53887
G1 X42.12 Y82.575 E7.56901
G1 X41.359 Y82.786 E7.6084
G1 X40.58 Y82.92 E7.64784
G1 X39.793 Y82.974 E7.6872
G1 X39.003 Y82.948 E7.72663
G1 X38.182 Y82.835 E7.76798
G1 X37.833 Y82.768 E7.78571
G1 X37.066 Y82.58 E7.8251
G1 X36.322 Y82.316 E7.86449
G1 X35.609 Y81.977 E7.90388
G1 X34.933 Y81.568 E7.9433
G1 X34.302 Y81.093 E7.9827
G1 X33.871 Y80.694 E8.012
G1 X33.727 Y80.601 E8.02055
G1 X33.06 Y80.065 E8.06324
G1 X32.89 Y79.912 E8.07465
G1 X32.331 Y79.354 E8.11406
G1 X31.83 Y78.743 E8.15348
G1 X31.394 Y78.085 E8.19286
G1 X31.027 Y77.386 E8.23225
G1 X30.815 Y76.879 E8.25966
G1 X30.655 Y76.457 E8.28218
G1 X30.412 Y75.706 E8.32156
G1 X30.211 Y74.678 E8.37382
G1 X30.067 Y73.548 E8.43065
G1 X30.004 Y72.562 E8.47994
G1 X30.004 Y71.127 E8.55154
G1 X30.044 Y70.338 E8.59095
G1 X30.163 Y69.558 E8.63031
G1 X30.324 Y68.917 E8.66329
G1 X30.675 Y67.729 E8.72509
G1 X30.86 Y67.178 E8.75409
G1 X31.844 Y64.578 E8.89278
G1 X32.161 Y63.855 E8.93217
G1 X32.612 Y63.069 E8.97738
G1 X32.786 Y62.803 E8.99323
G1 X33.251 Y62.165 E9.03262
G1 X33.778 Y61.577 E9.07201
G1 X34.362 Y61.046 E9.11139
G1 X34.997 Y60.576 E9.15081
G1 X35.676 Y60.173 E9.1902
G0 F900 X35.951 Y60.481
G1 F480 X36.654 Y60.167 E9.22861
G1 X37.734 Y59.844 E9.28485
G1 X38.059 Y59.773 E9.30145
G1 X38.818 Y59.648 E9.33983
G1 X39.368 Y59.607 E9.36734
G1 X41.45 Y59.531 E9.47128
G1 X41.668 Y59.526 E9.48216
G1 X53.97 Y59.439 E10.09593
G1 X53.98 Y59.391 E10.09837
G1 X54.129 Y58.88 E10.12493
G1 X54.382 Y58.153 E10.16333
G1 X54.71 Y57.457 E10.20172
G1 X55.108 Y56.799 E10.24008
G1 X55.772 Y55.957 E10.29358
G1 X55.911 Y55.805 E10.30386
G1 X56.459 Y55.265 E10.34224
G1 X57.06 Y54.785 E10.38061
G1 X57.707 Y54.37 E10.41896
G1 X58.395 Y54.024 E10.45738
G1 X59.114 Y53.752 E10.49573
G1 X59.68 Y53.595 E10.52504
G1 X60.059 Y53.506 E10.54446
G1 X60.816 Y53.369 E10.58284
G1 X61.624 Y53.311 E10.62326
G1 X62.749 Y53.292 E10.67939
G1 X62.928 Y52.348 E10.72733
G1 X62.899 Y52.217 E10.73402
G1 X62.836 Y51.864 E10.75191
G1 X62.741 Y51.101 E10.79027
G1 X62.725 Y50.332 E10.82864
G1 X62.761 Y49.799 E10.8553
G1 X62.808 Y49.347 E10.87797
G1 X62.927 Y48.587 E10.91635
G1 X63.124 Y47.843 E10.95474
G1 X63.398 Y47.125 E10.99309
G1 X63.745 Y46.438 E11.03148
G1 X64.161 Y45.791 E11.06986
G1 X64.642 Y45.191 E11.10822
G1 X65.182 Y44.644 E11.14657
G1 X65.498 Y44.372 E11.16737
G1 X65.793 Y44.132 E11.18635
G1 X66.414 Y43.678 E11.22473
G1 X67.079 Y43.291 E11.26311
G1 X67.78 Y42.975 E11.30147
G1 X68.553 Y42.723 E11.34204
G1 X69.047 Y42.591 E11.36755
G1 X69.799 Y42.431 E11.4059
G1 X70.875 Y42.34 E11.45978
G1 X81.314 Y42.225 E11.98061
G1 X82.083 Y42.257 E12.01901
G1 X82.844 Y42.368 E12.05738
G1 X83.59 Y42.558 E12.09579
G1 X84.311 Y42.823 E12.13411
G1 X85.002 Y43.163 E12.17253
G1 X85.653 Y43.572 E12.21089
G1 X86.258 Y44.046 E12.24923
G1 X86.592 Y44.356 E12.27197
G1 X87.097 Y44.854 E12.30735
G1 X87.616 Y45.422 E12.34574
G1 X88.073 Y46.04 E12.38408
G1 X88.373 Y46.535 E12.41296
G1 X88.587 Y46.921 E12.43498
G1 X88.924 Y47.612 E12.47333
G1 X89.29 Y48.698 E12.53051
G1 X89.52 Y49.609 E12.57739
G1 X89.669 Y50.363 E12.61573
G1 X89.745 Y51.399 E12.66756
G1 X89.75 Y53.139 E12.75436
G1 X89.712 Y53.907 E12.79273
G1 X89.65 Y54.373 E12.81618
G1 X89.526 Y55.119 E12.85391
G1 X89.365 Y55.853 E12.8914
G1 X88.919 Y57.488 E12.97595
G1 X88.779 Y57.944 E12.99975
G1 X88.388 Y59.084 E13.05988
G1 X88.991 Y59.408 E13.09403
G1 X89.627 Y59.841 E13.13241
G1 X90.215 Y60.337 E13.17079
G1 X90.748 Y60.891 E13.20915
G1 X91.22 Y61.498 E13.24751
G1 X91.795 Y62.471 E13.30389
G1 X93.155 Y65.237 E13.45767
G1 X93.525 Y66.135 E13.50612
G1 X94.078 Y67.773 E13.59237
G1 X94.286 Y68.514 E13.63077
G1 X94.414 Y69.26 E13.66853
G1 X94.569 Y70.554 E13.73355
G1 X94.621 Y71.321 E13.77191
G1 X94.593 Y72.09 E13.8103
G1 X94.517 Y72.676 E13.83978
G1 X94.431 Y73.181 E13.86534
G1 X94.263 Y73.932 E13.90373
G1 X94.017 Y74.661 E13.94211
G1 X93.607 Y75.528 E13.98996
G1 X93.333 Y76.022 E14.01815
G1 X92.926 Y76.675 E14.05653
G1 X92.453 Y77.281 E14.09489
G1 X91.919 Y77.835 E14.13327
G1 X91.489 Y78.208 E14.16167
G1 X91.142 Y78.486 E14.18386
G1 X90.517 Y78.935 E14.22225
G1 X89.85 Y79.317 E14.2606
G1 X89.186 Y79.612 E14.29685
G1 X88.721 Y79.792 E14.32172
G1 X87.991 Y80.032 E14.36006
G1 X87.139 Y80.21 E14.40349
G1 X86.561 Y80.296 E14.43264
G1 X85.795 Y80.37 E14.47103
G1 X85.385 Y80.376 E14.49149
G1 X84.704 Y80.368 E14.52547
G1 X83.58 Y80.269 E14.58176
G1 X83.126 Y80.194 E14.60472
G1 X82.994 Y80.351 E14.61495
G1 X82.441 Y80.885 E14.6533
G1 X81.835 Y81.359 E14.69169
G1 X81.183 Y81.768 E14.73009
G1 X80.493 Y82.106 E14.76842
G1 X79.771 Y82.372 E14.80681
G1 X78.841 Y82.595 E14.85452
G1 X78.429 Y82.666 E14.87538
G1 X77.665 Y82.757 E14.91376
G1 X76.821 Y82.765 E14.95587
G1 X76.168 Y82.734 E14.98849
G1 X75.403 Y82.657 E15.02685
G1 X74.649 Y82.502 E15.06525
G1 X74.112 Y82.34 E15.09323
G1 X73.705 Y82.2 E15.11471
G1 X72.992 Y81.912 E15.15307
G1 X72.964 Y81.897 E15.15466
G1 X66.547 Y81.865 E15.47481
G1 X66.127 Y81.851 E15.49577
G1 X62.881 Y81.65 E15.65802
G1 X43.549 Y81.591 E16.62251
G1 X42.934 Y81.871 E16.65622
G1 X42.566 Y82.004 E16.67574
G1 X41.993 Y82.195 E16.70587
G1 X41.252 Y82.4 E16.74423
G1 X40.493 Y82.527 E16.78262
G1 X39.725 Y82.575 E16.82102
G1 X38.957 Y82.542 E16.85937
G1 X38.258 Y82.442 E16.89459
G1 X37.909 Y82.375 E16.91232
G1 X37.162 Y82.191 E16.95071
G1 X36.438 Y81.931 E16.98909
G1 X35.746 Y81.596 E17.02744
G1 X35.091 Y81.192 E17.06584
G1 X34.483 Y80.722 E17.10418
G1 X34.17 Y80.411 E17.12619
G1 X33.911 Y80.241 E17.14165
G1 X33.328 Y79.767 E17.17913
G1 X33.158 Y79.614 E17.19054
G1 X32.613 Y79.071 E17.22892
G1 X32.129 Y78.474 E17.26727
G1 X31.708 Y77.83 E17.30565
G1 X31.357 Y77.145 E17.34405
G1 X31.189 Y76.737 E17.36607
G1 X31.029 Y76.315 E17.38858
G1 X30.794 Y75.583 E17.42694
G1 X30.607 Y74.627 E17.47554
G1 X30.463 Y73.497 E17.53237
G1 X30.404 Y72.562 E17.57911
G1 X30.404 Y71.127 E17.6507
G1 X30.444 Y70.359 E17.68907
G1 X30.563 Y69.599 E17.72745
G1 X30.707 Y69.03 E17.75673
G1 X31.058 Y67.842 E17.81853
G1 X31.234 Y67.32 E17.84602
G1 X32.218 Y64.72 E17.98471
G1 X32.527 Y64.015 E18.02311
G1 X32.946 Y63.288 E18.06497
G1 X33.12 Y63.022 E18.08083
G1 X33.574 Y62.401 E18.11921
G1 X34.09 Y61.831 E18.15757
G1 X34.662 Y61.317 E18.19594
G1 X35.285 Y60.865 E18.23434
G1 X35.951 Y60.481 E18.27269
G0 F900 X36.225 Y60.791
G1 F480 X36.913 Y60.497 E18.31002
G1 X37.819 Y60.234 E18.35708
G1 X38.144 Y60.163 E18.37368
G1 X38.882 Y60.043 E18.41098
G1 X39.383 Y60.007 E18.43604
G1 X41.465 Y59.931 E18.53998
G1 X41.671 Y59.926 E18.55026
G1 X54.294 Y59.837 E19.18004
G1 X54.364 Y59.503 E19.19707
G1 X54.513 Y58.992 E19.22362
G1 X54.76 Y58.286 E19.26094
G1 X55.082 Y57.61 E19.2983
G1 X55.473 Y56.973 E19.33559
G1 X56.067 Y56.227 E19.38316
G1 X56.206 Y56.075 E19.39344
G1 X56.74 Y55.551 E19.43076
G1 X57.326 Y55.086 E19.46808
G1 X57.959 Y54.687 E19.50542
G1 X58.631 Y54.358 E19.54274
G1 X59.334 Y54.102 E19.58007
G1 X59.772 Y53.984 E19.6027
G1 X60.151 Y53.895 E19.62212
G1 X60.887 Y53.764 E19.65942
G1 X61.631 Y53.711 E19.69663
G1 X63.081 Y53.686 E19.76898
G1 X63.336 Y52.343 E19.83718
G1 X63.293 Y52.147 E19.84719
G1 X63.23 Y51.794 E19.86508
G1 X63.138 Y51.051 E19.90244
G1 X63.126 Y50.303 E19.93976
G1 X63.159 Y49.84 E19.96292
G1 X63.206 Y49.388 E19.98559
G1 X63.323 Y48.649 E20.02292
G1 X63.518 Y47.927 E20.06023
G1 X63.789 Y47.23 E20.09754
G1 X64.133 Y46.566 E20.13485
G1 X64.546 Y45.942 E20.17218
G1 X65.023 Y45.366 E20.20949
G1 X65.75 Y44.682 E20.25929
G1 X66.045 Y44.442 E20.27826
G1 X66.65 Y44.002 E20.31558
G1 X67.298 Y43.628 E20.35291
G1 X67.983 Y43.326 E20.39026
G1 X68.656 Y43.109 E20.42554
G1 X69.15 Y42.977 E20.45105
G1 X69.882 Y42.823 E20.48837
G1 X70.88 Y42.74 E20.53833
G1 X81.319 Y42.625 E21.05917
G1 X82.066 Y42.657 E21.09647
G1 X82.806 Y42.768 E21.1338
G1 X83.53 Y42.958 E21.17114
G1 X84.229 Y43.224 E21.20846
G1 X84.896 Y43.563 E21.24578
G1 X85.523 Y43.971 E21.2831
G1 X86.311 Y44.641 E21.33471
G1 X86.816 Y45.139 E21.37009
G1 X87.32 Y45.692 E21.40742
G1 X87.762 Y46.295 E21.44472
G1 X88.023 Y46.729 E21.46999
G1 X88.237 Y47.115 E21.49201
G1 X88.564 Y47.788 E21.52934
G1 X88.902 Y48.795 E21.58233
G1 X89.132 Y49.706 E21.62921
G1 X89.276 Y50.441 E21.66657
G1 X89.345 Y51.4 E21.71454
G1 X89.35 Y53.14 E21.80135
G1 X89.312 Y53.887 E21.83867
G1 X89.255 Y54.308 E21.85986
G1 X89.131 Y55.054 E21.89759
G1 X88.979 Y55.748 E21.93304
G1 X88.533 Y57.383 E22.01759
G1 X88.401 Y57.814 E22.04007
G1 X87.89 Y59.303 E22.11861
G1 X88.217 Y59.441 E22.13632
G1 X88.871 Y59.804 E22.17364
G1 X89.483 Y60.235 E22.21098
G1 X90.045 Y60.728 E22.24828
G1 X90.551 Y61.279 E22.2856
G1 X90.996 Y61.88 E22.32291
G1 X91.436 Y62.647 E22.36703
G1 X92.796 Y65.413 E22.5208
G1 X93.146 Y66.263 E22.56666
G1 X93.699 Y67.901 E22.65291
G1 X93.9 Y68.621 E22.69021
G1 X94.017 Y69.307 E22.72493
G1 X94.172 Y70.601 E22.78995
G1 X94.221 Y71.348 E22.82729
G1 X94.191 Y72.095 E22.86459
G1 X94.123 Y72.609 E22.89046
G1 X94.037 Y73.114 E22.91602
G1 X93.872 Y73.844 E22.95336
G1 X93.63 Y74.552 E22.99068
G1 X93.257 Y75.334 E23.03391
G1 X92.983 Y75.828 E23.06209
G1 X92.586 Y76.462 E23.09941
G1 X92.124 Y77.05 E23.13672
G1 X91.601 Y77.585 E23.17405
G1 X91.239 Y77.896 E23.19786
G1 X90.892 Y78.174 E23.22004
G1 X90.284 Y78.61 E23.25736
G1 X89.633 Y78.978 E23.29467
G1 X89.042 Y79.239 E23.32691
G1 X88.577 Y79.419 E23.35178
G1 X87.866 Y79.651 E23.38909
G1 X87.08 Y79.815 E23.42915
G1 X86.502 Y79.901 E23.45831
G1 X85.39 Y79.977 E23.51391
G1 X84.709 Y79.969 E23.54789
G1 X83.646 Y79.875 E23.60113
G1 X82.968 Y79.762 E23.63542
G1 X82.631 Y80.152 E23.66114
G1 X82.085 Y80.663 E23.69845
G1 X81.487 Y81.113 E23.73579
G1 X80.844 Y81.496 E23.77312
G1 X80.165 Y81.809 E23.81043
G1 X79.456 Y82.047 E23.84774
G1 X78.773 Y82.2 E23.88266
G1 X78.361 Y82.271 E23.90352
G1 X77.618 Y82.359 E23.94084
G1 X76.84 Y82.365 E23.97966
G1 X76.187 Y82.334 E24.01227
G1 X75.443 Y82.259 E24.04958
G1 X74.711 Y82.104 E24.08691
G1 X74.242 Y81.961 E24.11137
G1 X73.835 Y81.821 E24.13284
G1 X73.142 Y81.541 E24.17013
G1 X73.061 Y81.498 E24.17471
G1 X66.549 Y81.465 E24.4996
G1 X66.152 Y81.452 E24.51942
G1 X62.89 Y81.25 E24.68247
G1 X43.461 Y81.19 E25.65179
G1 X43.432 Y81.207 E25.65347
G1 X42.44 Y81.625 E25.70717
G1 X41.867 Y81.816 E25.73731
G1 X41.145 Y82.014 E25.77466
G1 X40.407 Y82.134 E25.81196
G1 X39.66 Y82.175 E25.84928
G1 X38.913 Y82.136 E25.8866
G1 X38.333 Y82.049 E25.91586
G1 X37.984 Y81.982 E25.93359
G1 X37.258 Y81.802 E25.97091
G1 X36.555 Y81.546 E26.00823
G1 X35.884 Y81.216 E26.04554
G1 X35.252 Y80.816 E26.08286
G1 X34.666 Y80.351 E26.12018
G1 X34.4 Y80.083 E26.13902
G1 X34.098 Y79.882 E26.15711
G1 X33.595 Y79.47 E26.18955
G1 X33.425 Y79.317 E26.20096
G1 X32.897 Y78.788 E26.23825
G1 X32.428 Y78.205 E26.27558
G1 X32.024 Y77.575 E26.31292
G1 X31.563 Y76.596 E26.36691
G1 X31.403 Y76.174 E26.38942
G1 X31.175 Y75.461 E26.42677
G1 X31.004 Y74.577 E26.47169
G1 X30.86 Y73.447 E26.52852
G1 X30.804 Y72.562 E26.57276
G1 X30.804 Y71.127 E26.64435
G1 X30.844 Y70.38 E26.68168
G1 X30.963 Y69.642 E26.71897
G1 X31.091 Y69.144 E26.74462
G1 X31.442 Y67.956 E26.80643
G1 X31.608 Y67.461 E26.83247
G1 X32.592 Y64.861 E26.97117
G1 X32.894 Y64.177 E27.00847
G1 X33.281 Y63.507 E27.04707
G1 X33.455 Y63.241 E27.06293
G1 X33.897 Y62.638 E27.10023
G1 X34.402 Y62.085 E27.13759
G1 X34.962 Y61.59 E27.17488
G1 X35.572 Y61.157 E27.2122
G1 X36.225 Y60.791 E27.24955
G0 F900 X36.496 Y61.104
G1 F480 X37.169 Y60.831 E27.28578
G1 X37.904 Y60.625 E27.32386
G1 X38.229 Y60.554 E27.34046
G1 X38.946 Y60.438 E27.3767
G1 X39.397 Y60.406 E27.39925
G1 X41.479 Y60.33 E27.50319
G1 X41.673 Y60.326 E27.51287
G1 X54.617 Y60.235 E28.15867
G1 X54.748 Y59.614 E28.19033
G1 X54.897 Y59.103 E28.21689
G1 X55.138 Y58.418 E28.25312
G1 X55.453 Y57.764 E28.28933
G1 X55.839 Y57.148 E28.3256
G1 X56.362 Y56.497 E28.36726
G1 X56.501 Y56.345 E28.37754
