;FLAVOR:Marlin
;TIME:6666
;Filament used: 0m
;Layer height: 0.2

;Generated with Cura_SteamEngine 3.6.0
M82 ;absolute extrusion mode
;Start GCode begin
M104 S200 ;Set Hotend Temperature
M140 S50 ;Set Bed Temperature
M109 ;Wait for Hotend Temperature
M190 ;Wait for Bed Temperature
G28 ;Home
G90 ;absolute positioning
G1 X-4 Y-4
G1 Z0 F3000
G92 E0
G1 F200 E20
G92 E0
;Start GCode end
G92 E0
G1 F1500 E-6.5
;LAYER_COUNT:80
;LAYER:0
M107
G0 F1800 X46.035 Y50.972 Z0.3
;TYPE:SKIRT
G1 F1500 E0
G1 F1080 X47.166 Y50.018 E0.07382
G1 X47.564 Y49.723 E0.09853
G1 X48.794 Y48.923 E0.17174
G1 X49.235 Y48.674 E0.197
G1 X50.558 Y48.035 E0.2703
G1 X51.022 Y47.846 E0.2953
G1 X52.421 Y47.375 E0.36895
G1 X52.906 Y47.245 E0.394
G1 X54.363 Y46.951 E0.46815
G1 X54.863 Y46.883 E0.49333
G1 X56.288 Y46.779 E0.56461
G1 X56.574 Y46.768 E0.57889
G1 X62.921 Y46.76 E0.89554
G1 X63.485 Y46.799 E0.92375
G1 X64.038 Y46.918 E0.95197
G1 X64.568 Y47.113 E0.98014
G1 X65.066 Y47.381 E1.00836
G1 X65.521 Y47.716 E1.03655
G1 X65.924 Y48.112 E1.06473
G1 X66.268 Y48.562 E1.09299
G1 X66.544 Y49.055 E1.12118
G1 X66.749 Y49.582 E1.14939
G1 X66.876 Y50.132 E1.17755
G1 X66.926 Y50.787 E1.21033
G1 X66.91 Y53.143 E1.32787
G1 X66.901 Y53.377 E1.33955
G1 X66.54 Y58.898 E1.61559
G1 X66.492 Y64.364 E1.8883
G1 X66.582 Y67.048 E2.02228
G1 X66.941 Y72.165 E2.27819
G1 X66.951 Y72.481 E2.29397
G1 X66.935 Y74.268 E2.38312
G1 X66.89 Y74.831 E2.4113
G1 X66.766 Y75.383 E2.43953
G1 X66.565 Y75.911 E2.46771
G1 X66.292 Y76.407 E2.49596
G1 X65.952 Y76.858 E2.52414
G1 X65.552 Y77.257 E2.55232
G1 X65.099 Y77.596 E2.58055
G1 X64.603 Y77.867 E2.60875
G1 X64.074 Y78.066 E2.63695
G1 X63.522 Y78.189 E2.66516
G1 X62.916 Y78.232 E2.69547
G1 X55.924 Y78.199 E3.04431
G1 X55.404 Y78.163 E3.07031
G1 X53.838 Y77.95 E3.14916
G1 X53.325 Y77.845 E3.17528
G1 X51.883 Y77.452 E3.24985
G1 X51.406 Y77.289 E3.275
G1 X50.059 Y76.732 E3.34772
G1 X49.61 Y76.513 E3.37264
G1 X48.334 Y75.787 E3.44589
G1 X47.914 Y75.511 E3.47096
G1 X46.73 Y74.624 E3.54477
G1 X46.349 Y74.3 E3.56972
G1 X45.296 Y73.283 E3.64275
G1 X44.958 Y72.913 E3.66776
G1 X44.038 Y71.769 E3.741
G1 X43.746 Y71.355 E3.76627
G1 X42.965 Y70.083 E3.84074
G1 X42.728 Y69.636 E3.86598
G1 X42.125 Y68.3 E3.93911
G1 X41.949 Y67.833 E3.96401
G1 X41.512 Y66.416 E4.03799
G1 X41.393 Y65.924 E4.06324
G1 X41.139 Y64.466 E4.13708
G1 X41.085 Y63.97 E4.16197
G1 X41.016 Y62.524 E4.23419
G1 X41.023 Y62.02 E4.25934
G1 X41.14 Y60.527 E4.33405
G1 X41.211 Y60.03 E4.3591
G1 X41.503 Y58.617 E4.43109
G1 X41.635 Y58.134 E4.45607
G1 X42.125 Y56.699 E4.53172
G1 X42.346 Y56.176 E4.56004
G1 X43.205 Y54.49 E4.65445
G1 X43.51 Y53.987 E4.68379
G1 X44.358 Y52.795 E4.75678
G1 X44.673 Y52.406 E4.78175
G1 X45.67 Y51.322 E4.85523
G1 X46.035 Y50.972 E4.88046
G0 F1800 X46.293 Y51.278
G1 F1080 X47.424 Y50.324 E4.95427
G1 X47.782 Y50.058 E4.97653
G1 X49.012 Y49.258 E5.04973
G1 X49.409 Y49.034 E5.07247
G1 X50.732 Y48.395 E5.14577
G1 X51.149 Y48.225 E5.16824
G1 X52.548 Y47.754 E5.24188
G1 X52.985 Y47.637 E5.26445
G1 X54.442 Y47.343 E5.33861
G1 X54.892 Y47.282 E5.36126
G1 X56.317 Y47.178 E5.43255
G1 X56.574 Y47.168 E5.44538
G1 X62.921 Y47.16 E5.76203
G1 X63.456 Y47.199 E5.78879
G1 X63.979 Y47.318 E5.81555
G1 X64.479 Y47.512 E5.84231
G1 X64.944 Y47.779 E5.86906
G1 X65.365 Y48.112 E5.89584
G1 X65.731 Y48.504 E5.9226
G1 X66.035 Y48.945 E5.94932
G1 X66.27 Y49.427 E5.97607
G1 X66.431 Y49.939 E6.00285
G1 X66.514 Y50.469 E6.02961
G1 X66.526 Y50.784 E6.04534
G1 X66.51 Y53.14 E6.16288
G1 X66.502 Y53.351 E6.17342
G1 X66.14 Y58.886 E6.45015
G1 X66.092 Y64.374 E6.72396
G1 X66.182 Y67.062 E6.85814
G1 X66.542 Y72.193 E7.11475
G1 X66.551 Y72.477 E7.12893
G1 X66.535 Y74.264 E7.21809
G1 X66.49 Y74.799 E7.24487
G1 X66.367 Y75.32 E7.27158
G1 X66.167 Y75.818 E7.29836
G1 X65.895 Y76.281 E7.32515
G1 X65.558 Y76.698 E7.35189
G1 X65.163 Y77.06 E7.37862
G1 X64.718 Y77.36 E7.4054
G1 X64.233 Y77.59 E7.43218
G1 X63.72 Y77.745 E7.45892
G1 X63.19 Y77.823 E7.48564
G1 X62.918 Y77.832 E7.49922
G1 X55.926 Y77.799 E7.84806
G1 X55.458 Y77.766 E7.87146
G1 X53.892 Y77.553 E7.95031
G1 X53.43 Y77.459 E7.97383
G1 X51.988 Y77.066 E8.0484
G1 X51.559 Y76.92 E8.07101
G1 X50.212 Y76.363 E8.14373
G1 X49.808 Y76.165 E8.16617
G1 X48.532 Y75.439 E8.23942
G1 X48.154 Y75.191 E8.26197
G1 X46.97 Y74.304 E8.33578
G1 X46.627 Y74.012 E8.35825
G1 X45.574 Y72.995 E8.43129
G1 X45.27 Y72.662 E8.45378
G1 X44.35 Y71.518 E8.52702
G1 X44.087 Y71.146 E8.54975
G1 X43.306 Y69.874 E8.62422
G1 X43.093 Y69.471 E8.64696
G1 X42.49 Y68.135 E8.72009
G1 X42.331 Y67.715 E8.74249
G1 X41.894 Y66.298 E8.81647
G1 X41.787 Y65.855 E8.83921
G1 X41.533 Y64.397 E8.91305
G1 X41.484 Y63.951 E8.93543
G1 X41.415 Y62.505 E9.00765
G1 X41.422 Y62.052 E9.03026
G1 X41.539 Y60.559 E9.10497
G1 X41.602 Y60.111 E9.12754
G1 X41.894 Y58.698 E9.19953
G1 X42.013 Y58.264 E9.22198
G1 X42.503 Y56.829 E9.29763
G1 X42.702 Y56.358 E9.32314
G1 X43.561 Y54.672 E9.41754
G1 X43.836 Y54.219 E9.44398
G1 X44.684 Y53.027 E9.51696
G1 X44.967 Y52.677 E9.53942
G1 X45.964 Y51.593 E9.6129
G1 X46.293 Y51.278 E9.63562
G0 F1800 X46.551 Y51.584
G1 F1080 X47.682 Y50.63 E9.70944
G1 X48 Y50.393 E9.72923
G1 X49.23 Y49.593 E9.80243
G1 X49.583 Y49.394 E9.82265
G1 X50.906 Y48.755 E9.89595
G1 X51.277 Y48.604 E9.91593
G1 X52.676 Y48.133 E9.98958
G1 X53.064 Y48.029 E10.00962
G1 X54.521 Y47.735 E10.08377
G1 X54.921 Y47.68 E10.10391
G1 X56.346 Y47.576 E10.1752
G1 X56.575 Y47.568 E10.18663
G1 X62.922 Y47.56 E10.50328
G1 X63.426 Y47.599 E10.5285
G1 X63.918 Y47.718 E10.55376
G1 X64.384 Y47.912 E10.57894
G1 X64.815 Y48.177 E10.60418
G1 X65.198 Y48.507 E10.6294
G1 X65.525 Y48.893 E10.65464
G1 X65.786 Y49.325 E10.67982
G1 X65.977 Y49.794 E10.70509
G1 X66.091 Y50.286 E10.73028
G1 X66.126 Y50.782 E10.75509
G1 X66.11 Y53.138 E10.87264
G1 X66.103 Y53.325 E10.88197
G1 X65.74 Y58.874 E11.1594
G1 X65.692 Y64.384 E11.43431
G1 X65.782 Y67.076 E11.56869
G1 X66.143 Y72.221 E11.826
G1 X66.151 Y72.474 E11.83863
G1 X66.135 Y74.261 E11.92779
G1 X66.09 Y74.764 E11.95299
G1 X65.967 Y75.255 E11.97824
G1 X65.768 Y75.719 E12.00343
G1 X65.499 Y76.147 E12.02865
G1 X65.165 Y76.527 E12.05389
G1 X64.776 Y76.85 E12.07911
G1 X64.341 Y77.107 E12.10432
G1 X63.87 Y77.292 E12.12957
G1 X63.377 Y77.401 E12.15476
G1 X62.92 Y77.432 E12.17761
G1 X55.928 Y77.399 E12.52644
G1 X55.512 Y77.37 E12.54725
G1 X53.946 Y77.157 E12.6261
G1 X53.536 Y77.073 E12.64698
G1 X52.094 Y76.68 E12.72154
G1 X51.712 Y76.55 E12.74167
G1 X50.365 Y75.993 E12.81439
G1 X50.006 Y75.817 E12.83434
G1 X48.73 Y75.091 E12.90758
G1 X48.393 Y74.871 E12.92766
G1 X47.209 Y73.984 E13.00147
G1 X46.905 Y73.725 E13.02139
G1 X45.852 Y72.708 E13.09443
G1 X45.581 Y72.411 E13.11449
G1 X44.661 Y71.267 E13.18773
G1 X44.428 Y70.936 E13.20792
G1 X43.647 Y69.664 E13.28239
G1 X43.457 Y69.306 E13.30261
G1 X42.854 Y67.97 E13.37574
G1 X42.713 Y67.597 E13.39563
G1 X42.276 Y66.18 E13.46961
G1 X42.181 Y65.786 E13.48983
G1 X41.927 Y64.328 E13.56367
G1 X41.884 Y63.932 E13.58354
G1 X41.815 Y62.486 E13.65577
G1 X41.821 Y62.083 E13.67587
G1 X41.938 Y60.59 E13.75059
G1 X41.994 Y60.192 E13.77064
G1 X42.286 Y58.779 E13.84263
G1 X42.392 Y58.393 E13.8626
G1 X42.882 Y56.958 E13.93825
G1 X43.059 Y56.539 E13.96094
G1 X43.918 Y54.853 E14.05534
G1 X44.162 Y54.451 E14.0788
G1 X45.01 Y53.259 E14.15179
G1 X45.262 Y52.948 E14.17176
G1 X46.259 Y51.864 E14.24523
G1 X46.551 Y51.584 E14.26542
G1 F1500 E7.76542
;MESH:/Users/x/Library/Application Support/snapmakerjs/Tmp/FMC Clip 13.5mm_20201020160486064.stl
G0 F1800 X52.095 Y50.989
G0 X52.641 Y52.151
G0 X57.403 Y52.036
G0 X57.335 Y52.108
;TYPE:WALL-INNER
G1 F1500 E14.26542
G1 F1080 X57.122 Y52.122 E14.27607
G1 X55.326 Y52.245 E14.36588
G1 X53.942 Y52.533 E14.43641
G1 X52.61 Y53.005 E14.50691
G1 X51.356 Y53.655 E14.57738
G1 X50.201 Y54.471 E14.64793
G1 X49.17 Y55.434 E14.71831
G1 X48.277 Y56.53 E14.78885
G1 X47.544 Y57.738 E14.85934
G1 X46.981 Y59.034 E14.92984
G1 X46.599 Y60.393 E15.00026
G1 X46.407 Y61.794 E15.07081
G1 X46.407 Y63.206 E15.14126
G1 X46.599 Y64.607 E15.21181
G1 X46.981 Y65.966 E15.28224
G1 X47.544 Y67.262 E15.35273
G1 X48.277 Y68.47 E15.42323
G1 X49.17 Y69.566 E15.49376
G1 X50.201 Y70.529 E15.56414
G1 X51.356 Y71.345 E15.6347
G1 X52.61 Y71.995 E15.70516
G1 X53.942 Y72.467 E15.77567
G1 X55.325 Y72.755 E15.84614
G1 X57.123 Y72.878 E15.93606
G1 X57.336 Y72.892 E15.94671
G1 X57.336 Y72.679 E15.95345
G1 X57.336 Y72.678 E15.9535
G1 X57.335 Y68.05 E16.1844
G1 X57.335 Y67.85 E16.19437
G1 X57.535 Y67.85 E16.20083
G1 X60.693 Y67.85 E16.35839
G1 X60.693 Y72.85 E16.60784
G1 X62.345 Y72.85 E16.69026
G1 X62.345 Y73.65 E16.73017
G1 X56.758 Y73.65 E17.00891
G1 X55.333 Y73.56 E17.08014
G1 X53.963 Y73.299 E17.14972
G1 X52.634 Y72.867 E17.21944
G1 X51.366 Y72.271 E17.28934
G1 X50.182 Y71.52 E17.35929
G1 X49.107 Y70.63 E17.42892
G1 X48.146 Y69.606 E17.49898
G1 X47.317 Y68.464 E17.56938
G1 X46.651 Y67.254 E17.63829
G1 X46.132 Y65.942 E17.70868
G1 X45.784 Y64.588 E17.77843
G1 X45.609 Y63.203 E17.84807
G1 X45.609 Y61.794 E17.91837
G1 X45.784 Y60.412 E17.98787
G1 X46.132 Y59.058 E18.05762
G1 X46.651 Y57.746 E18.12801
G1 X47.317 Y56.536 E18.19691
G1 X48.146 Y55.394 E18.26732
G1 X49.107 Y54.37 E18.33738
G1 X50.182 Y53.48 E18.40701
G1 X51.366 Y52.729 E18.47696
G1 X52.634 Y52.133 E18.54686
G1 X53.963 Y51.701 E18.61658
G1 X55.333 Y51.44 E18.68616
G1 X56.758 Y51.35 E18.75739
G1 X62.344 Y51.35 E19.03608
G1 X62.345 Y51.95 E19.06601
G1 X62.345 Y52.15 E19.07599
G1 X62.145 Y52.15 E19.08245
G1 X60.893 Y52.15 E19.14491
G1 X60.693 Y52.15 E19.15489
G1 X60.693 Y52.35 E19.16135
G1 X60.694 Y56.95 E19.39085
G1 X60.694 Y57.15 E19.40082
G1 X60.494 Y57.15 E19.40729
G1 X57.335 Y57.15 E19.56489
G1 X57.335 Y52.322 E19.80576
G1 X57.335 Y52.321 E19.80581
G1 X57.335 Y52.108 E19.81256
G0 F1800 X56.935 Y52.536
;TYPE:WALL-OUTER
G1 F1080 X56.722 Y52.55 E19.82321
G1 X55.381 Y52.642 E19.89027
G1 X54.05 Y52.919 E19.95809
G1 X52.77 Y53.373 E20.02585
G1 X51.564 Y53.998 E20.09362
G1 X50.454 Y54.782 E20.16142
G1 X49.463 Y55.708 E20.22908
G1 X48.605 Y56.761 E20.29685
G1 X47.9 Y57.922 E20.36461
G1 X47.359 Y59.168 E20.43238
G1 X46.992 Y60.475 E20.50011
G1 X46.807 Y61.821 E20.56789
G1 X46.807 Y63.179 E20.63565
G1 X46.992 Y64.525 E20.70343
G1 X47.359 Y65.832 E20.77116
G1 X47.9 Y67.078 E20.83893
G1 X48.605 Y68.239 E20.90669
G1 X49.463 Y69.292 E20.97446
G1 X50.454 Y70.218 E21.04212
G1 X51.564 Y71.002 E21.10992
G1 X52.77 Y71.627 E21.17769
G1 X54.05 Y72.081 E21.24545
G1 X55.38 Y72.358 E21.31323
G1 X56.723 Y72.45 E21.38038
G1 X56.936 Y72.464 E21.39103
G1 X56.936 Y72.251 E21.39778
G1 X56.936 Y72.25 E21.39783
G1 X56.935 Y67.65 E21.62733
G1 X56.935 Y67.45 E21.6373
G1 X57.135 Y67.45 E21.64377
G1 X61.093 Y67.45 E21.84123
G1 X61.093 Y72.45 E22.09068
G1 X62.751 Y72.45 E22.1734
G1 X62.745 Y72.82 E22.19186
G1 X62.745 Y74.05 E22.25323
G1 X56.749 Y74.05 E22.55237
G1 X55.28 Y73.957 E22.6258
G1 X53.866 Y73.688 E22.69761
G1 X52.485 Y73.239 E22.77006
G1 X51.172 Y72.622 E22.84244
G1 X49.948 Y71.845 E22.91477
G1 X48.829 Y70.919 E22.98723
G1 X47.838 Y69.863 E23.05948
G1 X46.981 Y68.683 E23.13224
G1 X46.287 Y67.422 E23.20405
G1 X45.752 Y66.07 E23.27659
G1 X45.39 Y64.658 E23.34932
G1 X45.209 Y63.229 E23.42118
G1 X45.209 Y61.771 E23.49392
G1 X45.39 Y60.342 E23.56578
G1 X45.752 Y58.93 E23.6385
G1 X46.287 Y57.578 E23.71105
G1 X46.981 Y56.317 E23.78286
G1 X47.838 Y55.137 E23.85561
G1 X48.829 Y54.081 E23.92786
G1 X49.948 Y53.155 E24.00033
G1 X51.172 Y52.378 E24.07266
G1 X52.485 Y51.761 E24.14504
G1 X53.866 Y51.312 E24.21748
G1 X55.28 Y51.043 E24.28929
G1 X56.749 Y50.95 E24.36273
G1 X62.744 Y50.95 E24.66182
G1 X62.745 Y52.166 E24.72249
G1 X62.745 Y52.181 E24.72324
G1 X62.756 Y52.55 E24.74165
G1 X62.745 Y52.55
G1 X62.73 Y52.55 E24.74238
G1 X61.293 Y52.55 E24.81407
G1 X61.093 Y52.55 E24.82405
G1 X61.093 Y52.75 E24.83051
G1 X61.094 Y57.35 E25.06001
G1 X61.094 Y57.55 E25.06999
G1 X60.894 Y57.55 E25.07645
G1 X56.935 Y57.55 E25.27396
G1 X56.935 Y52.75 E25.51344
G1 X56.935 Y52.749 E25.51348
G1 X56.935 Y52.536 E25.52023
G0 F1800 X56.735 Y52.549
G0 X56.783 Y51.74
;TYPE:SKIN
G1 F1080 X57.001 Y51.74 E25.53111
G1 X55.273 Y51.857 E25.61752
G1 X53.837 Y52.157 E25.69071
G1 X52.475 Y52.639 E25.76279
G1 X52.776 Y52.497 E25.77939
G1 X54.063 Y52.079 E25.8469
G1 X55.374 Y51.829 E25.91348
G1 X56.783 Y51.74 E25.98392
G0 F1800 X57.725 Y51.74
G1 F1080 X61.954 Y51.74 E26.19491
G1 X61.955 Y51.76 E26.1959
G1 X60.303 Y51.76 E26.27832
G1 X60.304 Y56.76 E26.52777
G1 X57.725 Y56.76 E26.65644
G1 X57.725 Y51.74 E26.90689
G0 F1800 X52.405 Y52.672
G1 F1080 X51.19 Y53.302 E26.97517
G1 X51.552 Y53.072 E26.99657
G1 X52.405 Y52.672 E27.04357
G0 F1800 X51.093 Y53.363
G1 F1080 X50.007 Y54.131 E27.10993
G1 X50.412 Y53.795 E27.13618
G1 X51.093 Y53.363 E27.17642
G0 F1800 X49.894 Y54.224
G1 F1080 X48.962 Y55.095 E27.24006
G1 X49.378 Y54.651 E27.27042
G1 X49.894 Y54.224 E27.30383
G0 F1800 X48.821 Y55.246
G1 F1080 X48.056 Y56.183 E27.36418
G1 X48.447 Y55.645 E27.39736
G1 X48.821 Y55.246 E27.42464
G0 F1800 X47.902 Y56.395
G1 F1080 X47.217 Y57.525 E27.49057
G1 X47.643 Y56.751 E27.53465
G1 X47.902 Y56.395 E27.55661
G0 F1800 X47.19 Y57.574
G1 F1080 X46.613 Y58.903 E27.62889
G1 X46.217 Y60.313 E27.70196
G1 X46.017 Y61.767 E27.77518
G1 X46.017 Y63.233 E27.84832
G1 X46.217 Y64.687 E27.92155
G1 X46.613 Y66.097 E27.99461
G1 X47.19 Y67.426 E28.0669
G1 X47.008 Y67.096 E28.0857
G1 X46.503 Y65.819 E28.15421
G1 X46.166 Y64.505 E28.22189
G1 X45.999 Y63.186 E28.28822
G1 X45.999 Y61.811 E28.35682
G1 X46.166 Y60.495 E28.423
G1 X46.503 Y59.181 E28.49068
G1 X47.008 Y57.904 E28.55919
G1 X47.19 Y57.574 E28.57799
G0 F1800 X46.56 Y60.389
G0 X46.368 Y61.79
G0 X46.368 Y63.21
G0 X46.522 Y64.344
G0 X47.217 Y67.475
G1 F1080 X47.902 Y68.605 E28.64391
G1 X47.643 Y68.249 E28.66588
G1 X47.217 Y67.475 E28.70996
G0 F1800 X48.056 Y68.817
G1 F1080 X48.821 Y69.754 E28.7703
G1 X48.447 Y69.355 E28.79759
G1 X48.056 Y68.817 E28.83077
G0 F1800 X48.962 Y69.905
G1 F1080 X49.894 Y70.776 E28.89441
G1 X49.378 Y70.349 E28.92783
G1 X48.962 Y69.905 E28.95818
G0 F1800 X50.007 Y70.869
G1 F1080 X51.093 Y71.637 E29.02454
G1 X50.412 Y71.205 E29.06477
G1 X50.007 Y70.869 E29.09103
G0 F1800 X51.19 Y71.698
G1 F1080 X52.405 Y72.328 E29.15931
G1 X51.552 Y71.928 E29.20631
G1 X51.19 Y71.698 E29.22771
G0 F1800 X52.475 Y72.361
G1 F1080 X53.837 Y72.843 E29.29979
G1 X55.272 Y73.143 E29.37293
G1 X57.002 Y73.26 E29.45944
G1 X56.783 Y73.26 E29.47036
G1 X55.374 Y73.171 E29.5408
G1 X54.063 Y72.921 E29.60738
G1 X52.776 Y72.503 E29.67489
G1 X52.475 Y72.361 E29.6915
G0 F1800 X55.319 Y72.794
G0 X57.363 Y72.92
G0 X57.725 Y68.24
G1 F1080 X60.303 Y68.24 E29.82011
G1 X60.303 Y73.24 E30.06957
G1 X61.955 Y73.24 E30.15198
G1 X61.955 Y73.26 E30.15298
G1 X57.726 Y73.26 E30.36397
G1 X57.725 Y68.24 E30.61442
G0 F1800 X58.37 Y73.078
G1 F1080 X57.905 Y72.613 E30.64722
G0 F1800 X57.905 Y72.047
G1 F1080 X58.936 Y73.078 E30.71997
G0 F1800 X59.502 Y73.078
G1 F1080 X57.905 Y71.482 E30.83261
G0 F1800 X57.905 Y70.916
G1 F1080 X60.068 Y73.078 E30.98519
G0 F1800 X60.123 Y72.568
G1 F1080 X57.904 Y70.35 E31.14171
G0 F1800 X57.904 Y69.784
G1 F1080 X60.123 Y72.002 E31.29824
G0 F1800 X60.123 Y71.436
G1 F1080 X57.904 Y69.218 E31.45477
G0 F1800 X57.904 Y68.652
G1 F1080 X60.123 Y70.871 E31.61133
G0 F1800 X60.123 Y70.305
G1 F1080 X58.237 Y68.419 E31.7444
G0 F1800 X58.802 Y68.419
G1 F1080 X60.123 Y69.739 E31.83757
G0 F1800 X60.123 Y69.174
G1 F1080 X59.368 Y68.419 E31.89083
G0 F1800 X59.934 Y68.419
G1 F1080 X60.123 Y68.608 E31.90417
G0 F1800 X57.363 Y72.92
G0 X55.319 Y72.794
G0 X53.934 Y72.505
G0 X52.594 Y72.03
G0 X51.331 Y71.375
G0 X50.181 Y70.564
G0 X49.139 Y69.591
G0 X48.246 Y68.496
G0 X47.508 Y67.277
G0 X46.946 Y65.984
G0 X46.56 Y64.611
G0 X46.368 Y63.21
G0 X46.368 Y61.79
G0 X46.56 Y60.389
G0 X46.946 Y59.016
G0 X47.508 Y57.723
G0 X48.246 Y56.504
G0 X49.139 Y55.409
G0 X50.181 Y54.436
G0 X51.331 Y53.625
G0 X52.594 Y52.97
G0 X53.934 Y52.495
G0 X55.32 Y52.206
G0 X57.362 Y52.08
G0 X59.974 Y56.58
G1 F1080 X57.904 Y54.51 E32.05022
G0 F1800 X57.904 Y55.075
G1 F1080 X59.408 Y56.58 E32.15637
G0 F1800 X58.843 Y56.58
G1 F1080 X57.904 Y55.641 E32.22262
G0 F1800 X57.904 Y56.207
G1 F1080 X58.277 Y56.58 E32.24894
