;FLAVOR:Marlin
;TIME:6666
;Filament used: 0m
;Layer height: 0.1

;Generated with Cura_SteamEngine 2.7.0

;Start GCode begin
M140 S50
M109 S200
M190 S50
G28 ;Home
G90 ;absolute positioning
G1 X-4 Y-4
G1 Z0 F3000
G92 E0
G1 F200 E20
G92 E0
;Start GCode end

;LAYER_COUNT:179
;LAYER:0
M107
G0 F2400 X62.133 Y53.313 Z0.2
;TYPE:SKIRT
G1 F900 X62.007 Y53.514 E0.00789
G1 X60.889 Y55.126 E0.07314
G1 X60.41 Y55.748 E0.09925
G1 X59.136 Y57.239 E0.16448
G1 X58.755 Y57.653 E0.18319
G1 X58.523 Y57.888 E0.19417
G1 X58.24 Y58.922 E0.22983
G1 X58.018 Y60.108 E0.26996
G1 X57.906 Y61.217 E0.30704
G1 X57.905 Y62.619 E0.35367
G1 X58.042 Y63.875 E0.39569
G1 X58.313 Y65.155 E0.43921
G1 X58.755 Y66.551 E0.48791
G1 X59.401 Y68.074 E0.54293
G1 X59.915 Y69.027 E0.57895
G1 X60.649 Y69.924 E0.61749
G1 X61.035 Y70.437 E0.63885
G1 X61.964 Y71.785 E0.6933
G1 X62.243 Y72.22 E0.71049
G1 X62.376 Y72.444 E0.71915
G1 X62.503 Y72.505 E0.72384
G1 X62.634 Y72.433 E0.72881
G1 X62.707 Y72.305 E0.73371
G1 X63.06 Y71.748 E0.75564
G1 X64.003 Y70.388 E0.81069
G1 X64.379 Y69.89 E0.83144
G1 X65.084 Y69.029 E0.86845
G1 X65.604 Y68.066 E0.90485
G1 X66.221 Y66.62 E0.95714
G1 X66.678 Y65.185 E1.00723
G1 X66.95 Y63.917 E1.05037
G1 X67.112 Y62.262 E1.10568
G1 X67.113 Y61.597 E1.12779
G1 X67.027 Y60.449 E1.16608
G1 X66.819 Y59.193 E1.20843
G1 X66.649 Y58.489 E1.23252
G1 X66.415 Y57.81 E1.2564
G1 X66.047 Y57.439 E1.27378
G1 X65.591 Y56.937 E1.29634
G1 X64.414 Y55.524 E1.3575
G1 X63.957 Y54.918 E1.38275
G1 X62.888 Y53.346 E1.44598
G1 X62.868 Y53.314 E1.44723
G1 X62.617 Y53.292 E1.45561
G1 X62.2 Y53.304 E1.46949
G1 X62.133 Y53.313 E1.47174
G0 F2400 X61.894 Y52.943
G1 F900 X61.679 Y53.286 E1.4852
G1 X60.561 Y54.898 E1.55045
G1 X60.106 Y55.488 E1.57523
G1 X58.832 Y56.979 E1.64046
G1 X58.471 Y57.372 E1.65821
G1 X58.164 Y57.683 E1.67274
G1 X57.853 Y58.819 E1.71192
G1 X57.621 Y60.055 E1.75374
G1 X57.507 Y61.197 E1.79192
G1 X57.505 Y62.644 E1.84004
G1 X57.646 Y63.931 E1.8831
G1 X57.928 Y65.267 E1.92852
G1 X58.377 Y66.684 E1.97796
G1 X59.039 Y68.247 E2.03441
G1 X59.58 Y69.248 E2.07226
G1 X60.34 Y70.177 E2.11218
G1 X60.705 Y70.664 E2.13242
G1 X61.634 Y72.012 E2.18687
G1 X61.899 Y72.424 E2.20317
G1 X62.095 Y72.753 E2.2159
G1 X62.426 Y72.913 E2.22813
G1 X62.501 Y72.959 E2.23106
G1 X62.917 Y72.743 E2.24665
G1 X63.054 Y72.504 E2.25581
G1 X63.389 Y71.975 E2.27664
G1 X64.332 Y70.615 E2.33168
G1 X64.688 Y70.143 E2.35134
G1 X65.419 Y69.25 E2.38973
G1 X65.965 Y68.239 E2.42794
G1 X66.595 Y66.763 E2.48132
G1 X67.066 Y65.286 E2.53288
G1 X67.346 Y63.979 E2.57734
G1 X67.512 Y62.278 E2.63418
G1 X67.513 Y61.581 E2.65737
G1 X67.425 Y60.408 E2.69649
G1 X67.209 Y59.104 E2.74045
G1 X67.035 Y58.382 E2.76515
G1 X66.763 Y57.592 E2.79294
G1 X66.331 Y57.157 E2.81333
G1 X65.898 Y56.681 E2.83474
G1 X64.721 Y55.268 E2.8959
G1 X64.288 Y54.693 E2.91984
G1 X63.219 Y53.121 E2.98307
G1 X63.103 Y52.933 E2.99042
G1 X62.633 Y52.891 E3.00611
G1 X62.166 Y52.904 E3.02165
G1 X61.894 Y52.943 E3.03079
G0 F2400 X61.653 Y52.575
G1 F900 X61.35 Y53.058 E3.04975
G1 X60.232 Y54.67 E3.115
G1 X59.802 Y55.228 E3.13843
G1 X58.528 Y56.719 E3.20366
G1 X58.186 Y57.091 E3.22047
G1 X57.815 Y57.466 E3.23801
G1 X57.786 Y57.549 E3.24094
G1 X57.459 Y58.746 E3.28221
G1 X57.226 Y59.989 E3.32427
G1 X57.107 Y61.175 E3.36392
G1 X57.105 Y62.669 E3.41361
G1 X57.25 Y63.996 E3.45801
G1 X57.538 Y65.359 E3.50434
G1 X58.002 Y66.825 E3.55548
G1 X58.68 Y68.423 E3.61322
G1 X59.248 Y69.475 E3.65298
G1 X60.03 Y70.431 E3.69406
G1 X60.376 Y70.891 E3.71321
G1 X61.305 Y72.239 E3.76766
G1 X61.555 Y72.629 E3.78307
G1 X61.811 Y73.059 E3.79971
G1 X62.269 Y73.284 E3.81668
G1 X62.5 Y73.43 E3.82577
G1 X62.776 Y73.258 E3.83659
G1 X63.2 Y73.054 E3.85224
G1 X63.401 Y72.704 E3.86566
G1 X63.718 Y72.203 E3.88538
G1 X64.661 Y70.843 E3.94042
G1 X64.997 Y70.397 E3.959
G1 X65.753 Y69.474 E3.99868
G1 X66.326 Y68.412 E4.03881
G1 X66.97 Y66.903 E4.09338
G1 X67.452 Y65.39 E4.1462
G1 X67.741 Y64.04 E4.19212
G1 X67.912 Y62.3 E4.25027
G1 X67.913 Y61.564 E4.27475
G1 X67.823 Y60.359 E4.31494
G1 X67.602 Y59.025 E4.35991
G1 X67.418 Y58.264 E4.38595
G1 X67.112 Y57.376 E4.41719
G1 X66.615 Y56.875 E4.44066
G1 X66.206 Y56.425 E4.46089
G1 X65.029 Y55.012 E4.52205
G1 X64.619 Y54.468 E4.54471
G1 X63.55 Y52.896 E4.60794
G1 X63.337 Y52.553 E4.62137
G1 X62.641 Y52.491 E4.64461
G1 X62.141 Y52.505 E4.66125
G1 X61.653 Y52.575 E4.67764
G0 F2400 X61.406 Y52.206
G1 F900 X61.347 Y52.311 E4.68165
G1 X61.021 Y52.83 E4.70203
G1 X59.903 Y54.442 E4.76728
G1 X59.498 Y54.968 E4.78936
G1 X58.224 Y56.459 E4.85459
G1 X57.902 Y56.81 E4.87043
G1 X57.468 Y57.25 E4.89099
G1 X57.403 Y57.432 E4.89742
G1 X57.069 Y58.651 E4.93945
G1 X56.83 Y59.933 E4.98283
G1 X56.707 Y61.155 E5.02368
G1 X56.704 Y62.685 E5.07457
G1 X56.855 Y64.062 E5.12064
G1 X57.151 Y65.461 E5.1682
G1 X57.63 Y66.973 E5.22095
G1 X58.316 Y68.591 E5.2794
G1 X58.914 Y69.699 E5.32128
G1 X59.72 Y70.684 E5.36361
G1 X60.046 Y71.118 E5.38167
G1 X60.975 Y72.466 E5.43612
G1 X61.212 Y72.834 E5.45068
G1 X61.527 Y73.363 E5.47115
G1 X62.111 Y73.653 E5.49284
G1 X62.493 Y73.899 E5.50795
G1 X62.526 Y73.875 E5.50931
G1 X63.154 Y73.51 E5.53347
G1 X63.475 Y73.378 E5.54501
G1 X63.748 Y72.903 E5.56323
G1 X64.046 Y72.431 E5.5818
G1 X64.989 Y71.071 E5.63684
G1 X65.307 Y70.65 E5.65439
G1 X66.087 Y69.698 E5.69533
G1 X66.687 Y68.585 E5.73738
G1 X67.344 Y67.046 E5.79304
G1 X67.84 Y65.492 E5.84729
G1 X68.137 Y64.102 E5.89457
G1 X68.312 Y62.319 E5.95416
G1 X68.313 Y61.548 E5.9798
G1 X68.22 Y60.309 E6.02113
G1 X67.995 Y58.947 E6.06704
G1 X67.803 Y58.154 E6.09418
G1 X67.461 Y57.161 E6.12911
G1 X66.899 Y56.594 E6.15566
G1 X66.513 Y56.169 E6.17476
G1 X65.336 Y54.756 E6.23592
G1 X64.949 Y54.243 E6.25729
G1 X63.88 Y52.671 E6.32052
G1 X63.585 Y52.195 E6.33915
G1 X63.573 Y52.173 E6.33998
G1 X62.648 Y52.09 E6.37087
G1 X62.108 Y52.105 E6.38884
G1 X61.406 Y52.206 E6.41243
G0 F2400 X61.154 Y51.838
G1 F900 X60.998 Y52.115 E6.423
G1 X60.693 Y52.602 E6.44211
G1 X59.575 Y54.214 E6.50736
G1 X59.194 Y54.709 E6.52814
G1 X57.92 Y56.2 E6.59337
G1 X57.617 Y56.529 E6.60824
G1 X57.123 Y57.03 E6.63164
G1 X57.022 Y57.31 E6.64154
G1 X56.678 Y58.57 E6.68499
G1 X56.433 Y59.879 E6.72928
G1 X56.307 Y61.134 E6.77123
G1 X56.304 Y62.711 E6.82368
G1 X56.459 Y64.118 E6.87076
G1 X56.766 Y65.572 E6.92019
G1 X57.25 Y67.101 E6.97353
G1 X57.957 Y68.767 E7.03372
G1 X58.578 Y69.919 E7.07725
G1 X59.411 Y70.937 E7.121
G1 X59.717 Y71.345 E7.13797
G1 X60.646 Y72.693 E7.19242
G1 X60.868 Y73.039 E7.20609
G1 X61.249 Y73.679 E7.23086
G1 X61.322 Y73.706 E7.23345
G1 X61.951 Y74.023 E7.25688
G1 X62.505 Y74.386 E7.27891
G1 X62.91 Y74.105 E7.2953
G1 X63.531 Y73.772 E7.31874
G1 X63.762 Y73.682 E7.32698
G1 X64.095 Y73.102 E7.34923
G1 X64.375 Y72.659 E7.36666
G1 X65.318 Y71.299 E7.4217
G1 X65.616 Y70.904 E7.43816
G1 X66.42 Y69.922 E7.48037
G1 X67.049 Y68.758 E7.52438
G1 X67.719 Y67.186 E7.58121
G1 X68.226 Y65.598 E7.63666
G1 X68.533 Y64.162 E7.6855
G1 X68.712 Y62.338 E7.74646
G1 X68.713 Y61.531 E7.7733
G1 X68.618 Y60.269 E7.81539
G1 X68.385 Y58.858 E7.86296
G1 X68.189 Y58.046 E7.89074
G1 X67.809 Y56.943 E7.92954
G1 X67.183 Y56.312 E7.9591
G1 X66.82 Y55.913 E7.97705
G1 X65.643 Y54.5 E8.03821
G1 X65.28 Y54.018 E8.05828
G1 X64.211 Y52.446 E8.12151
G1 X63.934 Y51.999 E8.139
G1 X63.825 Y51.806 E8.14637
G1 X63.689 Y51.781 E8.15097
G1 X62.673 Y51.69 E8.1849
G1 X62.066 Y51.707 E8.20509
G1 X61.154 Y51.838 E8.23574
G0 F2400 X60.902 Y51.47
G1 F900 X60.65 Y51.918 E8.25284
G1 X60.364 Y52.374 E8.27074
G1 X59.246 Y53.986 E8.33599
G1 X58.89 Y54.449 E8.35541
G1 X57.616 Y55.94 E8.42064
G1 X57.333 Y56.248 E8.43455
G1 X56.774 Y56.814 E8.46101
G1 X56.641 Y57.188 E8.47421
G1 X56.289 Y58.475 E8.51859
G1 X56.037 Y59.824 E8.56424
G1 X55.907 Y61.114 E8.60736
G1 X55.904 Y62.735 E8.66127
G1 X56.063 Y64.186 E8.70982
G1 X56.376 Y65.662 E8.76001
G1 X56.876 Y67.242 E8.81513
G1 X57.597 Y68.944 E8.8766
G1 X58.247 Y70.147 E8.92208
G1 X59.101 Y71.191 E8.96694
G1 X59.388 Y71.572 E8.98281
G1 X60.317 Y72.92 E9.03726
G1 X60.524 Y73.243 E9.05002
G1 X60.979 Y74.006 E9.07957
G1 X61.183 Y74.082 E9.08681
G1 X61.79 Y74.392 E9.10948
G1 X62.356 Y74.77 E9.13211
G1 X62.501 Y74.895 E9.13848
G1 X62.721 Y74.713 E9.14798
G1 X63.293 Y74.344 E9.17062
G1 X63.904 Y74.044 E9.19326
G1 X64.044 Y73.992 E9.19822
G1 X64.441 Y73.302 E9.2247
G1 X64.704 Y72.887 E9.24104
G1 X65.647 Y71.527 E9.29609
G1 X65.926 Y71.157 E9.3115
G1 X66.754 Y70.146 E9.35496
G1 X67.41 Y68.931 E9.40089
G1 X68.098 Y67.316 E9.45928
G1 X68.61 Y65.712 E9.51528
G1 X68.931 Y64.215 E9.5662
G1 X69.112 Y62.368 E9.62792
G1 X69.113 Y61.528 E9.65586
G1 X69.014 Y60.208 E9.69989
G1 X68.778 Y58.783 E9.74793
G1 X68.574 Y57.936 E9.77691
G1 X68.157 Y56.725 E9.81951
G1 X67.467 Y56.03 E9.85208
G1 X67.128 Y55.657 E9.86884
G1 X65.951 Y54.244 E9.93001
G1 X65.611 Y53.793 E9.94879
G1 X64.542 Y52.221 E10.01202
G1 X64.282 Y51.803 E10.0284
G1 X64.088 Y51.458 E10.04156
G1 X63.994 Y51.429 E10.04483
G1 X63.751 Y51.386 E10.05304
G1 X62.68 Y51.29 E10.0888
G1 X62.032 Y51.308 E10.11037
G1 X60.902 Y51.47 E10.14833
G0 F2400 X60.641 Y51.12
G1 F900 X60.302 Y51.722 E10.17131
G1 X60.035 Y52.146 E10.18798
G1 X58.917 Y53.758 E10.25323
G1 X58.585 Y54.189 E10.27132
G1 X57.311 Y55.68 E10.33655
G1 X57.048 Y55.967 E10.3495
G1 X56.428 Y56.595 E10.37885
G1 X56.259 Y57.067 E10.39552
G1 X55.9 Y58.382 E10.44086
G1 X55.64 Y59.77 E10.48783
G1 X55.507 Y61.094 E10.53209
G1 X55.504 Y62.752 E10.58723
G1 X55.669 Y64.252 E10.63742
G1 X55.991 Y65.774 E10.68917
G1 X56.496 Y67.371 E10.74488
G1 X57.238 Y69.12 E10.80807
G1 X57.912 Y70.368 E10.85524
G1 X58.792 Y71.444 E10.90147
G1 X59.058 Y71.799 E10.91623
G1 X59.987 Y73.147 E10.97068
G1 X60.181 Y73.448 E10.98259
G1 X60.708 Y74.333 E11.01685
G1 X61.044 Y74.458 E11.02877
G1 X61.627 Y74.76 E11.05061
G1 X62.169 Y75.131 E11.07246
G1 X62.498 Y75.421 E11.08704
G1 X62.588 Y75.332 E11.09125
G1 X63.108 Y74.93 E11.11311
G1 X63.672 Y74.593 E11.13496
G1 X64.313 Y74.328 E11.15803
G1 X64.788 Y73.501 E11.18976
G1 X65.032 Y73.115 E11.20494
G1 X65.975 Y71.755 E11.25999
G1 X66.235 Y71.41 E11.27436
G1 X67.089 Y70.367 E11.31919
G1 X67.771 Y69.104 E11.36693
G1 X68.472 Y67.459 E11.42641
G1 X69.001 Y65.803 E11.48423
G1 X69.326 Y64.285 E11.53586
G1 X69.512 Y62.387 E11.59929
G1 X69.514 Y61.512 E11.62839
G1 X69.412 Y60.169 E11.67319
G1 X69.169 Y58.701 E11.72268
G1 X68.956 Y57.819 E11.75286
G1 X68.505 Y56.509 E11.79894
G1 X67.751 Y55.749 E11.83455
G1 X67.435 Y55.401 E11.85018
G1 X66.258 Y53.988 E11.91135
G1 X65.942 Y53.569 E11.9288
G1 X64.873 Y51.997 E11.99203
G1 X64.631 Y51.606 E12.00732
G1 X64.359 Y51.122 E12.02579
G1 X64.096 Y51.042 E12.03493
G1 X63.789 Y50.987 E12.04531
G1 X62.696 Y50.889 E12.0818
G1 X61.998 Y50.908 E12.10503
G1 X60.739 Y51.09 E12.14734
G1 X60.641 Y51.12 E12.15075
G0 F2400 X60.37 Y50.786
G1 F900 X59.953 Y51.525 E12.17897
G1 X59.707 Y51.918 E12.19439
G1 X58.589 Y53.53 E12.25964
G1 X58.281 Y53.929 E12.2764
G1 X57.007 Y55.42 E12.34163
G1 X56.763 Y55.686 E12.35364
G1 X56.081 Y56.377 E12.38593
G1 X55.876 Y56.949 E12.40614
G1 X55.511 Y58.288 E12.4523
G1 X55.244 Y59.714 E12.50055
G1 X55.107 Y61.073 E12.54598
G1 X55.104 Y62.776 E12.60262
G1 X55.272 Y64.309 E12.65392
G1 X55.604 Y65.877 E12.70723
G1 X56.124 Y67.519 E12.76451
G1 X56.874 Y69.288 E12.82842
G1 X57.578 Y70.592 E12.87771
G1 X58.482 Y71.697 E12.92519
G1 X58.729 Y72.026 E12.93887
G1 X59.658 Y73.374 E12.99333
G1 X59.837 Y73.653 E13.00435
G1 X60.435 Y74.657 E13.04322
G1 X60.903 Y74.833 E13.05985
G1 X61.463 Y75.128 E13.0809
G1 X61.98 Y75.492 E13.10193
G1 X62.447 Y75.917 E13.12293
G1 X62.498 Y75.977 E13.12555
G1 X62.517 Y75.955 E13.12652
G1 X62.979 Y75.524 E13.14753
G1 X63.493 Y75.156 E13.16856
G1 X64.049 Y74.855 E13.18959
G1 X64.593 Y74.643 E13.20901
G1 X65.135 Y73.7 E13.24518
G1 X65.361 Y73.343 E13.25923
G1 X66.304 Y71.983 E13.31428
G1 X66.545 Y71.664 E13.32758
G1 X67.421 Y70.594 E13.37357
G1 X68.132 Y69.277 E13.42335
G1 X68.848 Y67.599 E13.48403
G1 X69.387 Y65.91 E13.543
G1 X69.722 Y64.345 E13.59623
G1 X69.912 Y62.406 E13.66103
G1 X69.914 Y61.496 E13.69129
G1 X69.81 Y60.117 E13.73729
G1 X69.563 Y58.629 E13.78746
G1 X69.339 Y57.698 E13.81931
G1 X68.855 Y56.293 E13.86873
G1 X68.035 Y55.467 E13.90744
G1 X67.742 Y55.145 E13.92192
G1 X66.565 Y53.732 E13.98309
G1 X66.272 Y53.344 E13.99926
G1 X65.203 Y51.772 E14.06249
G1 X64.98 Y51.41 E14.07663
G1 X64.629 Y50.785 E14.10047
G1 X64.188 Y50.652 E14.11579
G1 X63.85 Y50.591 E14.12722
G1 X62.704 Y50.488 E14.16549
G1 X61.965 Y50.509 E14.19007
G1 X60.651 Y50.698 E14.23423
G1 X60.37 Y50.786 E14.24402
G0 F2400 X60.1 Y50.451
G1 F900 X59.605 Y51.329 E14.27755
G1 X59.378 Y51.691 E14.29176
G1 X58.26 Y53.303 E14.357
G1 X57.977 Y53.669 E14.37239
G1 X56.703 Y55.16 E14.43762
G1 X56.479 Y55.404 E14.44864
G1 X55.735 Y56.158 E14.48387
G1 X55.493 Y56.836 E14.50781
G1 X55.118 Y58.208 E14.55512
G1 X54.848 Y59.647 E14.60382
G1 X54.707 Y61.053 E14.65081
G1 X54.704 Y62.793 E14.70869
G1 X54.879 Y64.383 E14.76189
G1 X55.214 Y65.968 E14.81577
G1 X55.749 Y67.66 E14.87479
G1 X56.514 Y69.464 E14.93997
G1 X57.245 Y70.816 E14.99109
G1 X58.172 Y71.95 E15.0398
G1 X58.4 Y72.253 E15.05242
G1 X59.329 Y73.601 E15.10687
G1 X59.493 Y73.857 E15.11698
G1 X60.165 Y74.985 E15.16065
G1 X60.195 Y74.994 E15.16169
G1 X60.762 Y75.208 E15.18185
G1 X61.296 Y75.496 E15.20203
G1 X61.787 Y75.851 E15.22218
G1 X62.228 Y76.267 E15.24234
G1 X62.496 Y76.597 E15.25648
G1 X62.509 Y76.578 E15.25725
G1 X62.911 Y76.124 E15.27742
G1 X63.369 Y75.727 E15.29758
G1 X63.875 Y75.393 E15.31774
G1 X64.421 Y75.129 E15.33791
G1 X64.749 Y75.011 E15.34951
G1 X64.865 Y74.974 E15.35356
G1 X65.482 Y73.9 E15.39475
G1 X65.69 Y73.571 E15.4077
G1 X66.633 Y72.211 E15.46274
G1 X66.854 Y71.917 E15.47498
G1 X67.756 Y70.815 E15.52234
G1 X68.493 Y69.45 E15.57394
G1 X69.222 Y67.742 E15.6357
G1 X69.774 Y66.011 E15.69613
G1 X70.117 Y64.407 E15.75069
G1 X70.311 Y62.425 E15.81692
G1 X70.314 Y61.479 E15.84839
G1 X70.207 Y60.067 E15.89549
G1 X69.956 Y58.551 E15.94659
G1 X69.725 Y57.591 E15.97944
G1 X69.203 Y56.076 E16.03273
G1 X68.319 Y55.185 E16.07448
G1 X68.05 Y54.889 E16.08778
G1 X66.873 Y53.476 E16.14895
G1 X66.603 Y53.119 E16.16383
G1 X65.534 Y51.547 E16.22706
G1 X65.328 Y51.214 E16.24009
G1 X64.898 Y50.449 E16.26927
G1 X64.281 Y50.262 E16.29072
G1 X63.912 Y50.195 E16.30319
G1 X62.712 Y50.088 E16.34326
G1 X61.931 Y50.11 E16.36925
G1 X60.56 Y50.307 E16.41532
G1 X60.1 Y50.451 E16.43135
G0 F2400 X59.828 Y50.118
G1 F900 X59.256 Y51.132 E16.47007
G1 X59.049 Y51.463 E16.48305
G1 X57.931 Y53.075 E16.5483
G1 X57.673 Y53.409 E16.56234
G1 X56.399 Y54.9 E16.62757
G1 X56.194 Y55.123 E16.63764
G1 X55.388 Y55.939 E16.67579
G1 X55.11 Y56.718 E16.7033
G1 X54.729 Y58.112 E16.75137
G1 X54.452 Y59.593 E16.80148
G1 X54.307 Y61.032 E16.84958
G1 X54.304 Y62.817 E16.90895
G1 X54.482 Y64.44 E16.96326
G1 X54.829 Y66.08 E17.01901
G1 X55.371 Y67.792 E17.07874
G1 X56.149 Y69.628 E17.14506
G1 X56.914 Y71.044 E17.19859
G1 X57.863 Y72.204 E17.24844
G1 X58.07 Y72.48 E17.25991
G1 X58.999 Y73.828 E17.31436
G1 X59.15 Y74.062 E17.32363
G1 X59.9 Y75.322 E17.3724
G1 X60.078 Y75.376 E17.37858
G1 X60.62 Y75.583 E17.39788
G1 X61.127 Y75.862 E17.41713
G1 X61.592 Y76.209 E17.43642
G1 X62.004 Y76.616 E17.45569
G1 X62.356 Y77.076 E17.47495
G1 X62.499 Y77.328 E17.48459
G1 X62.569 Y77.193 E17.48965
G1 X62.906 Y76.722 E17.50891
G1 X63.304 Y76.301 E17.52818
G1 X63.757 Y75.939 E17.54746
G1 X64.255 Y75.643 E17.56673
G1 X64.871 Y75.392 E17.58886
G1 X65.134 Y75.308 E17.59804
G1 X65.829 Y74.099 E17.64442
G1 X66.019 Y73.799 E17.65623
G1 X66.962 Y72.439 E17.71128
G1 X67.164 Y72.171 E17.72244
G1 X68.088 Y71.042 E17.77096
G1 X68.852 Y69.627 E17.82445
G1 X69.598 Y67.878 E17.88769
G1 X70.161 Y66.115 E17.94924
G1 X70.513 Y64.468 E18.00526
G1 X70.711 Y62.444 E18.0729
G1 X70.714 Y61.463 E18.10553
G1 X70.605 Y60.028 E18.15339
G1 X70.346 Y58.463 E18.20616
G1 X70.11 Y57.481 E18.23975
G1 X69.55 Y55.858 E18.29685
G1 X68.603 Y54.903 E18.34158
G1 X68.357 Y54.633 E18.35373
G1 X67.18 Y53.22 E18.4149
G1 X66.934 Y52.894 E18.42848
G1 X65.865 Y51.322 E18.49171
G1 X65.677 Y51.018 E18.5036
G1 X65.169 Y50.114 E18.53809
G1 X64.373 Y49.873 E18.56575
G1 X63.951 Y49.797 E18.58001
G1 X62.728 Y49.687 E18.62085
