;FLAVOR:Marlin
;TIME:6666
;Filament used: 0m
;Layer height: 0.1

;Generated with Cura_SteamEngine 2.7.0

;Start GCode begin
M140 S50
M109 S200
M190 S50
G28 ;Home
G90 ;absolute positioning
G1 X-4 Y-4
G1 Z0 F3000
G92 E0
G1 F200 E20
G92 E0
;Start GCode end

;LAYER_COUNT:127
;LAYER:0
M107
G0 F2400 X39.949 Y46.53 Z0.1
;TYPE:SKIRT
G1 F900 X40.548 Y46.015 E0.01314
G1 X41.196 Y45.564 E0.02627
G1 X41.887 Y45.18 E0.03941
G1 X42.612 Y44.868 E0.05254
G1 X43.365 Y44.631 E0.06567
G1 X44.139 Y44.472 E0.07881
G1 X44.924 Y44.391 E0.09193
G1 X45.326 Y44.381 E0.09862
G1 X79.674 Y44.381 E0.66983
G1 X80.463 Y44.421 E0.68297
G1 X81.243 Y44.54 E0.69609
G1 X82.008 Y44.738 E0.70923
G1 X82.748 Y45.012 E0.72235
G1 X83.457 Y45.36 E0.73549
G1 X84.128 Y45.778 E0.74863
G1 X84.752 Y46.261 E0.76176
G1 X85.325 Y46.804 E0.77488
G1 X85.84 Y47.403 E0.78802
G1 X86.291 Y48.051 E0.80115
G1 X86.675 Y48.742 E0.8143
G1 X86.987 Y49.467 E0.82742
G1 X87.224 Y50.22 E0.84055
G1 X87.383 Y50.994 E0.85369
G1 X87.464 Y51.779 E0.86681
G1 X87.474 Y52.181 E0.8735
G1 X87.474 Y72.819 E1.21671
G1 X87.434 Y73.608 E1.22985
G1 X87.315 Y74.388 E1.24297
G1 X87.117 Y75.153 E1.25611
G1 X86.843 Y75.893 E1.26924
G1 X86.495 Y76.602 E1.28237
G1 X86.077 Y77.273 E1.29552
G1 X85.594 Y77.897 E1.30864
G1 X85.051 Y78.47 E1.32177
G1 X84.452 Y78.985 E1.33491
G1 X83.804 Y79.436 E1.34804
G1 X83.113 Y79.82 E1.36118
G1 X82.388 Y80.132 E1.37431
G1 X81.635 Y80.369 E1.38744
G1 X80.861 Y80.528 E1.40058
G1 X80.076 Y80.609 E1.4137
G1 X79.674 Y80.619 E1.42039
G1 X45.326 Y80.619 E1.9916
G1 X44.537 Y80.579 E2.00473
G1 X43.757 Y80.46 E2.01786
G1 X42.992 Y80.262 E2.031
G1 X42.252 Y79.988 E2.04412
G1 X41.543 Y79.64 E2.05725
G1 X40.872 Y79.222 E2.0704
G1 X40.248 Y78.739 E2.08352
G1 X39.675 Y78.196 E2.09665
G1 X39.16 Y77.597 E2.10979
G1 X38.709 Y76.949 E2.12292
G1 X38.325 Y76.258 E2.13607
G1 X38.013 Y75.533 E2.14919
G1 X37.776 Y74.78 E2.16232
G1 X37.617 Y74.006 E2.17546
G1 X37.536 Y73.221 E2.18858
G1 X37.526 Y72.819 E2.19527
G1 X37.526 Y52.181 E2.53848
G1 X37.566 Y51.392 E2.55162
G1 X37.685 Y50.612 E2.56474
G1 X37.883 Y49.847 E2.57788
G1 X38.157 Y49.107 E2.59101
G1 X38.505 Y48.398 E2.60414
G1 X38.923 Y47.727 E2.61729
G1 X39.406 Y47.103 E2.63041
G1 X39.949 Y46.53 E2.64354
G0 F2400 X40.342 Y46.711
G1 F900 X40.937 Y46.223 E2.65634
G1 X41.579 Y45.8 E2.66912
G1 X42.262 Y45.445 E2.68192
G1 X42.977 Y45.164 E2.6947
G1 X43.719 Y44.958 E2.7075
G1 X44.477 Y44.83 E2.72029
G1 X45.326 Y44.781 E2.73443
G1 X79.674 Y44.781 E3.30564
G1 X80.442 Y44.821 E3.31843
G1 X81.202 Y44.94 E3.33122
G1 X81.945 Y45.138 E3.34401
G1 X82.664 Y45.412 E3.3568
G1 X83.35 Y45.759 E3.36959
G1 X83.997 Y46.175 E3.38238
G1 X84.597 Y46.656 E3.39517
G1 X85.144 Y47.197 E3.40796
G1 X85.632 Y47.792 E3.42076
G1 X86.055 Y48.434 E3.43355
G1 X86.41 Y49.117 E3.44635
G1 X86.691 Y49.832 E3.45912
G1 X86.897 Y50.574 E3.47193
G1 X87.025 Y51.332 E3.48471
G1 X87.074 Y52.181 E3.49886
G1 X87.074 Y72.819 E3.84207
G1 X87.034 Y73.587 E3.85486
G1 X86.915 Y74.347 E3.86765
G1 X86.717 Y75.09 E3.88044
G1 X86.443 Y75.809 E3.89323
G1 X86.096 Y76.495 E3.90602
G1 X85.68 Y77.142 E3.91881
G1 X85.199 Y77.742 E3.9316
G1 X84.658 Y78.289 E3.94439
G1 X84.063 Y78.777 E3.95719
G1 X83.421 Y79.2 E3.96998
G1 X82.738 Y79.555 E3.98278
G1 X82.023 Y79.836 E3.99555
G1 X81.281 Y80.042 E4.00836
G1 X80.523 Y80.17 E4.02114
G1 X79.674 Y80.219 E4.03528
G1 X45.326 Y80.219 E4.60649
G1 X44.558 Y80.179 E4.61928
G1 X43.798 Y80.06 E4.63208
G1 X43.055 Y79.862 E4.64486
G1 X42.336 Y79.588 E4.65766
G1 X41.65 Y79.241 E4.67044
G1 X41.003 Y78.825 E4.68324
G1 X40.403 Y78.344 E4.69602
G1 X39.856 Y77.803 E4.70882
G1 X39.368 Y77.208 E4.72162
G1 X38.945 Y76.566 E4.7344
G1 X38.59 Y75.883 E4.7472
G1 X38.309 Y75.168 E4.75998
G1 X38.103 Y74.426 E4.77278
G1 X37.975 Y73.668 E4.78557
G1 X37.926 Y72.819 E4.79971
G1 X37.926 Y52.181 E5.14292
G1 X37.966 Y51.413 E5.15571
G1 X38.085 Y50.653 E5.1685
G1 X38.283 Y49.91 E5.18129
G1 X38.557 Y49.191 E5.19409
G1 X38.904 Y48.505 E5.20687
G1 X39.32 Y47.858 E5.21966
G1 X39.801 Y47.258 E5.23245
G1 X40.342 Y46.711 E5.24525
G0 F2400 X40.734 Y46.897
G1 F900 X41.324 Y46.438 E5.25768
G1 X41.96 Y46.043 E5.27013
G1 X42.634 Y45.719 E5.28257
G1 X43.339 Y45.469 E5.295
G1 X44.067 Y45.295 E5.30745
G1 X44.809 Y45.2 E5.31989
G1 X45.326 Y45.181 E5.3285
G1 X79.674 Y45.181 E5.89971
G1 X80.421 Y45.221 E5.91215
G1 X81.159 Y45.34 E5.92458
G1 X81.881 Y45.538 E5.93703
G1 X82.577 Y45.811 E5.94946
G1 X83.24 Y46.158 E5.96191
G1 X83.863 Y46.573 E5.97435
G1 X84.437 Y47.052 E5.98679
G1 X84.958 Y47.589 E5.99923
G1 X85.417 Y48.179 E6.01166
G1 X85.812 Y48.815 E6.02411
G1 X86.136 Y49.489 E6.03655
G1 X86.386 Y50.194 E6.04899
G1 X86.56 Y50.922 E6.06144
G1 X86.655 Y51.664 E6.07388
G1 X86.674 Y52.181 E6.08248
G1 X86.674 Y72.819 E6.42569
G1 X86.634 Y73.566 E6.43813
G1 X86.515 Y74.304 E6.45056
G1 X86.317 Y75.026 E6.46301
G1 X86.044 Y75.722 E6.47545
G1 X85.697 Y76.385 E6.48789
G1 X85.282 Y77.008 E6.50034
G1 X84.803 Y77.582 E6.51277
G1 X84.266 Y78.103 E6.52521
G1 X83.676 Y78.562 E6.53765
G1 X83.04 Y78.957 E6.5501
G1 X82.366 Y79.281 E6.56253
G1 X81.661 Y79.531 E6.57497
G1 X80.933 Y79.705 E6.58742
G1 X80.191 Y79.8 E6.59986
G1 X79.674 Y79.819 E6.60846
G1 X45.326 Y79.819 E7.17967
G1 X44.579 Y79.779 E7.19211
G1 X43.841 Y79.66 E7.20455
G1 X43.119 Y79.462 E7.217
G1 X42.423 Y79.189 E7.22943
G1 X41.76 Y78.842 E7.24187
G1 X41.137 Y78.427 E7.25432
G1 X40.563 Y77.948 E7.26675
G1 X40.042 Y77.411 E7.2792
G1 X39.583 Y76.821 E7.29163
G1 X39.188 Y76.185 E7.30408
G1 X38.864 Y75.511 E7.31652
G1 X38.614 Y74.806 E7.32896
G1 X38.44 Y74.078 E7.3414
G1 X38.345 Y73.336 E7.35384
G1 X38.326 Y72.819 E7.36245
G1 X38.326 Y52.181 E7.70566
G1 X38.366 Y51.434 E7.7181
G1 X38.485 Y50.696 E7.73053
G1 X38.683 Y49.974 E7.74298
G1 X38.956 Y49.278 E7.75541
G1 X39.303 Y48.615 E7.76786
G1 X39.718 Y47.992 E7.78031
G1 X40.197 Y47.418 E7.79274
G1 X40.734 Y46.897 E7.80518
G0 F2400 X41.125 Y47.09
G1 F900 X41.71 Y46.66 E7.81726
G1 X42.339 Y46.296 E7.82934
G1 X43.004 Y46.003 E7.84143
G1 X43.697 Y45.785 E7.85351
G1 X44.409 Y45.645 E7.86558
G1 X45.326 Y45.581 E7.88086
G1 X79.674 Y45.581 E8.45207
G1 X80.399 Y45.621 E8.46415
G1 X81.116 Y45.74 E8.47623
G1 X81.815 Y45.938 E8.48832
G1 X82.488 Y46.211 E8.50039
G1 X83.127 Y46.556 E8.51247
G1 X83.724 Y46.97 E8.52455
G1 X84.272 Y47.446 E8.53662
G1 X84.765 Y47.98 E8.54871
G1 X85.195 Y48.565 E8.56078
G1 X85.559 Y49.194 E8.57287
G1 X85.852 Y49.859 E8.58495
G1 X86.07 Y50.552 E8.59704
G1 X86.21 Y51.264 E8.6091
G1 X86.274 Y52.181 E8.62439
G1 X86.274 Y72.819 E8.9676
G1 X86.234 Y73.544 E8.97968
G1 X86.115 Y74.261 E8.99176
G1 X85.917 Y74.96 E9.00384
G1 X85.644 Y75.633 E9.01592
G1 X85.299 Y76.272 E9.028
G1 X84.885 Y76.869 E9.04008
G1 X84.409 Y77.417 E9.05215
G1 X83.875 Y77.91 E9.06424
G1 X83.29 Y78.34 E9.07631
G1 X82.661 Y78.704 E9.0884
G1 X81.996 Y78.997 E9.10048
G1 X81.303 Y79.215 E9.11256
G1 X80.591 Y79.355 E9.12463
G1 X79.674 Y79.419 E9.13992
G1 X45.326 Y79.419 E9.71113
G1 X44.601 Y79.379 E9.7232
G1 X43.884 Y79.26 E9.73529
G1 X43.185 Y79.062 E9.74737
G1 X42.512 Y78.789 E9.75945
G1 X41.873 Y78.444 E9.77153
G1 X41.276 Y78.03 E9.78361
G1 X40.728 Y77.554 E9.79568
G1 X40.235 Y77.02 E9.80777
G1 X39.805 Y76.435 E9.81984
G1 X39.441 Y75.806 E9.83192
G1 X39.148 Y75.141 E9.84401
G1 X38.93 Y74.448 E9.85609
G1 X38.79 Y73.736 E9.86816
G1 X38.726 Y72.819 E9.88345
G1 X38.726 Y52.181 E10.22666
G1 X38.766 Y51.456 E10.23873
G1 X38.885 Y50.739 E10.25082
G1 X39.083 Y50.04 E10.2629
G1 X39.356 Y49.367 E10.27498
G1 X39.701 Y48.728 E10.28705
G1 X40.115 Y48.131 E10.29914
G1 X40.591 Y47.583 E10.31121
G1 X41.125 Y47.09 E10.32329
G0 F2400 X41.515 Y47.29
G1 F900 X42.094 Y46.89 E10.335
G1 X42.715 Y46.558 E10.34671
G1 X43.369 Y46.298 E10.35841
G1 X44.049 Y46.114 E10.37013
G1 X44.745 Y46.008 E10.38183
G1 X45.326 Y45.981 E10.39151
G1 X79.674 Y45.981 E10.96272
G1 X80.377 Y46.021 E10.97443
G1 X81.071 Y46.14 E10.98614
G1 X81.746 Y46.338 E10.99783
G1 X82.395 Y46.61 E11.00954
G1 X83.009 Y46.955 E11.02125
G1 X83.58 Y47.366 E11.03295
G1 X84.101 Y47.84 E11.04466
G1 X84.565 Y48.37 E11.05638
G1 X84.965 Y48.949 E11.06808
G1 X85.297 Y49.57 E11.07979
G1 X85.557 Y50.224 E11.09149
G1 X85.741 Y50.904 E11.10321
G1 X85.847 Y51.6 E11.11492
G1 X85.874 Y52.181 E11.12459
G1 X85.874 Y72.819 E11.4678
G1 X85.834 Y73.522 E11.47951
G1 X85.715 Y74.216 E11.49122
G1 X85.517 Y74.891 E11.50292
G1 X85.245 Y75.54 E11.51462
G1 X84.9 Y76.154 E11.52633
G1 X84.489 Y76.725 E11.53803
G1 X84.015 Y77.246 E11.54975
G1 X83.485 Y77.71 E11.56146
G1 X82.906 Y78.11 E11.57317
G1 X82.285 Y78.442 E11.58488
G1 X81.631 Y78.702 E11.59658
G1 X80.951 Y78.886 E11.60829
G1 X80.255 Y78.992 E11.62
G1 X79.674 Y79.019 E11.62968
G1 X45.326 Y79.019 E12.20088
G1 X44.623 Y78.979 E12.21259
G1 X43.929 Y78.86 E12.2243
G1 X43.254 Y78.662 E12.236
G1 X42.605 Y78.39 E12.24771
G1 X41.991 Y78.045 E12.25942
G1 X41.42 Y77.634 E12.27112
G1 X40.899 Y77.16 E12.28283
G1 X40.435 Y76.63 E12.29455
G1 X40.035 Y76.051 E12.30625
G1 X39.703 Y75.43 E12.31796
G1 X39.443 Y74.776 E12.32966
G1 X39.259 Y74.096 E12.34138
G1 X39.153 Y73.4 E12.35309
G1 X39.126 Y72.819 E12.36276
G1 X39.126 Y52.181 E12.70597
G1 X39.166 Y51.478 E12.71768
G1 X39.285 Y50.784 E12.72939
G1 X39.483 Y50.109 E12.74109
G1 X39.755 Y49.46 E12.75279
G1 X40.1 Y48.846 E12.7645
G1 X40.511 Y48.275 E12.7762
G1 X40.985 Y47.754 E12.78792
G1 X41.515 Y47.29 E12.79963
G0 F2400 X41.904 Y47.498
G1 F900 X42.476 Y47.129 E12.81095
G1 X43.088 Y46.83 E12.82228
G1 X43.73 Y46.605 E12.83359
G1 X44.395 Y46.456 E12.84492
G1 X45.326 Y46.381 E12.86046
G1 X79.674 Y46.381 E13.43167
G1 X80.354 Y46.421 E13.44299
G1 X81.024 Y46.54 E13.45431
G1 X81.676 Y46.737 E13.46564
G1 X82.3 Y47.009 E13.47696
G1 X82.888 Y47.353 E13.48829
G1 X83.432 Y47.763 E13.49962
G1 X83.923 Y48.234 E13.51093
G1 X84.357 Y48.759 E13.52226
G1 X84.726 Y49.331 E13.53358
G1 X85.025 Y49.943 E13.54491
G1 X85.25 Y50.585 E13.55622
G1 X85.399 Y51.25 E13.56755
G1 X85.474 Y52.181 E13.58308
G1 X85.474 Y72.819 E13.9263
G1 X85.434 Y73.499 E13.93762
G1 X85.315 Y74.169 E13.94894
G1 X85.118 Y74.821 E13.96027
G1 X84.846 Y75.445 E13.97159
G1 X84.502 Y76.033 E13.98292
G1 X84.092 Y76.577 E13.99424
G1 X83.621 Y77.068 E14.00556
G1 X83.096 Y77.502 E14.01689
G1 X82.524 Y77.871 E14.02821
G1 X81.912 Y78.17 E14.03953
G1 X81.27 Y78.395 E14.05085
G1 X80.605 Y78.544 E14.06218
G1 X79.674 Y78.619 E14.07771
G1 X45.326 Y78.619 E14.64892
G1 X44.646 Y78.579 E14.66025
G1 X43.976 Y78.46 E14.67157
G1 X43.324 Y78.263 E14.68289
G1 X42.7 Y77.991 E14.69421
G1 X42.112 Y77.647 E14.70554
G1 X41.568 Y77.237 E14.71687
G1 X41.077 Y76.766 E14.72819
G1 X40.643 Y76.241 E14.73951
G1 X40.274 Y75.669 E14.75083
G1 X39.975 Y75.057 E14.76216
G1 X39.75 Y74.415 E14.77348
G1 X39.601 Y73.75 E14.78481
G1 X39.526 Y72.819 E14.80034
G1 X39.526 Y52.181 E15.14355
G1 X39.566 Y51.501 E15.15488
G1 X39.685 Y50.831 E15.1662
G1 X39.882 Y50.179 E15.17752
G1 X40.154 Y49.555 E15.18884
G1 X40.498 Y48.967 E15.20017
G1 X40.908 Y48.423 E15.2115
G1 X41.379 Y47.932 E15.22282
G1 X41.904 Y47.498 E15.23414
G0 F2400 X42.291 Y47.715
G1 F900 X42.855 Y47.379 E15.24506
G1 X43.457 Y47.115 E15.25599
G1 X44.086 Y46.925 E15.26692
G1 X44.733 Y46.814 E15.27784
G1 X45.326 Y46.781 E15.28771
G1 X79.674 Y46.781 E15.85892
G1 X80.33 Y46.821 E15.86985
G1 X80.976 Y46.94 E15.88078
G1 X81.603 Y47.137 E15.89171
G1 X82.201 Y47.409 E15.90263
G1 X82.762 Y47.751 E15.91356
G1 X83.277 Y48.159 E15.92449
G1 X83.739 Y48.626 E15.93541
G1 X84.14 Y49.146 E15.94633
G1 X84.476 Y49.71 E15.95725
G1 X84.74 Y50.312 E15.96818
G1 X84.93 Y50.941 E15.97911
G1 X85.041 Y51.588 E15.99002
G1 X85.074 Y52.181 E15.9999
G1 X85.074 Y72.819 E16.34311
G1 X85.034 Y73.475 E16.35404
G1 X84.915 Y74.121 E16.36496
G1 X84.718 Y74.748 E16.37589
G1 X84.446 Y75.346 E16.38682
G1 X84.104 Y75.907 E16.39775
G1 X83.696 Y76.422 E16.40867
G1 X83.229 Y76.884 E16.4196
G1 X82.709 Y77.285 E16.43052
G1 X82.145 Y77.621 E16.44143
G1 X81.543 Y77.885 E16.45237
G1 X80.914 Y78.075 E16.46329
G1 X80.267 Y78.186 E16.47421
G1 X79.674 Y78.219 E16.48409
G1 X45.326 Y78.219 E17.0553
G1 X44.67 Y78.179 E17.06623
G1 X44.024 Y78.06 E17.07715
G1 X43.397 Y77.863 E17.08808
G1 X42.799 Y77.591 E17.09901
G1 X42.238 Y77.249 E17.10993
G1 X41.723 Y76.841 E17.12086
G1 X41.261 Y76.374 E17.13178
G1 X40.86 Y75.854 E17.1427
G1 X40.524 Y75.29 E17.15362
G1 X40.26 Y74.688 E17.16455
G1 X40.07 Y74.059 E17.17548
G1 X39.959 Y73.412 E17.1864
G1 X39.926 Y72.819 E17.19627
G1 X39.926 Y52.181 E17.53948
G1 X39.966 Y51.525 E17.55041
G1 X40.085 Y50.879 E17.56134
G1 X40.282 Y50.252 E17.57227
G1 X40.554 Y49.654 E17.58319
G1 X40.896 Y49.093 E17.59412
G1 X41.304 Y48.578 E17.60505
G1 X41.771 Y48.116 E17.61597
G1 X42.291 Y47.715 E17.62689
G0 F2400 X42.676 Y47.941
G1 F900 X43.232 Y47.641 E17.6374
G1 X43.821 Y47.413 E17.6479
G1 X44.435 Y47.261 E17.65842
G1 X45.326 Y47.181 E17.6733
G1 X79.674 Y47.181 E18.24451
G1 X80.305 Y47.221 E18.25502
G1 X80.926 Y47.34 E18.26554
G1 X81.526 Y47.537 E18.27604
G1 X82.098 Y47.808 E18.28656
G1 X82.63 Y48.148 E18.29706
G1 X83.115 Y48.554 E18.30758
G1 X83.545 Y49.017 E18.31809
G1 X83.914 Y49.531 E18.32861
G1 X84.214 Y50.087 E18.33912
G1 X84.442 Y50.676 E18.34962
G1 X84.594 Y51.29 E18.36014
G1 X84.674 Y52.181 E18.37502
G1 X84.674 Y72.819 E18.71823
G1 X84.634 Y73.45 E18.72874
G1 X84.515 Y74.071 E18.73926
G1 X84.318 Y74.671 E18.74976
G1 X84.047 Y75.243 E18.76029
G1 X83.707 Y75.775 E18.77079
G1 X83.301 Y76.26 E18.78131
G1 X82.838 Y76.69 E18.79181
G1 X82.324 Y77.059 E18.80234
G1 X81.768 Y77.359 E18.81284
G1 X81.179 Y77.587 E18.82335
G1 X80.565 Y77.739 E18.83387
G1 X79.674 Y77.819 E18.84874
G1 X45.326 Y77.819 E19.41995
G1 X44.695 Y77.779 E19.43047
G1 X44.074 Y77.66 E19.44098
G1 X43.474 Y77.463 E19.45148
G1 X42.902 Y77.192 E19.46201
G1 X42.37 Y76.852 E19.47251
G1 X41.885 Y76.446 E19.48303
G1 X41.455 Y75.983 E19.49354
G1 X41.086 Y75.469 E19.50406
G1 X40.786 Y74.913 E19.51456
G1 X40.558 Y74.324 E19.52507
G1 X40.406 Y73.71 E19.53559
G1 X40.326 Y72.819 E19.55046
G1 X40.326 Y52.181 E19.89368
G1 X40.366 Y51.55 E19.90419
G1 X40.485 Y50.929 E19.91471
G1 X40.682 Y50.329 E19.92521
G1 X40.953 Y49.757 E19.93573
G1 X41.293 Y49.225 E19.94623
G1 X41.699 Y48.74 E19.95675
G1 X42.162 Y48.31 E19.96726
G1 X42.676 Y47.941 E19.97778
G0 F2400 X43.058 Y48.179
G1 F900 X43.604 Y47.915 E19.98787
G1 X44.18 Y47.726 E19.99795
G1 X44.776 Y47.614 E20.00803
G1 X45.326 Y47.581 E20.0172
G1 X79.674 Y47.581 E20.58841
G1 X80.279 Y47.621 E20.59849
G1 X80.873 Y47.74 E20.60856
G1 X81.447 Y47.936 E20.61865
G1 X81.99 Y48.207 E20.62874
G1 X82.493 Y48.546 E20.63883
G1 X82.946 Y48.948 E20.6489
G1 X83.343 Y49.406 E20.65898
G1 X83.676 Y49.913 E20.66907
G1 X83.94 Y50.459 E20.67916
G1 X84.129 Y51.035 E20.68924
G1 X84.241 Y51.631 E20.69932
G1 X84.274 Y52.181 E20.70849
G1 X84.274 Y72.819 E21.0517
G1 X84.234 Y73.424 E21.06178
G1 X84.115 Y74.018 E21.07185
G1 X83.919 Y74.592 E21.08194
G1 X83.648 Y75.135 E21.09203
G1 X83.309 Y75.638 E21.10212
G1 X82.907 Y76.091 E21.11219
G1 X82.449 Y76.488 E21.12227
G1 X81.942 Y76.821 E21.13236
G1 X81.396 Y77.085 E21.14245
G1 X80.82 Y77.274 E21.15253
G1 X80.224 Y77.386 E21.16261
G1 X79.674 Y77.419 E21.17178
G1 X45.326 Y77.419 E21.74298
G1 X44.721 Y77.379 E21.75307
G1 X44.127 Y77.26 E21.76314
G1 X43.553 Y77.064 E21.77323
G1 X43.01 Y76.793 E21.78332
G1 X42.507 Y76.454 E21.79341
G1 X42.054 Y76.052 E21.80348
G1 X41.657 Y75.594 E21.81356
G1 X41.324 Y75.087 E21.82365
G1 X41.06 Y74.541 E21.83373
G1 X40.871 Y73.965 E21.84382
G1 X40.759 Y73.369 E21.8539
G1 X40.726 Y72.819 E21.86306
G1 X40.726 Y52.181 E22.20627
G1 X40.766 Y51.576 E22.21636
G1 X40.885 Y50.982 E22.22643
G1 X41.081 Y50.408 E22.23652
G1 X41.352 Y49.865 E22.24661
G1 X41.691 Y49.362 E22.2567
G1 X42.093 Y48.909 E22.26677
G1 X42.551 Y48.512 E22.27685
G1 X43.058 Y48.179 E22.28694
G0 F2400 X43.437 Y48.43
G1 F900 X43.971 Y48.205 E22.29657
G1 X44.531 Y48.057 E22.30621
G1 X45.326 Y47.981 E22.31949
G1 X79.674 Y47.981 E22.8907
G1 X80.252 Y48.021 E22.90033
G1 X80.819 Y48.14 E22.90997
G1 X81.364 Y48.336 E22.9196
G1 X81.877 Y48.605 E22.92923
G1 X82.348 Y48.942 E22.93886
G1 X82.768 Y49.341 E22.9485
G1 X83.13 Y49.794 E22.95814
G1 X83.425 Y50.292 E22.96777
G1 X83.65 Y50.826 E22.9774
G1 X83.798 Y51.386 E22.98704
