;FLAVOR:Marlin
;TIME:6666
;Filament used: 0m
;Layer height: 0.15

;Generated with Cura_SteamEngine 3.6.0
M82 ;absolute extrusion mode
;Start GCode begin
M104 S225 ;Set Hotend Temperature
M140 S65 ;Set Bed Temperature
M109 ;Wait for Hotend Temperature
M190 ;Wait for Bed Temperature
G28 ;Home
G90 ;absolute positioning
G1 X-4 Y-4
G1 Z0 F3000
G92 E0
G1 F200 E20
G92 E0
;Start GCode end
G92 E0
G1 F1500 E-6.5
;LAYER_COUNT:15
;LAYER:0
M107
G0 F900 X35.21 Y41.463 Z0.3
;TYPE:SKIRT
G1 F1500 E0
G1 F480 X35.742 Y41.038 E0.03397
G1 X36.53 Y40.572 E0.07964
G1 X36.948 Y40.367 E0.10287
G1 X37.576 Y40.103 E0.13686
G1 X38.23 Y39.915 E0.17081
G1 X38.902 Y39.805 E0.20478
G1 X39.498 Y39.774 E0.23456
G1 X85.341 Y39.742 E2.52167
G1 X86.021 Y39.781 E2.55565
G1 X86.691 Y39.9 E2.5896
G1 X87.568 Y40.185 E2.63561
G1 X88.139 Y40.422 E2.66645
G1 X88.752 Y40.72 E2.70046
G1 X89.325 Y41.087 E2.73441
G1 X89.852 Y41.519 E2.7684
G1 X90.511 Y42.24 E2.81713
G1 X90.89 Y42.732 E2.84812
G1 X91.273 Y43.294 E2.88205
G1 X91.587 Y43.898 E2.91601
G1 X91.901 Y44.782 E2.96281
G1 X91.982 Y45.087 E2.97856
G1 X92.118 Y45.754 E3.01252
G1 X92.176 Y46.576 E3.05363
G1 X92.176 Y78.428 E4.64273
G1 X92.136 Y79.108 E4.67672
G1 X92.017 Y79.778 E4.71067
G1 X91.867 Y80.296 E4.73757
G1 X91.717 Y80.737 E4.76081
G1 X91.46 Y81.367 E4.79476
G1 X91.131 Y81.964 E4.82877
G1 X90.579 Y82.701 E4.8747
G1 X90.27 Y83.052 E4.89803
G1 X89.791 Y83.536 E4.93201
G1 X89.259 Y83.961 E4.96598
G1 X88.476 Y84.425 E5.01139
G1 X88.057 Y84.631 E5.03468
G1 X87.429 Y84.895 E5.06867
G1 X86.775 Y85.084 E5.10263
G1 X86.103 Y85.194 E5.1366
G1 X85.502 Y85.226 E5.16663
G1 X39.659 Y85.258 E7.45375
G1 X38.979 Y85.219 E7.48773
G1 X38.309 Y85.1 E7.52168
G1 X37.427 Y84.813 E7.56795
G1 X36.855 Y84.575 E7.59886
G1 X36.243 Y84.277 E7.63282
G1 X35.67 Y83.909 E7.6668
G1 X35.144 Y83.477 E7.70075
G1 X34.481 Y82.75 E7.74984
G1 X34.102 Y82.256 E7.78091
G1 X33.72 Y81.693 E7.81485
G1 X33.407 Y81.088 E7.84883
G1 X33.097 Y80.211 E7.89524
G1 X33.017 Y79.909 E7.91083
G1 X32.882 Y79.242 E7.94478
G1 X32.824 Y78.424 E7.98569
G1 X32.824 Y74.508 E8.18106
G1 X32.864 Y73.828 E8.21504
G1 X32.983 Y73.158 E8.24899
G1 X33.135 Y72.633 E8.27626
G1 X33.286 Y72.191 E8.29956
G1 X33.544 Y71.561 E8.33353
G1 X33.874 Y70.965 E8.36752
G1 X34.422 Y70.234 E8.4131
G1 X34.731 Y69.883 E8.43643
G1 X35.21 Y69.399 E8.4704
G1 X35.742 Y68.974 E8.50437
G1 X36.53 Y68.508 E8.55004
G1 X36.948 Y68.303 E8.57327
G1 X37.576 Y68.039 E8.60726
G1 X38.23 Y67.851 E8.64121
G1 X38.902 Y67.741 E8.67518
G1 X39.458 Y67.71 E8.70296
G1 X45.046 Y67.668 E8.98176
G1 X45.726 Y67.703 E9.01573
G1 X46.398 Y67.817 E9.04973
G1 X47.051 Y68.01 E9.0837
G1 X47.351 Y68.138 E9.09998
G1 X73.255 Y68.138 E10.39233
G1 X73.255 Y57.106 E10.94272
G1 X46.692 Y57.106 E12.26795
G1 X46.686 Y57.108 E12.26827
G1 X46.021 Y57.257 E12.30227
G1 X45.077 Y57.332 E12.34951
G1 X39.632 Y57.32 E12.62117
G1 X38.953 Y57.279 E12.6551
G1 X38.283 Y57.158 E12.68907
G1 X37.375 Y56.857 E12.7368
G1 X36.806 Y56.615 E12.76764
G1 X36.196 Y56.313 E12.8016
G1 X35.626 Y55.94 E12.83559
G1 X35.103 Y55.504 E12.86956
G1 X34.446 Y54.771 E12.91867
G1 X34.071 Y54.274 E12.94973
G1 X33.694 Y53.708 E12.98366
G1 X33.385 Y53.101 E13.01764
G1 X33.083 Y52.222 E13.06401
G1 X33.005 Y51.918 E13.07967
G1 X32.875 Y51.25 E13.11362
G1 X32.823 Y50.476 E13.15232
G1 X32.824 Y46.571 E13.34714
G1 X32.864 Y45.891 E13.38113
G1 X32.984 Y45.221 E13.41508
G1 X33.135 Y44.697 E13.44229
G1 X33.286 Y44.255 E13.46559
G1 X33.544 Y43.625 E13.49956
G1 X33.874 Y43.029 E13.53355
G1 X34.422 Y42.298 E13.57912
G1 X34.731 Y41.947 E13.60246
G1 X35.21 Y41.463 E13.63643
G0 F900 X35.494 Y41.745
G1 F480 X36.011 Y41.339 E13.66922
G1 X36.706 Y40.931 E13.70943
G1 X37.124 Y40.726 E13.73266
G1 X37.731 Y40.473 E13.76547
G1 X38.363 Y40.295 E13.79822
G1 X39.013 Y40.196 E13.83103
G1 X39.498 Y40.174 E13.85525
G1 X85.341 Y40.142 E16.14237
G1 X85.997 Y40.182 E16.17515
G1 X86.643 Y40.3 E16.20792
G1 X87.415 Y40.555 E16.24848
G1 X87.986 Y40.792 E16.27932
G1 X88.576 Y41.08 E16.31208
G1 X89.127 Y41.438 E16.34486
G1 X89.631 Y41.86 E16.37765
G1 X90.194 Y42.484 E16.41958
G1 X90.573 Y42.976 E16.45057
G1 X90.941 Y43.519 E16.48329
G1 X91.241 Y44.104 E16.51609
G1 X91.514 Y44.885 E16.55737
G1 X91.595 Y45.19 E16.57311
G1 X91.725 Y45.834 E16.60589
G1 X91.776 Y46.576 E16.643
G1 X91.776 Y78.428 E18.2321
G1 X91.736 Y79.084 E18.26489
G1 X91.617 Y79.73 E18.29766
G1 X91.488 Y80.167 E18.32039
G1 X91.338 Y80.608 E18.34363
G1 X91.089 Y81.216 E18.37641
G1 X90.768 Y81.789 E18.40918
G1 X90.279 Y82.437 E18.44968
G1 X89.97 Y82.788 E18.47301
G1 X89.507 Y83.254 E18.50578
G1 X88.99 Y83.66 E18.53858
G1 X88.3 Y84.066 E18.57852
G1 X87.881 Y84.272 E18.60181
G1 X87.274 Y84.525 E18.63462
G1 X86.642 Y84.703 E18.66738
G1 X85.993 Y84.803 E18.70014
G1 X85.502 Y84.826 E18.72466
G1 X39.659 Y84.858 E21.01178
G1 X39.003 Y84.818 E21.04457
G1 X38.357 Y84.7 E21.07733
G1 X37.581 Y84.444 E21.1181
G1 X37.009 Y84.206 E21.14901
G1 X36.418 Y83.917 E21.18183
G1 X35.868 Y83.559 E21.21457
G1 X35.365 Y83.136 E21.24736
G1 X34.799 Y82.507 E21.28957
G1 X34.42 Y82.013 E21.32064
G1 X34.052 Y81.468 E21.35344
G1 X33.754 Y80.883 E21.3862
G1 X33.484 Y80.109 E21.4271
G1 X33.404 Y79.807 E21.44268
G1 X33.275 Y79.163 E21.47545
G1 X33.224 Y78.424 E21.51241
G1 X33.224 Y74.508 E21.70778
G1 X33.264 Y73.852 E21.74057
G1 X33.383 Y73.206 E21.77334
G1 X33.514 Y72.762 E21.79643
G1 X33.665 Y72.32 E21.81973
G1 X33.915 Y71.713 E21.85249
G1 X34.237 Y71.14 E21.88528
G1 X34.722 Y70.498 E21.92542
G1 X35.031 Y70.147 E21.94875
G1 X35.494 Y69.681 E21.98152
G1 X36.011 Y69.275 E22.01432
G1 X36.706 Y68.867 E22.05453
G1 X37.124 Y68.662 E22.07775
G1 X37.731 Y68.409 E22.11056
G1 X38.363 Y68.231 E22.14332
G1 X39.013 Y68.132 E22.17612
G1 X39.461 Y68.11 E22.1985
G1 X45.049 Y68.068 E22.47729
G1 X45.705 Y68.103 E22.51007
G1 X46.352 Y68.218 E22.54285
G1 X46.981 Y68.41 E22.57566
G1 X47.269 Y68.538 E22.59139
G1 X73.655 Y68.538 E23.90779
G1 X73.655 Y56.706 E24.49809
G1 X46.601 Y56.706 E25.84782
G1 X46.33 Y56.788 E25.86195
G1 X45.683 Y56.899 E25.8947
G1 X45.078 Y56.932 E25.92492
G1 X39.633 Y56.92 E26.19658
G1 X38.977 Y56.879 E26.22937
G1 X38.332 Y56.758 E26.26211
G1 X37.532 Y56.489 E26.30422
G1 X36.963 Y56.247 E26.33507
G1 X36.375 Y55.954 E26.36784
G1 X35.827 Y55.591 E26.40064
G1 X35.327 Y55.165 E26.43341
G1 X34.765 Y54.53 E26.47571
G1 X34.39 Y54.033 E26.50678
G1 X34.027 Y53.486 E26.53953
G1 X33.733 Y52.898 E26.57233
G1 X33.47 Y52.123 E26.61316
G1 X33.392 Y51.819 E26.62881
G1 X33.268 Y51.174 E26.66158
G1 X33.223 Y50.476 E26.69648
G1 X33.224 Y46.571 E26.8913
G1 X33.264 Y45.915 E26.92409
G1 X33.384 Y45.269 E26.95687
G1 X33.514 Y44.826 E26.9799
G1 X33.665 Y44.384 E27.0032
G1 X33.915 Y43.777 E27.03596
G1 X34.237 Y43.204 E27.06875
G1 X34.722 Y42.562 E27.10889
G1 X35.031 Y42.211 E27.13222
G1 X35.494 Y41.745 E27.16499
G0 F900 X35.778 Y42.028
G1 F480 X36.278 Y41.641 E27.19654
G1 X36.882 Y41.29 E27.23139
G1 X37.3 Y41.085 E27.25462
G1 X37.884 Y40.843 E27.28615
G1 X38.494 Y40.677 E27.31769
G1 X39.12 Y40.589 E27.34923
G1 X39.499 Y40.574 E27.36816
G1 X85.342 Y40.542 E29.65527
G1 X85.972 Y40.582 E29.68677
G1 X86.593 Y40.7 E29.7183
G1 X87.262 Y40.924 E29.7535
G1 X87.833 Y41.161 E29.78435
G1 X88.4 Y41.44 E29.81587
G1 X88.928 Y41.788 E29.84742
G1 X89.407 Y42.2 E29.87894
G1 X89.877 Y42.728 E29.91421
G1 X90.256 Y43.22 E29.94519
G1 X90.609 Y43.744 E29.97671
G1 X90.894 Y44.308 E30.00824
G1 X91.127 Y44.988 E30.0441
G1 X91.208 Y45.293 E30.05985
G1 X91.332 Y45.913 E30.09139
G1 X91.376 Y46.576 E30.12454
G1 X91.376 Y78.428 E31.71364
G1 X91.336 Y79.059 E31.74519
G1 X91.217 Y79.68 E31.77673
G1 X91.11 Y80.038 E31.79537
G1 X90.96 Y80.479 E31.81861
G1 X90.719 Y81.063 E31.85013
G1 X90.406 Y81.613 E31.8817
G1 X89.979 Y82.173 E31.91684
G1 X89.67 Y82.524 E31.94017
G1 X89.223 Y82.971 E31.97171
G1 X88.723 Y83.358 E32.00325
G1 X88.123 Y83.707 E32.03788
G1 X87.704 Y83.913 E32.06118
G1 X87.12 Y84.156 E32.09273
G1 X86.511 Y84.322 E32.12422
G1 X85.885 Y84.411 E32.15577
G1 X85.501 Y84.426 E32.17494
G1 X39.658 Y84.458 E34.46206
G1 X39.028 Y84.418 E34.49355
G1 X38.407 Y84.3 E34.52509
G1 X37.734 Y84.074 E34.56051
G1 X37.162 Y83.836 E34.59142
G1 X36.595 Y83.557 E34.62294
G1 X36.068 Y83.209 E34.65445
G1 X35.589 Y82.796 E34.686
G1 X35.116 Y82.264 E34.72152
G1 X34.737 Y81.77 E34.75258
G1 X34.385 Y81.245 E34.78412
G1 X34.101 Y80.68 E34.81567
G1 X33.871 Y80.006 E34.8512
G1 X33.791 Y79.704 E34.86678
G1 X33.668 Y79.084 E34.89832
G1 X33.624 Y78.424 E34.93132
G1 X33.624 Y74.508 E35.12669
G1 X33.664 Y73.877 E35.15823
G1 X33.783 Y73.256 E35.18978
G1 X33.892 Y72.892 E35.20874
G1 X34.043 Y72.45 E35.23204
G1 X34.285 Y71.865 E35.26362
G1 X34.599 Y71.317 E35.29513
G1 X35.022 Y70.762 E35.32995
G1 X35.331 Y70.411 E35.35328
G1 X35.778 Y69.964 E35.38482
G1 X36.278 Y69.577 E35.41636
G1 X36.882 Y69.226 E35.45121
G1 X37.3 Y69.021 E35.47444
G1 X37.884 Y68.779 E35.50598
G1 X38.494 Y68.613 E35.53752
G1 X39.12 Y68.525 E35.56906
G1 X39.464 Y68.51 E35.58623
G1 X45.052 Y68.468 E35.86503
G1 X45.684 Y68.503 E35.89661
G1 X46.305 Y68.618 E35.92812
G1 X46.907 Y68.81 E35.95964
G1 X47.182 Y68.938 E35.97477
G1 X74.055 Y68.938 E37.31547
G1 X74.055 Y56.306 E37.94569
G1 X46.571 Y56.306 E39.31687
G1 X45.981 Y56.452 E39.34719
G1 X45.079 Y56.532 E39.39237
G1 X39.634 Y56.52 E39.66402
G1 X39.003 Y56.479 E39.69557
G1 X38.383 Y56.358 E39.72708
G1 X37.688 Y56.121 E39.76372
G1 X37.119 Y55.879 E39.79457
G1 X36.554 Y55.595 E39.82612
G1 X36.03 Y55.243 E39.85761
G1 X35.554 Y54.827 E39.88915
G1 X35.085 Y54.29 E39.92472
G1 X34.71 Y53.793 E39.95578
G1 X34.362 Y53.265 E39.98733
G1 X34.083 Y52.698 E40.01886
G1 X33.858 Y52.024 E40.05431
G1 X33.78 Y51.72 E40.06996
G1 X33.662 Y51.099 E40.1015
G1 X33.623 Y50.476 E40.13264
G1 X33.624 Y46.571 E40.32746
G1 X33.664 Y45.94 E40.35901
G1 X33.784 Y45.319 E40.39056
G1 X33.892 Y44.956 E40.40946
G1 X34.043 Y44.514 E40.43276
G1 X34.285 Y43.929 E40.46434
G1 X34.599 Y43.381 E40.49585
G1 X35.022 Y42.826 E40.53067
G1 X35.331 Y42.475 E40.554
G1 X35.778 Y42.028 E40.58554
G0 F900 X36.061 Y42.312
G1 F480 X36.543 Y41.944 E40.61579
G1 X37.058 Y41.649 E40.6454
G1 X37.476 Y41.444 E40.66863
G1 X38.037 Y41.213 E40.6989
G1 X38.623 Y41.059 E40.72913
G1 X39.499 Y40.974 E40.77303
G1 X85.342 Y40.942 E43.06015
G1 X85.947 Y40.982 E43.0904
G1 X86.541 Y41.1 E43.12062
G1 X87.108 Y41.293 E43.1505
G1 X87.679 Y41.53 E43.18134
G1 X88.223 Y41.799 E43.21162
G1 X88.726 Y42.137 E43.24185
G1 X89.181 Y42.538 E43.27211
G1 X89.56 Y42.972 E43.30086
G1 X89.939 Y43.464 E43.33184
G1 X90.277 Y43.967 E43.36207
G1 X90.545 Y44.511 E43.39233
G1 X90.741 Y45.09 E43.42283
G1 X90.822 Y45.395 E43.43857
G1 X90.939 Y45.99 E43.46882
G1 X90.976 Y46.576 E43.49812
G1 X90.976 Y78.428 E45.08722
G1 X90.936 Y79.033 E45.11747
G1 X90.731 Y79.909 E45.16235
G1 X90.581 Y80.35 E45.18559
G1 X90.348 Y80.91 E45.21585
G1 X90.044 Y81.435 E45.24612
G1 X89.679 Y81.909 E45.27597
G1 X89.37 Y82.26 E45.2993
G1 X88.94 Y82.687 E45.32953
G1 X88.458 Y83.055 E45.35978
G1 X87.947 Y83.348 E45.38917
G1 X87.528 Y83.554 E45.41247
G1 X86.967 Y83.785 E45.44273
G1 X86.381 Y83.94 E45.47298
G1 X85.501 Y84.026 E45.51709
G1 X39.658 Y84.058 E47.80421
G1 X39.053 Y84.018 E47.83445
G1 X38.459 Y83.9 E47.86467
G1 X37.888 Y83.705 E47.89477
G1 X37.316 Y83.467 E47.92568
G1 X36.773 Y83.198 E47.95591
G1 X36.27 Y82.859 E47.98617
G1 X35.815 Y82.458 E48.01643
G1 X35.433 Y82.02 E48.04543
G1 X35.054 Y81.526 E48.07649
G1 X34.718 Y81.022 E48.10671
G1 X34.451 Y80.478 E48.13694
G1 X34.257 Y79.904 E48.16717
G1 X34.177 Y79.602 E48.18276
G1 X34.061 Y79.007 E48.213
G1 X34.024 Y78.424 E48.24215
G1 X34.024 Y74.508 E48.43752
G1 X34.064 Y73.903 E48.46777
G1 X34.271 Y73.021 E48.51297
G1 X34.422 Y72.579 E48.53627
G1 X34.655 Y72.019 E48.56653
G1 X34.96 Y71.495 E48.59678
G1 X35.322 Y71.026 E48.62633
G1 X35.631 Y70.675 E48.64966
G1 X36.061 Y70.248 E48.6799
G1 X36.543 Y69.88 E48.71015
G1 X37.058 Y69.585 E48.73976
G1 X37.476 Y69.38 E48.76299
G1 X38.037 Y69.149 E48.79326
G1 X38.623 Y68.995 E48.82349
G1 X39.467 Y68.91 E48.86581
G1 X45.055 Y68.868 E49.1446
G1 X45.661 Y68.904 E49.17489
G1 X46.256 Y69.018 E49.20511
G1 X46.831 Y69.21 E49.23536
G1 X47.093 Y69.338 E49.2499
G1 X74.455 Y69.338 E50.615
G1 X74.455 Y55.906 E51.28513
G1 X46.483 Y55.906 E52.68065
G1 X46.236 Y55.987 E52.69362
G1 X45.64 Y56.099 E52.72388
G1 X45.08 Y56.132 E52.75186
G1 X39.635 Y56.12 E53.02352
G1 X39.03 Y56.079 E53.05377
G1 X38.436 Y55.958 E53.08401
G1 X37.845 Y55.753 E53.11522
G1 X37.276 Y55.511 E53.14607
G1 X36.735 Y55.238 E53.1763
G1 X36.234 Y54.895 E53.20659
G1 X35.783 Y54.49 E53.23684
G1 X35.404 Y54.049 E53.26585
G1 X35.029 Y53.552 E53.29691
G1 X34.697 Y53.045 E53.32714
G1 X34.434 Y52.498 E53.35742
G1 X34.245 Y51.924 E53.38757
G1 X34.167 Y51.62 E53.40323
G1 X34.056 Y51.024 E53.43348
G1 X34.023 Y50.476 E53.46087
G1 X34.024 Y46.571 E53.65569
G1 X34.064 Y45.966 E53.68594
G1 X34.271 Y45.085 E53.73109
G1 X34.422 Y44.643 E53.75439
G1 X34.655 Y44.083 E53.78465
G1 X34.96 Y43.559 E53.8149
G1 X35.322 Y43.09 E53.84446
G1 X35.631 Y42.739 E53.86779
G1 X36.061 Y42.312 E53.89802
G0 F900 X36.343 Y42.596
G1 F480 X36.807 Y42.25 E53.9269
G1 X37.235 Y42.008 E53.95143
G1 X37.653 Y41.803 E53.97465
G1 X38.189 Y41.584 E54.00354
G1 X38.751 Y41.442 E54.03246
G1 X39.499 Y41.374 E54.06993
G1 X85.342 Y41.342 E56.35705
G1 X85.92 Y41.382 E56.38595
G1 X86.487 Y41.5 E56.41485
G1 X86.955 Y41.663 E56.43957
G1 X87.526 Y41.9 E56.47042
G1 X88.045 Y42.158 E56.49933
G1 X88.523 Y42.486 E56.52825
G1 X88.951 Y42.876 E56.55714
G1 X89.243 Y43.216 E56.5795
G1 X89.622 Y43.708 E56.61049
G1 X89.943 Y44.19 E56.63938
G1 X90.195 Y44.712 E56.6683
G1 X90.354 Y45.193 E56.69357
G1 X90.435 Y45.498 E56.70931
G1 X90.545 Y46.067 E56.73823
G1 X90.576 Y46.576 E56.76367
G1 X90.576 Y78.428 E58.35277
G1 X90.536 Y79.006 E58.38168
G1 X90.352 Y79.78 E58.42137
G1 X90.202 Y80.221 E58.44461
G1 X89.978 Y80.756 E58.47354
G1 X89.683 Y81.254 E58.50242
G1 X89.378 Y81.644 E58.52712
G1 X89.069 Y81.995 E58.55045
G1 X88.658 Y82.403 E58.57935
G1 X88.194 Y82.749 E58.60822
G1 X87.77 Y82.989 E58.63253
G1 X87.351 Y83.195 E58.65582
G1 X86.815 Y83.414 E58.68471
G1 X86.253 Y83.557 E58.71364
G1 X85.501 Y83.626 E58.75132
G1 X39.658 Y83.658 E61.03843
G1 X39.08 Y83.618 E61.06734
G1 X38.513 Y83.5 E61.09623
G1 X38.042 Y83.336 E61.12111
G1 X37.47 Y83.098 E61.15202
G1 X36.951 Y82.839 E61.18096
G1 X36.474 Y82.511 E61.20984
G1 X36.046 Y82.121 E61.23873
G1 X35.751 Y81.777 E61.26134
G1 X35.372 Y81.283 E61.2924
G1 X35.052 Y80.8 E61.32131
G1 X34.801 Y80.277 E61.35025
G1 X34.644 Y79.801 E61.37526
G1 X34.564 Y79.499 E61.39084
G1 X34.455 Y78.931 E61.4197
G1 X34.424 Y78.424 E61.44504
G1 X34.424 Y74.508 E61.64041
G1 X34.464 Y73.93 E61.66932
G1 X34.65 Y73.15 E61.70932
G1 X34.801 Y72.708 E61.73262
G1 X35.025 Y72.174 E61.76151
G1 X35.321 Y71.676 E61.79042
G1 X35.623 Y71.291 E61.81483
G1 X35.932 Y70.94 E61.83816
G1 X36.343 Y70.532 E61.86705
G1 X36.807 Y70.186 E61.89593
G1 X37.235 Y69.944 E61.92046
G1 X37.653 Y69.739 E61.94369
G1 X38.189 Y69.52 E61.97257
G1 X38.751 Y69.378 E62.00149
G1 X39.47 Y69.31 E62.03752
G1 X45.058 Y69.268 E62.31632
G1 X45.637 Y69.304 E62.34526
G1 X46.204 Y69.419 E62.37412
G1 X46.751 Y69.61 E62.40303
G1 X46.999 Y69.738 E62.41695
G1 X74.855 Y69.738 E63.80669
G1 X74.855 Y55.506 E64.51673
G1 X46.45 Y55.506 E65.93386
G1 X46.445 Y55.508 E65.93413
G1 X45.885 Y55.656 E65.96303
G1 X45.081 Y55.732 E66.00332
G1 X39.636 Y55.72 E66.27497
G1 X39.058 Y55.679 E66.30388
G1 X38.491 Y55.558 E66.33281
G1 X38.001 Y55.385 E66.35873
G1 X37.432 Y55.143 E66.38958
G1 X36.916 Y54.88 E66.41847
G1 X36.441 Y54.549 E66.44736
G1 X36.016 Y54.155 E66.47627
G1 X35.723 Y53.808 E66.49893
G1 X35.348 Y53.311 E66.52999
G1 X35.032 Y52.825 E66.55891
G1 X34.786 Y52.301 E66.58779
G1 X34.633 Y51.825 E66.61274
G1 X34.555 Y51.521 E66.62839
G1 X34.45 Y50.951 E66.65731
G1 X34.423 Y50.476 E66.68105
G1 X34.424 Y46.571 E66.87587
G1 X34.464 Y45.993 E66.90477
G1 X34.65 Y45.214 E66.94473
G1 X34.801 Y44.772 E66.96803
G1 X35.025 Y44.238 E66.99692
G1 X35.321 Y43.74 E67.02583
G1 X35.623 Y43.355 E67.05024
G1 X35.932 Y43.004 E67.07357
G1 X36.343 Y42.596 E67.10246
G0 F900 X36.625 Y42.882
G1 F480 X37.07 Y42.557 E67.12995
