;FLAVOR:Marlin
;TIME:6666
;Filament used: 0m
;Layer height: 0.15

;Generated with Cura_SteamEngine 3.6.0
M82 ;absolute extrusion mode
;Start GCode begin
M104 S225 ;Set Hotend Temperature
M140 S65 ;Set Bed Temperature
M109 ;Wait for Hotend Temperature
M190 ;Wait for Bed Temperature
G28 ;Home
G90 ;absolute positioning
G1 X-4 Y-4
G1 Z0 F3000
G92 E0
G1 F200 E20
G92 E0
;Start GCode end
G92 E0
G1 F1500 E-6.5
;LAYER_COUNT:15
;LAYER:0
M107
G0 F1500 X36.21 Y41.463 Z0.3
;TYPE:SKIRT
G1 F1500 E0
G1 F480 X36.742 Y41.038 E0.03397
G1 X37.53 Y40.572 E0.07964
G1 X37.948 Y40.367 E0.10287
G1 X38.576 Y40.103 E0.13686
G1 X39.23 Y39.915 E0.17081
G1 X39.902 Y39.805 E0.20478
G1 X40.498 Y39.774 E0.23456
G1 X84.341 Y39.742 E2.42189
G1 X85.021 Y39.781 E2.45587
G1 X85.691 Y39.9 E2.48982
G1 X86.568 Y40.185 E2.53583
G1 X87.139 Y40.422 E2.56667
G1 X87.752 Y40.72 E2.60068
G1 X88.325 Y41.087 E2.63463
G1 X88.852 Y41.519 E2.66862
G1 X89.511 Y42.24 E2.71735
G1 X89.89 Y42.732 E2.74834
G1 X90.273 Y43.294 E2.78227
G1 X90.587 Y43.898 E2.81623
G1 X90.901 Y44.782 E2.86303
G1 X90.982 Y45.087 E2.87878
G1 X91.118 Y45.754 E2.91274
G1 X91.176 Y46.576 E2.95385
G1 X91.176 Y78.428 E4.54295
G1 X91.136 Y79.108 E4.57694
G1 X91.017 Y79.778 E4.61089
G1 X90.867 Y80.296 E4.63779
G1 X90.717 Y80.737 E4.66103
G1 X90.46 Y81.367 E4.69498
G1 X90.131 Y81.964 E4.72899
G1 X89.579 Y82.701 E4.77492
G1 X89.27 Y83.052 E4.79825
G1 X88.791 Y83.536 E4.83223
G1 X88.259 Y83.961 E4.8662
G1 X87.476 Y84.425 E4.91161
G1 X87.057 Y84.631 E4.9349
G1 X86.429 Y84.895 E4.96889
G1 X85.775 Y85.084 E5.00285
G1 X85.103 Y85.194 E5.03682
G1 X84.502 Y85.226 E5.06685
G1 X40.659 Y85.258 E7.25419
G1 X39.979 Y85.219 E7.28817
G1 X39.309 Y85.1 E7.32212
G1 X38.427 Y84.813 E7.36839
G1 X37.855 Y84.575 E7.3993
G1 X37.243 Y84.277 E7.43326
G1 X36.67 Y83.909 E7.46723
G1 X36.144 Y83.477 E7.50119
G1 X35.481 Y82.75 E7.55028
G1 X35.102 Y82.256 E7.58134
G1 X34.72 Y81.693 E7.61529
G1 X34.407 Y81.088 E7.64927
G1 X34.097 Y80.211 E7.69568
G1 X34.017 Y79.909 E7.71126
G1 X33.882 Y79.242 E7.74522
G1 X33.824 Y78.424 E7.78613
G1 X33.824 Y74.508 E7.9815
G1 X33.864 Y73.828 E8.01548
G1 X33.983 Y73.158 E8.04943
G1 X34.135 Y72.633 E8.0767
G1 X34.286 Y72.191 E8.1
G1 X34.544 Y71.561 E8.13397
G1 X34.874 Y70.965 E8.16796
G1 X35.422 Y70.234 E8.21354
G1 X35.731 Y69.883 E8.23687
G1 X36.21 Y69.399 E8.27084
G1 X36.742 Y68.974 E8.30481
G1 X37.53 Y68.508 E8.35048
G1 X37.948 Y68.303 E8.37371
G1 X38.576 Y68.039 E8.4077
G1 X39.23 Y67.851 E8.44165
G1 X39.902 Y67.741 E8.47562
G1 X40.463 Y67.71 E8.50365
G1 X46.76 Y67.668 E8.81782
G1 X47.44 Y67.704 E8.85179
G1 X48.111 Y67.818 E8.88575
G1 X48.764 Y68.011 E8.91972
G1 X49.061 Y68.138 E8.93583
G1 X73.546 Y68.138 E10.15739
G1 X73.546 Y57.106 E10.70778
G1 X48.401 Y57.106 E11.96227
G1 X48.395 Y57.108 E11.96259
G1 X47.73 Y57.257 E11.99659
G1 X46.788 Y57.332 E12.04373
G1 X40.634 Y57.32 E12.35076
G1 X39.954 Y57.279 E12.38474
G1 X39.284 Y57.158 E12.41871
G1 X38.375 Y56.857 E12.46648
G1 X37.806 Y56.615 E12.49733
G1 X37.196 Y56.313 E12.53129
G1 X36.626 Y55.94 E12.56527
G1 X36.103 Y55.504 E12.59924
G1 X35.446 Y54.771 E12.64835
G1 X35.071 Y54.274 E12.67942
G1 X34.694 Y53.708 E12.71334
G1 X34.385 Y53.101 E12.74733
G1 X34.083 Y52.222 E12.79369
G1 X34.005 Y51.918 E12.80935
G1 X33.875 Y51.25 E12.8433
G1 X33.823 Y50.476 E12.88201
G1 X33.824 Y46.571 E13.07683
G1 X33.864 Y45.891 E13.11081
G1 X33.984 Y45.221 E13.14477
G1 X34.135 Y44.697 E13.17198
G1 X34.286 Y44.255 E13.19528
G1 X34.544 Y43.625 E13.22924
G1 X34.874 Y43.029 E13.26323
G1 X35.422 Y42.298 E13.30881
G1 X35.731 Y41.947 E13.33214
G1 X36.21 Y41.463 E13.36611
G0 F1500 X36.494 Y41.745
G1 F480 X37.011 Y41.339 E13.39891
G1 X37.706 Y40.931 E13.43912
G1 X38.124 Y40.726 E13.46234
G1 X38.731 Y40.473 E13.49515
G1 X39.363 Y40.295 E13.52791
G1 X40.013 Y40.196 E13.56071
G1 X40.498 Y40.174 E13.58494
G1 X84.341 Y40.142 E15.77227
G1 X84.997 Y40.181 E15.80506
G1 X85.643 Y40.3 E15.83783
G1 X86.415 Y40.555 E15.87839
G1 X86.986 Y40.792 E15.90923
G1 X87.576 Y41.08 E15.94199
G1 X88.127 Y41.438 E15.97477
G1 X88.631 Y41.86 E16.00757
G1 X89.194 Y42.484 E16.0495
G1 X89.573 Y42.976 E16.08048
G1 X89.941 Y43.519 E16.11321
G1 X90.241 Y44.104 E16.14601
G1 X90.514 Y44.885 E16.18728
G1 X90.595 Y45.19 E16.20303
G1 X90.725 Y45.834 E16.2358
G1 X90.776 Y46.576 E16.27291
G1 X90.776 Y78.428 E17.86201
G1 X90.736 Y79.084 E17.8948
G1 X90.617 Y79.73 E17.92757
G1 X90.488 Y80.167 E17.9503
G1 X90.338 Y80.608 E17.97354
G1 X90.089 Y81.216 E18.00632
G1 X89.768 Y81.789 E18.03909
G1 X89.279 Y82.437 E18.07959
G1 X88.97 Y82.788 E18.10292
G1 X88.507 Y83.254 E18.13569
G1 X87.99 Y83.66 E18.16849
G1 X87.3 Y84.066 E18.20843
G1 X86.881 Y84.272 E18.23173
G1 X86.274 Y84.525 E18.26453
G1 X85.642 Y84.703 E18.29729
G1 X84.993 Y84.803 E18.33005
G1 X84.502 Y84.826 E18.35457
G1 X40.659 Y84.858 E20.54191
G1 X40.003 Y84.819 E20.5747
G1 X39.357 Y84.7 E20.60747
G1 X38.581 Y84.444 E20.64824
G1 X38.009 Y84.206 E20.67914
G1 X37.418 Y83.917 E20.71197
G1 X36.868 Y83.559 E20.74471
G1 X36.365 Y83.136 E20.7775
G1 X35.799 Y82.507 E20.81971
G1 X35.42 Y82.013 E20.85077
G1 X35.052 Y81.468 E20.88358
G1 X34.754 Y80.883 E20.91634
G1 X34.484 Y80.109 E20.95723
G1 X34.404 Y79.807 E20.97282
G1 X34.275 Y79.163 E21.00559
G1 X34.224 Y78.424 E21.04254
G1 X34.224 Y74.508 E21.23791
G1 X34.264 Y73.852 E21.2707
G1 X34.383 Y73.206 E21.30347
G1 X34.514 Y72.762 E21.32657
G1 X34.665 Y72.32 E21.34987
G1 X34.915 Y71.713 E21.38262
G1 X35.237 Y71.14 E21.41542
G1 X35.722 Y70.498 E21.45556
G1 X36.031 Y70.147 E21.47889
G1 X36.494 Y69.681 E21.51166
G1 X37.011 Y69.275 E21.54446
G1 X37.706 Y68.867 E21.58466
G1 X38.124 Y68.662 E21.60789
G1 X38.731 Y68.409 E21.6407
G1 X39.363 Y68.231 E21.67346
G1 X40.013 Y68.132 E21.70626
G1 X40.466 Y68.11 E21.72889
G1 X46.763 Y68.068 E22.04305
G1 X47.419 Y68.104 E22.07583
G1 X48.066 Y68.219 E22.10861
G1 X48.694 Y68.411 E22.14138
G1 X48.978 Y68.538 E22.1569
G1 X73.946 Y68.538 E23.40256
G1 X73.946 Y56.706 E23.99286
G1 X48.31 Y56.706 E25.27184
G1 X48.039 Y56.788 E25.28597
G1 X47.392 Y56.899 E25.31872
G1 X46.788 Y56.932 E25.3489
G1 X40.634 Y56.92 E25.65592
G1 X39.979 Y56.879 E25.68866
G1 X39.333 Y56.758 E25.72145
G1 X38.532 Y56.489 E25.76361
G1 X37.963 Y56.247 E25.79446
G1 X37.375 Y55.954 E25.82723
G1 X36.827 Y55.591 E25.86003
G1 X36.327 Y55.165 E25.8928
G1 X35.765 Y54.53 E25.9351
G1 X35.39 Y54.033 E25.96617
G1 X35.027 Y53.486 E25.99892
G1 X34.733 Y52.898 E26.03172
G1 X34.47 Y52.123 E26.07255
G1 X34.392 Y51.819 E26.08821
G1 X34.268 Y51.174 E26.12097
G1 X34.223 Y50.476 E26.15587
G1 X34.224 Y46.571 E26.35069
G1 X34.264 Y45.915 E26.38348
G1 X34.384 Y45.269 E26.41626
G1 X34.514 Y44.826 E26.43929
G1 X34.665 Y44.384 E26.4626
G1 X34.915 Y43.777 E26.49535
G1 X35.237 Y43.204 E26.52814
G1 X35.722 Y42.562 E26.56828
G1 X36.031 Y42.211 E26.59161
G1 X36.494 Y41.745 E26.62438
G0 F1500 X36.778 Y42.028
G1 F480 X37.278 Y41.641 E26.65593
G1 X37.882 Y41.29 E26.69078
G1 X38.3 Y41.085 E26.71401
G1 X38.884 Y40.843 E26.74555
G1 X39.494 Y40.677 E26.77709
G1 X40.12 Y40.589 E26.80862
G1 X40.498 Y40.574 E26.8275
G1 X84.341 Y40.542 E29.01483
G1 X84.972 Y40.582 E29.04638
G1 X85.593 Y40.7 E29.07791
G1 X86.262 Y40.924 E29.11311
G1 X86.833 Y41.161 E29.14396
G1 X87.4 Y41.44 E29.17548
G1 X87.928 Y41.788 E29.20703
G1 X88.407 Y42.2 E29.23855
G1 X88.877 Y42.728 E29.27382
G1 X89.256 Y43.22 E29.3048
G1 X89.609 Y43.744 E29.33633
G1 X89.894 Y44.308 E29.36785
G1 X90.127 Y44.988 E29.40371
G1 X90.208 Y45.293 E29.41946
G1 X90.332 Y45.913 E29.451
G1 X90.376 Y46.576 E29.48415
G1 X90.376 Y78.428 E31.07325
G1 X90.336 Y79.059 E31.1048
G1 X90.217 Y79.68 E31.13634
G1 X90.11 Y80.038 E31.15499
G1 X89.96 Y80.479 E31.17822
G1 X89.719 Y81.063 E31.20974
G1 X89.406 Y81.613 E31.24132
G1 X88.979 Y82.173 E31.27645
G1 X88.67 Y82.524 E31.29978
G1 X88.223 Y82.971 E31.33132
G1 X87.723 Y83.358 E31.36286
G1 X87.123 Y83.707 E31.39749
G1 X86.704 Y83.913 E31.42079
G1 X86.12 Y84.156 E31.45234
G1 X85.511 Y84.322 E31.48384
G1 X84.885 Y84.411 E31.51538
G1 X84.502 Y84.426 E31.5345
G1 X40.659 Y84.458 E33.72184
G1 X40.028 Y84.418 E33.75338
G1 X39.407 Y84.3 E33.78492
G1 X38.734 Y84.074 E33.82034
G1 X38.162 Y83.836 E33.85125
G1 X37.595 Y83.557 E33.88277
G1 X37.068 Y83.209 E33.91428
G1 X36.589 Y82.796 E33.94584
G1 X36.116 Y82.264 E33.98135
G1 X35.737 Y81.77 E34.01241
G1 X35.385 Y81.245 E34.04395
G1 X35.101 Y80.68 E34.0755
G1 X34.871 Y80.006 E34.11103
G1 X34.791 Y79.704 E34.12661
G1 X34.668 Y79.084 E34.15815
G1 X34.624 Y78.424 E34.19115
G1 X34.624 Y74.508 E34.38652
G1 X34.664 Y73.877 E34.41806
G1 X34.783 Y73.256 E34.44961
G1 X34.892 Y72.892 E34.46857
G1 X35.043 Y72.45 E34.49187
G1 X35.285 Y71.865 E34.52345
G1 X35.599 Y71.317 E34.55496
G1 X36.022 Y70.762 E34.58978
G1 X36.331 Y70.411 E34.61311
G1 X36.778 Y69.964 E34.64465
G1 X37.278 Y69.577 E34.67619
G1 X37.882 Y69.226 E34.71104
G1 X38.3 Y69.021 E34.73427
G1 X38.884 Y68.779 E34.76581
G1 X39.494 Y68.613 E34.79735
G1 X40.12 Y68.525 E34.82889
G1 X40.469 Y68.51 E34.84631
G1 X46.766 Y68.468 E35.16048
G1 X47.397 Y68.504 E35.19201
G1 X48.018 Y68.619 E35.22352
G1 X48.62 Y68.812 E35.25506
G1 X48.89 Y68.938 E35.26992
G1 X74.346 Y68.938 E36.53993
G1 X74.346 Y56.306 E37.17014
G1 X48.28 Y56.306 E38.47058
G1 X47.69 Y56.452 E38.5009
G1 X46.789 Y56.532 E38.54603
G1 X40.635 Y56.52 E38.85306
G1 X40.004 Y56.479 E38.8846
G1 X39.384 Y56.358 E38.91612
G1 X38.688 Y56.121 E38.9528
G1 X38.119 Y55.879 E38.98365
G1 X37.554 Y55.595 E39.0152
G1 X37.03 Y55.243 E39.04669
G1 X36.554 Y54.827 E39.07823
G1 X36.085 Y54.29 E39.1138
G1 X35.71 Y53.793 E39.14486
G1 X35.362 Y53.265 E39.17641
G1 X35.083 Y52.698 E39.20794
G1 X34.858 Y52.024 E39.24339
G1 X34.78 Y51.72 E39.25905
G1 X34.662 Y51.099 E39.29058
G1 X34.623 Y50.476 E39.32172
G1 X34.624 Y46.571 E39.51655
G1 X34.664 Y45.94 E39.54809
G1 X34.784 Y45.319 E39.57964
G1 X34.892 Y44.956 E39.59854
G1 X35.043 Y44.514 E39.62184
G1 X35.285 Y43.929 E39.65343
G1 X35.599 Y43.381 E39.68494
G1 X36.022 Y42.826 E39.71975
G1 X36.331 Y42.475 E39.74308
G1 X36.778 Y42.028 E39.77462
G0 F1500 X37.061 Y42.312
G1 F480 X37.543 Y41.944 E39.80487
G1 X38.058 Y41.649 E39.83448
G1 X38.476 Y41.444 E39.85771
G1 X39.037 Y41.213 E39.88798
G1 X39.623 Y41.059 E39.91821
G1 X40.499 Y40.974 E39.96212
G1 X84.342 Y40.942 E42.14945
G1 X84.947 Y40.982 E42.1797
G1 X85.541 Y41.1 E42.20992
G1 X86.108 Y41.293 E42.2398
G1 X86.679 Y41.53 E42.27064
G1 X87.223 Y41.799 E42.30092
G1 X87.726 Y42.137 E42.33115
G1 X88.181 Y42.538 E42.36141
G1 X88.56 Y42.972 E42.39016
G1 X88.939 Y43.464 E42.42114
G1 X89.277 Y43.967 E42.45138
G1 X89.545 Y44.511 E42.48163
G1 X89.741 Y45.09 E42.51213
G1 X89.822 Y45.395 E42.52787
G1 X89.939 Y45.99 E42.55812
G1 X89.976 Y46.576 E42.58742
G1 X89.976 Y78.428 E44.17652
G1 X89.936 Y79.033 E44.20677
G1 X89.731 Y79.909 E44.25166
G1 X89.581 Y80.35 E44.27489
G1 X89.348 Y80.91 E44.30515
G1 X89.044 Y81.435 E44.33542
G1 X88.679 Y81.909 E44.36527
G1 X88.37 Y82.26 E44.3886
G1 X87.94 Y82.687 E44.41883
G1 X87.458 Y83.055 E44.44909
G1 X86.947 Y83.348 E44.47847
G1 X86.528 Y83.554 E44.50177
G1 X85.967 Y83.785 E44.53204
G1 X85.381 Y83.94 E44.56228
G1 X84.501 Y84.026 E44.60639
G1 X40.658 Y84.058 E46.79373
G1 X40.053 Y84.018 E46.82398
G1 X39.459 Y83.9 E46.85419
G1 X38.888 Y83.705 E46.88429
G1 X38.316 Y83.467 E46.9152
G1 X37.773 Y83.198 E46.94543
G1 X37.27 Y82.859 E46.9757
G1 X36.815 Y82.458 E47.00595
G1 X36.433 Y82.02 E47.03495
G1 X36.054 Y81.526 E47.06601
G1 X35.718 Y81.022 E47.09623
G1 X35.451 Y80.478 E47.12646
G1 X35.257 Y79.904 E47.15669
G1 X35.177 Y79.602 E47.17228
G1 X35.061 Y79.007 E47.20252
G1 X35.024 Y78.424 E47.23167
G1 X35.024 Y74.508 E47.42704
G1 X35.064 Y73.903 E47.45729
G1 X35.271 Y73.021 E47.50249
G1 X35.422 Y72.579 E47.52579
G1 X35.655 Y72.019 E47.55605
G1 X35.96 Y71.495 E47.5863
G1 X36.322 Y71.026 E47.61586
G1 X36.631 Y70.675 E47.63919
G1 X37.061 Y70.248 E47.66942
G1 X37.543 Y69.88 E47.69967
G1 X38.058 Y69.585 E47.72928
G1 X38.476 Y69.38 E47.75251
G1 X39.037 Y69.149 E47.78278
G1 X39.623 Y68.995 E47.81301
G1 X40.471 Y68.91 E47.85553
G1 X46.768 Y68.868 E48.16969
G1 X47.374 Y68.904 E48.19998
G1 X47.969 Y69.019 E48.23021
G1 X48.544 Y69.212 E48.26047
G1 X48.802 Y69.338 E48.2748
G1 X74.746 Y69.338 E49.56915
G1 X74.746 Y55.906 E50.23927
G1 X48.192 Y55.906 E51.56406
G1 X47.945 Y55.987 E51.57703
G1 X47.349 Y56.099 E51.60728
G1 X46.79 Y56.132 E51.63522
G1 X40.636 Y56.12 E51.94224
G1 X40.031 Y56.079 E51.9725
G1 X39.437 Y55.959 E52.00273
G1 X38.845 Y55.753 E52.034
G1 X38.276 Y55.511 E52.06485
G1 X37.735 Y55.238 E52.09508
G1 X37.234 Y54.895 E52.12537
G1 X36.783 Y54.49 E52.15562
G1 X36.404 Y54.049 E52.18463
G1 X36.029 Y53.552 E52.21569
G1 X35.697 Y53.045 E52.24592
G1 X35.434 Y52.498 E52.2762
G1 X35.245 Y51.924 E52.30635
G1 X35.167 Y51.62 E52.32201
G1 X35.056 Y51.024 E52.35226
G1 X35.023 Y50.476 E52.37965
G1 X35.024 Y46.571 E52.57447
G1 X35.064 Y45.966 E52.60472
G1 X35.271 Y45.085 E52.64987
G1 X35.422 Y44.643 E52.67317
G1 X35.655 Y44.083 E52.70343
G1 X35.96 Y43.559 E52.73368
G1 X36.322 Y43.09 E52.76324
G1 X36.631 Y42.739 E52.78657
G1 X37.061 Y42.312 E52.8168
G0 F1500 X37.343 Y42.596
G1 F480 X37.807 Y42.25 E52.84568
G1 X38.235 Y42.008 E52.87021
G1 X38.653 Y41.803 E52.89343
G1 X39.189 Y41.584 E52.92232
G1 X39.751 Y41.442 E52.95124
G1 X40.499 Y41.374 E52.98871
G1 X84.342 Y41.342 E55.17605
G1 X84.92 Y41.382 E55.20495
G1 X85.487 Y41.5 E55.23385
G1 X85.955 Y41.663 E55.25857
G1 X86.526 Y41.9 E55.28942
G1 X87.045 Y42.158 E55.31833
G1 X87.523 Y42.486 E55.34725
G1 X87.951 Y42.876 E55.37614
G1 X88.243 Y43.216 E55.3985
G1 X88.622 Y43.708 E55.42949
G1 X88.943 Y44.19 E55.45838
G1 X89.195 Y44.712 E55.4873
G1 X89.354 Y45.193 E55.51257
G1 X89.435 Y45.498 E55.52831
G1 X89.545 Y46.067 E55.55723
G1 X89.576 Y46.576 E55.58267
G1 X89.576 Y78.428 E57.17177
G1 X89.536 Y79.006 E57.20068
G1 X89.352 Y79.78 E57.24037
G1 X89.202 Y80.221 E57.26361
G1 X88.978 Y80.756 E57.29254
G1 X88.683 Y81.254 E57.32142
G1 X88.378 Y81.644 E57.34612
G1 X88.069 Y81.995 E57.36945
G1 X87.658 Y82.403 E57.39834
G1 X87.194 Y82.749 E57.42722
G1 X86.77 Y82.989 E57.45153
G1 X86.351 Y83.195 E57.47482
G1 X85.815 Y83.414 E57.50371
G1 X85.253 Y83.557 E57.53264
G1 X84.501 Y83.626 E57.57032
G1 X40.658 Y83.658 E59.75765
G1 X40.08 Y83.618 E59.78656
G1 X39.513 Y83.5 E59.81545
G1 X39.042 Y83.336 E59.84033
G1 X38.47 Y83.098 E59.87124
G1 X37.951 Y82.839 E59.90018
G1 X37.474 Y82.511 E59.92906
G1 X37.046 Y82.121 E59.95795
G1 X36.751 Y81.777 E59.98056
G1 X36.372 Y81.283 E60.01162
G1 X36.052 Y80.8 E60.04053
G1 X35.801 Y80.277 E60.06947
G1 X35.644 Y79.801 E60.09448
G1 X35.564 Y79.499 E60.11006
G1 X35.455 Y78.931 E60.13892
G1 X35.424 Y78.424 E60.16426
G1 X35.424 Y74.508 E60.35963
G1 X35.464 Y73.93 E60.38853
G1 X35.65 Y73.15 E60.42854
G1 X35.801 Y72.708 E60.45184
G1 X36.025 Y72.174 E60.48073
G1 X36.321 Y71.676 E60.50964
G1 X36.623 Y71.291 E60.53405
G1 X36.932 Y70.94 E60.55738
G1 X37.343 Y70.532 E60.58627
G1 X37.807 Y70.186 E60.61515
G1 X38.235 Y69.944 E60.63968
G1 X38.653 Y69.739 E60.6629
G1 X39.189 Y69.52 E60.69179
G1 X39.751 Y69.378 E60.72071
G1 X40.474 Y69.31 E60.75694
G1 X46.771 Y69.268 E61.07111
G1 X47.349 Y69.304 E61.1
G1 X47.917 Y69.42 E61.12892
G1 X48.463 Y69.612 E61.1578
G1 X48.707 Y69.738 E61.1715
G1 X75.146 Y69.738 E62.49054
G1 X75.146 Y55.506 E63.20058
G1 X48.159 Y55.506 E64.54697
G1 X48.154 Y55.508 E64.54724
G1 X47.594 Y55.656 E64.57614
G1 X46.791 Y55.732 E64.61638
G1 X40.637 Y55.72 E64.9234
G1 X40.059 Y55.679 E64.95231
G1 X39.492 Y55.559 E64.98122
G1 X39.001 Y55.385 E65.00721
G1 X38.432 Y55.143 E65.03806
G1 X37.916 Y54.88 E65.06696
G1 X37.441 Y54.549 E65.09584
G1 X37.016 Y54.155 E65.12475
G1 X36.723 Y53.808 E65.14741
G1 X36.348 Y53.311 E65.17847
G1 X36.032 Y52.825 E65.20739
G1 X35.786 Y52.301 E65.23627
G1 X35.633 Y51.825 E65.26122
G1 X35.555 Y51.521 E65.27688
G1 X35.45 Y50.951 E65.30579
G1 X35.423 Y50.476 E65.32953
G1 X35.424 Y46.571 E65.52435
G1 X35.464 Y45.993 E65.55325
G1 X35.65 Y45.214 E65.59321
G1 X35.801 Y44.772 E65.61651
G1 X36.025 Y44.238 E65.6454
G1 X36.321 Y43.74 E65.67431
G1 X36.623 Y43.355 E65.69872
G1 X36.932 Y43.004 E65.72205
G1 X37.343 Y42.596 E65.75094
G0 F1500 X37.625 Y42.882
G1 F480 X38.07 Y42.557 E65.77843
G1 X38.411 Y42.367 E65.79791
