;FLAVOR:Marlin
;TIME:1473
;Filament used: 1.57621m
;Layer height: 0.16
;MINX:55.335
;MINY:30.687
;MINZ:0.2
;MAXX:68.8
;MAXY:93.42
;MAXZ:15.08
;Generated with Cura_SteamEngine 4.12.1
M82 ;absolute extrusion mode
M104 S208.0 ;Set Hotend Temperature
M140 S58.0 ;Set Bed Temperature
G28 ;home
G90 ;absolute positioning
G1 X-10 Y-10 F3000 ;Move to corner 
G1 Z0 F1800 ;Go to zero offset
M109 S208.0 ;Wait for Hotend Temperature
M190 S58.0 ;Wait for Bed Temperature
G92 E0 ;Zero set extruder position
G1 E20 F200 ;Feed filament to clear nozzle
G92 E0 ;Zero set extruder position
G92 E0
G92 E0
G1 F1500 E-6.5
;LAYER_COUNT:94
;LAYER:0
M107
;MESH:Funky Habbi-Juttuli (2).stl
G0 F3600 X65.4 Y84.387 Z0.2
;TYPE:WALL-INNER
G1 F1500 E0
G1 F3000 X67.894 Y84.387 E0.08295
G1 X62.5 Y92.687 E0.41218
G1 X57.106 Y84.387 E0.74142
G1 X59.6 Y84.387 E0.82437
G1 X59.6 Y80.887 E0.94078
G1 X56.6 Y80.887 E1.04056
G1 X56.6 Y31.087 E2.69691
G1 X68.4 Y31.087 E3.08938
G1 X68.4 Y80.887 E4.74574
G1 X65.4 Y80.887 E4.84552
G1 X65.4 Y84.387 E4.96193
G0 F3600 X65.8 Y83.987
;TYPE:WALL-OUTER
G1 F3000 X68.631 Y83.987 E5.05609
G1 X62.5 Y93.42 E5.43028
G1 X56.369 Y83.987 E5.80447
G1 X59.2 Y83.987 E5.89863
G1 X59.2 Y81.287 E5.98843
G1 X56.2 Y81.287 E6.08821
G1 X56.2 Y30.687 E7.77117
G1 X68.8 Y30.687 E8.19025
G1 X68.8 Y81.287 E9.87321
G1 X65.8 Y81.287 E9.97299
G1 X65.8 Y83.987 E10.06279
G0 F3600 X66 Y83.987
G0 X66 Y84.287
G0 X62.673 Y92.089
;TYPE:SKIN
G1 F3000 X61.683 Y91.098 E10.10938
G1 X61.613 Y91.028
G0 F3600 X62.896 Y91.746
G1 F3000 X60.632 Y89.482 E10.21588
G1 X60.562 Y89.412
G0 F3600 X59.582 Y87.867
G1 F3000 X63.119 Y91.403 E10.38222
G0 F3600 X63.341 Y91.06
G1 F3000 X58.532 Y86.251 E10.60842
G1 X58.462 Y86.181
G0 F3600 X58.544 Y84.566
G1 F3000 X64.01 Y90.031 E10.8655
G0 F3600 X64.232 Y89.688
G1 F3000 X59.11 Y84.566 E11.10643
G0 F3600 X59.676 Y84.566
G1 F3000 X64.455 Y89.345 E11.33122
G0 F3600 X64.679 Y89.003
G1 F3000 X59.779 Y84.103 E11.5617
G0 F3600 X59.779 Y83.538
G1 F3000 X64.901 Y88.66 E11.80262
G0 F3600 X65.124 Y88.317
G1 F3000 X59.779 Y82.972 E12.05403
G0 F3600 X59.779 Y82.406
G1 F3000 X65.347 Y87.974 E12.31593
G0 F3600 X65.57 Y87.631
G1 F3000 X59.779 Y81.841 E12.5883
G0 F3600 X59.779 Y81.275
G1 F3000 X65.792 Y87.288 E12.87113
G0 F3600 X66.015 Y86.945
G1 F3000 X59.779 Y80.709 E13.16446
G0 F3600 X59.775 Y80.705
G1 F3000 X56.779 Y77.709 E13.30538
G0 F3600 X56.779 Y77.143
G1 F3000 X66.238 Y86.602 E13.7503
G0 F3600 X66.461 Y86.26
G1 F3000 X56.779 Y76.578 E14.20571
G0 F3600 X56.779 Y76.012
G1 F3000 X65.219 Y84.453 E14.60273
G0 F3600 X65.333 Y84.566
G1 F3000 X66.684 Y85.917 E14.66628
G0 F3600 X66.907 Y85.574
G1 F3000 X65.898 Y84.566 E14.71371
G0 F3600 X66.464 Y84.566
G1 F3000 X67.129 Y85.231 E14.74499
G0 F3600 X67.352 Y84.888
G1 F3000 X67.03 Y84.566 E14.76014
G0 F3600 X65.572 Y84.215
G0 X65.219 Y83.887
G1 F3000 X56.779 Y75.446 E15.15715
G0 F3600 X56.779 Y74.881
G1 F3000 X65.219 Y83.321 E15.55415
G0 F3600 X65.219 Y82.756
G1 F3000 X56.779 Y74.315 E15.95116
G0 F3600 X56.779 Y73.749
G1 F3000 X65.219 Y82.19 E16.34818
G0 F3600 X65.219 Y81.624
G1 F3000 X56.779 Y73.184 E16.74517
G0 F3600 X56.779 Y72.618
G1 F3000 X65.219 Y81.059 E17.14218
G0 F3600 X65.432 Y80.705
G1 F3000 X56.779 Y72.052 E17.54919
G0 F3600 X56.779 Y71.487
G1 F3000 X65.997 Y80.705 E17.98278
G0 F3600 X66.563 Y80.705
G1 F3000 X56.779 Y70.921 E18.44299
G0 F3600 X56.779 Y70.355
G1 F3000 X67.129 Y80.705 E18.92982
G0 F3600 X67.694 Y80.705
G1 F3000 X56.779 Y69.79 E19.44323
G0 F3600 X56.779 Y69.224
G1 F3000 X68.22 Y80.665 E19.98138
G0 F3600 X68.22 Y80.099
G1 F3000 X56.779 Y68.658 E20.51953
G0 F3600 X56.779 Y68.092
G1 F3000 X68.22 Y79.533 E21.05768
G0 F3600 X68.22 Y78.968
G1 F3000 X56.779 Y67.527 E21.59583
G0 F3600 X56.779 Y66.961
G1 F3000 X68.22 Y78.402 E22.13398
G0 F3600 X68.22 Y77.836
G1 F3000 X56.779 Y66.395 E22.67213
G0 F3600 X56.779 Y65.83
G1 F3000 X68.22 Y77.271 E23.21028
G0 F3600 X68.22 Y76.705
G1 F3000 X56.779 Y65.264 E23.74843
G0 F3600 X56.779 Y64.698
G1 F3000 X68.22 Y76.139 E24.28658
G0 F3600 X68.22 Y75.574
G1 F3000 X56.779 Y64.133 E24.82473
G0 F3600 X56.779 Y63.567
G1 F3000 X68.22 Y75.008 E25.36287
G0 F3600 X68.22 Y74.442
G1 F3000 X56.779 Y63.001 E25.90102
G0 F3600 X56.779 Y62.436
G1 F3000 X68.22 Y73.877 E26.43917
G0 F3600 X68.22 Y73.311
G1 F3000 X56.779 Y61.87 E26.97732
G0 F3600 X56.779 Y61.304
G1 F3000 X68.22 Y72.745 E27.51547
G0 F3600 X68.22 Y72.18
G1 F3000 X56.779 Y60.739 E28.05362
G0 F3600 X56.779 Y60.173
G1 F3000 X68.22 Y71.614 E28.59177
G0 F3600 X68.22 Y71.048
G1 F3000 X56.779 Y59.607 E29.12992
G0 F3600 X56.779 Y59.042
G1 F3000 X68.22 Y70.482 E29.66805
G0 F3600 X68.22 Y69.917
G1 F3000 X56.779 Y58.476 E30.2062
G0 F3600 X56.779 Y57.91
G1 F3000 X68.22 Y69.351 E30.74435
G0 F3600 X68.22 Y68.785
G1 F3000 X56.779 Y57.344 E31.2825
G0 F3600 X56.779 Y56.779
G1 F3000 X68.22 Y68.22 E31.82065
G0 F3600 X68.22 Y67.654
G1 F3000 X56.779 Y56.213 E32.3588
G0 F3600 X56.779 Y55.647
G1 F3000 X68.22 Y67.088 E32.89694
G0 F3600 X68.22 Y66.523
G1 F3000 X56.779 Y55.082 E33.43509
G0 F3600 X56.779 Y54.516
G1 F3000 X68.22 Y65.957 E33.97324
G0 F3600 X68.22 Y65.391
G1 F3000 X56.779 Y53.95 E34.51139
G0 F3600 X56.779 Y53.385
G1 F3000 X68.22 Y64.826 E35.04954
G0 F3600 X68.22 Y64.26
G1 F3000 X56.779 Y52.819 E35.58769
G0 F3600 X56.779 Y52.253
G1 F3000 X68.22 Y63.694 E36.12584
G0 F3600 X68.22 Y63.129
G1 F3000 X56.779 Y51.688 E36.66399
G0 F3600 X56.779 Y51.122
G1 F3000 X68.22 Y62.563 E37.20214
G0 F3600 X68.22 Y61.997
G1 F3000 X56.779 Y50.556 E37.74029
G0 F3600 X56.779 Y49.991
G1 F3000 X68.22 Y61.432 E38.27844
G0 F3600 X68.22 Y60.866
G1 F3000 X56.779 Y49.425 E38.81659
G0 F3600 X56.779 Y48.859
G1 F3000 X68.22 Y60.3 E39.35474
G0 F3600 X68.22 Y59.734
G1 F3000 X56.779 Y48.293 E39.89289
G0 F3600 X56.779 Y47.728
G1 F3000 X68.22 Y59.169 E40.43104
G0 F3600 X68.22 Y58.603
G1 F3000 X56.779 Y47.162 E40.96919
G0 F3600 X56.779 Y46.596
G1 F3000 X68.22 Y58.037 E41.50734
G0 F3600 X68.22 Y57.472
G1 F3000 X56.779 Y46.031 E42.04549
G0 F3600 X56.779 Y45.465
G1 F3000 X68.22 Y56.906 E42.58364
G0 F3600 X68.22 Y56.34
G1 F3000 X56.779 Y44.899 E43.12179
G0 F3600 X56.779 Y44.334
G1 F3000 X68.219 Y55.774 E43.65989
G0 F3600 X68.219 Y55.208
G1 F3000 X56.779 Y43.768 E44.19799
G0 F3600 X56.779 Y43.202
G1 F3000 X68.219 Y54.643 E44.73612
G0 F3600 X68.219 Y54.077
G1 F3000 X56.779 Y42.637 E45.27422
G0 F3600 X56.779 Y42.071
G1 F3000 X68.219 Y53.511 E45.81232
G0 F3600 X68.219 Y52.946
G1 F3000 X56.779 Y41.505 E46.35045
G0 F3600 X56.779 Y40.94
G1 F3000 X68.219 Y52.38 E46.88855
G0 F3600 X68.219 Y51.814
G1 F3000 X56.779 Y40.374 E47.42665
G0 F3600 X56.779 Y39.808
G1 F3000 X68.219 Y51.248 E47.96476
G0 F3600 X68.219 Y50.683
G1 F3000 X56.779 Y39.243 E48.50286
G0 F3600 X56.779 Y38.677
G1 F3000 X68.219 Y50.117 E49.04096
G0 F3600 X68.219 Y49.551
G1 F3000 X56.779 Y38.111 E49.57906
G0 F3600 X56.779 Y37.545
G1 F3000 X68.219 Y48.986 E50.11719
G0 F3600 X68.219 Y48.42
G1 F3000 X56.779 Y36.98 E50.65529
G0 F3600 X56.779 Y36.414
G1 F3000 X68.219 Y47.854 E51.1934
G0 F3600 X68.219 Y47.289
G1 F3000 X56.779 Y35.848 E51.73152
G0 F3600 X56.779 Y35.283
G1 F3000 X68.219 Y46.723 E52.26962
G0 F3600 X68.219 Y46.157
G1 F3000 X56.779 Y34.717 E52.80773
G0 F3600 X56.779 Y34.151
G1 F3000 X68.219 Y45.592 E53.34585
G0 F3600 X68.219 Y45.026
G1 F3000 X56.779 Y33.586 E53.88395
G0 F3600 X56.779 Y33.02
G1 F3000 X68.219 Y44.46 E54.42206
G0 F3600 X68.219 Y43.895
G1 F3000 X56.779 Y32.454 E54.96018
G0 F3600 X56.779 Y31.889
G1 F3000 X68.219 Y43.329 E55.49829
G0 F3600 X68.219 Y42.763
G1 F3000 X56.779 Y31.323 E56.03639
G0 F3600 X57.288 Y31.266
G1 F3000 X68.219 Y42.198 E56.55057
G0 F3600 X68.219 Y41.632
G1 F3000 X57.854 Y31.266 E57.03813
G0 F3600 X58.419 Y31.266
G1 F3000 X68.219 Y41.066 E57.4991
G0 F3600 X68.219 Y40.5
G1 F3000 X58.985 Y31.266 E57.93343
G0 F3600 X59.551 Y31.266
G1 F3000 X68.219 Y39.935 E58.34117
G0 F3600 X68.219 Y39.369
G1 F3000 X60.116 Y31.266 E58.72231
G0 F3600 X60.682 Y31.266
G1 F3000 X68.219 Y38.803 E59.07683
G0 F3600 X68.219 Y38.238
G1 F3000 X61.248 Y31.266 E59.40475
G0 F3600 X61.813 Y31.266
G1 F3000 X68.219 Y37.672 E59.70607
G0 F3600 X68.219 Y37.106
G1 F3000 X62.379 Y31.266 E59.98076
G0 F3600 X62.945 Y31.266
G1 F3000 X68.219 Y36.541 E60.22886
G0 F3600 X68.219 Y35.975
G1 F3000 X63.51 Y31.266 E60.45036
G0 F3600 X64.076 Y31.266
G1 F3000 X68.219 Y35.409 E60.64523
G0 F3600 X68.219 Y34.844
G1 F3000 X64.642 Y31.266 E60.81351
G0 F3600 X65.207 Y31.266
G1 F3000 X68.219 Y34.278 E60.95518
G0 F3600 X68.219 Y33.712
G1 F3000 X65.773 Y31.266 E61.07023
G0 F3600 X66.339 Y31.266
G1 F3000 X68.219 Y33.147 E61.15869
G0 F3600 X68.219 Y32.581
G1 F3000 X66.905 Y31.266 E61.22052
G0 F3600 X67.47 Y31.266
G1 F3000 X68.219 Y32.015 E61.25575
G0 F3600 X68.219 Y31.449
G1 F3000 X68.036 Y31.266 E61.26436
G0 F3600 X56.779 Y78.275
G1 F3000 X59.209 Y80.705 E61.37866
G0 F3600 X58.643 Y80.705
G1 F3000 X56.779 Y78.84 E61.46636
G0 F3600 X56.779 Y79.406
G1 F3000 X58.078 Y80.705 E61.52746
G0 F3600 X57.512 Y80.705
G1 F3000 X56.779 Y79.972 E61.56193
G0 F3600 X56.779 Y80.538
G1 F3000 X56.946 Y80.705 E61.56979
G0 F3600 X59.428 Y81.059
G0 X59.428 Y84.215
G0 X57.482 Y84.635
G1 F3000 X63.564 Y90.717 E61.85587
G0 F3600 X63.787 Y90.374
G1 F3000 X57.979 Y84.566 E62.12906
G1 X57.909 Y84.496
M104 S208
G0 F3600 X57.909 Y84.587
;MESH:NONMESH
G0 F600 X57.909 Y84.587 Z0.36
G0 F3600 X65.4 Y84.387
;TIME_ELAPSED:48.306035
;LAYER:1
M106 S255
;TYPE:WALL-INNER
;MESH:Funky Habbi-Juttuli (2).stl
G1 F4500 X67.894 Y84.387 E62.19542
G1 X62.5 Y92.687 E62.45881
G1 X57.106 Y84.387 E62.72219
G1 X59.6 Y84.387 E62.78855
G1 X59.6 Y80.887 E62.88168
G1 X56.6 Y80.887 E62.96151
G1 X56.6 Y31.087 E64.28659
G1 X68.4 Y31.087 E64.60057
G1 X68.4 Y80.887 E65.92565
G1 X65.4 Y80.887 E66.00547
G1 X65.4 Y84.387 E66.0986
G0 F5400 X65.8 Y83.987
;TYPE:WALL-OUTER
G1 F3000 X68.631 Y83.987 E66.17393
G1 X62.5 Y93.42 E66.47328
G1 X56.369 Y83.987 E66.77263
G1 X59.2 Y83.987 E66.84796
G1 X59.2 Y81.287 E66.9198
G1 X56.2 Y81.287 E66.99963
G1 X56.2 Y30.687 E68.346
G1 X68.8 Y30.687 E68.68126
G1 X68.8 Y81.287 E70.02763
G1 X65.8 Y81.287 E70.10745
G1 X65.8 Y83.987 E70.17929
G0 F5400 X66 Y83.987
G0 X66 Y84.287
G0 X62.333 Y92.098
;TYPE:SKIN
G1 F3000 X63.284 Y91.147 E70.21508
G1 X63.354 Y91.077
G0 F5400 X62.11 Y91.755
G1 F3000 X64.333 Y89.532 E70.29873
G1 X64.403 Y89.462
G0 F5400 X65.384 Y87.916
G1 F3000 X61.888 Y91.412 E70.43028
G0 F5400 X61.665 Y91.069
G1 F3000 X66.434 Y86.3 E70.60974
G1 X66.504 Y86.23
G0 F5400 X66.471 Y84.566
G1 F3000 X60.996 Y90.041 E70.81576
G0 F5400 X60.773 Y89.698
G1 F3000 X65.905 Y84.566 E71.00888
G0 F5400 X65.34 Y84.566
G1 F3000 X60.55 Y89.355 E71.1891
G0 F5400 X60.328 Y89.012
G1 F3000 X65.219 Y84.12 E71.37317
G0 F5400 X65.219 Y83.555
G1 F3000 X60.105 Y88.669 E71.5656
G0 F5400 X59.882 Y88.326
G1 F3000 X65.219 Y82.989 E71.76643
G0 F5400 X65.219 Y82.423
G1 F3000 X59.66 Y87.983 E71.97564
G0 F5400 X59.436 Y87.641
G1 F3000 X65.219 Y81.858 E72.19325
G0 F5400 X65.219 Y81.292
G1 F3000 X59.213 Y87.298 E72.41925
G0 F5400 X58.991 Y86.955
G1 F3000 X65.219 Y80.726 E72.65363
G0 F5400 X65.24 Y80.706
G1 F3000 X68.219 Y77.727 E72.76572
G0 F5400 X68.219 Y78.292
G1 F3000 X65.806 Y80.706 E72.85654
G0 F5400 X66.371 Y80.706
G1 F3000 X68.219 Y78.858 E72.92608
G0 F5400 X68.219 Y79.424
G1 F3000 X66.937 Y80.706 E72.97432
G0 F5400 X67.503 Y80.706
G1 F3000 X68.219 Y79.99 E73.00127
G0 F5400 X68.219 Y80.555
G1 F3000 X68.068 Y80.706 E73.00695
G0 F5400 X68.219 Y77.161
G1 F3000 X58.768 Y86.612 E73.36259
G0 F5400 X58.545 Y86.269
G1 F3000 X68.219 Y76.595 E73.72661
G0 F5400 X68.219 Y76.03
G1 F3000 X59.78 Y84.469 E74.04417
G0 F5400 X59.683 Y84.566
G1 F3000 X58.322 Y85.926 E74.09536
G0 F5400 X58.1 Y85.583
G1 F3000 X59.117 Y84.566 E74.13363
G0 F5400 X58.551 Y84.566
G1 F3000 X57.877 Y85.241 E74.15901
G0 F5400 X57.653 Y84.898
G1 F3000 X57.986 Y84.566 E74.17153
G0 F5400 X59.428 Y84.215
G0 X59.78 Y83.903
G1 F3000 X68.219 Y75.464 E74.48908
G0 F5400 X68.219 Y74.898
G1 F3000 X59.78 Y83.338 E74.80666
G0 F5400 X59.78 Y82.772
G1 F3000 X68.219 Y74.333 E75.12421
G0 F5400 X68.219 Y73.767
G1 F3000 X59.78 Y82.206 E75.44177
G0 F5400 X59.78 Y81.641
G1 F3000 X68.219 Y73.201 E75.75934
G0 F5400 X68.219 Y72.636
G1 F3000 X59.78 Y81.075 E76.0769
G0 F5400 X59.583 Y80.706
G1 F3000 X68.219 Y72.07 E76.40187
G0 F5400 X68.219 Y71.504
G1 F3000 X59.017 Y80.706 E76.74813
G0 F5400 X58.452 Y80.706
G1 F3000 X68.219 Y70.939 E77.11566
G0 F5400 X68.219 Y70.373
G1 F3000 X57.886 Y80.706 E77.50449
G0 F5400 X57.32 Y80.706
G1 F3000 X68.219 Y69.807 E77.91461
G0 F5400 X68.219 Y69.242
G1 F3000 X56.779 Y80.681 E78.34508
G0 F5400 X56.779 Y80.115
G1 F3000 X68.219 Y68.676 E78.77554
G0 F5400 X68.219 Y68.11
G1 F3000 X56.779 Y79.55 E79.20602
G0 F5400 X56.779 Y78.984
G1 F3000 X68.219 Y67.544 E79.6365
G0 F5400 X68.219 Y66.979
G1 F3000 X56.779 Y78.418 E80.06697
G0 F5400 X56.779 Y77.853
G1 F3000 X68.219 Y66.413 E80.49745
G0 F5400 X68.219 Y65.847
G1 F3000 X56.779 Y77.287 E80.92793
G0 F5400 X56.779 Y76.721
G1 F3000 X68.219 Y65.282 E81.35839
G0 F5400 X68.219 Y64.716
G1 F3000 X56.779 Y76.156 E81.78888
G0 F5400 X56.779 Y75.59
G1 F3000 X68.219 Y64.15 E82.21936
G0 F5400 X68.219 Y63.585
G1 F3000 X56.779 Y75.024 E82.64982
G0 F5400 X56.779 Y74.459
G1 F3000 X68.219 Y63.019 E83.0803
G0 F5400 X68.219 Y62.453
G1 F3000 X56.779 Y73.893 E83.51078
G0 F5400 X56.779 Y73.327
G1 F3000 X68.219 Y61.888 E83.94125
G0 F5400 X68.219 Y61.322
G1 F3000 X56.779 Y72.761 E84.37171
G0 F5400 X56.779 Y72.196
G1 F3000 X68.219 Y60.756 E84.80219
G0 F5400 X68.219 Y60.191
G1 F3000 X56.779 Y71.63 E85.23266
G0 F5400 X56.779 Y71.064
G1 F3000 X68.219 Y59.625 E85.66312
G0 F5400 X68.219 Y59.059
G1 F3000 X56.779 Y70.499 E86.0936
G0 F5400 X56.779 Y69.933
G1 F3000 X68.219 Y58.493 E86.52408
G0 F5400 X68.219 Y57.928
G1 F3000 X56.779 Y69.367 E86.95455
G0 F5400 X56.779 Y68.802
G1 F3000 X68.219 Y57.362 E87.38503
G0 F5400 X68.219 Y56.796
G1 F3000 X56.779 Y68.236 E87.81551
G0 F5400 X56.779 Y67.67
G1 F3000 X68.219 Y56.231 E88.24597
G0 F5400 X68.218 Y55.666
G1 F3000 X56.779 Y67.105 E88.67642
G0 F5400 X56.779 Y66.539
G1 F3000 X68.218 Y55.1 E89.10686
G0 F5400 X68.218 Y54.534
G1 F3000 X56.779 Y65.973 E89.53731
G0 F5400 X56.779 Y65.408
G1 F3000 X68.218 Y53.969 E89.96775
G0 F5400 X68.218 Y53.403
G1 F3000 X56.779 Y64.842 E90.3982
G0 F5400 X56.779 Y64.276
G1 F3000 X68.218 Y52.837 E90.82864
G0 F5400 X68.218 Y52.272
G1 F3000 X56.779 Y63.711 E91.25908
G0 F5400 X56.779 Y63.145
G1 F3000 X68.218 Y51.706 E91.68953
G0 F5400 X68.218 Y51.14
G1 F3000 X56.779 Y62.579 E92.11997
G0 F5400 X56.779 Y62.013
G1 F3000 X68.218 Y50.575 E92.5504
G0 F5400 X68.218 Y50.009
G1 F3000 X56.779 Y61.448 E92.98084
G0 F5400 X56.779 Y60.882
G1 F3000 X68.218 Y49.443 E93.41129
G0 F5400 X68.218 Y48.878
G1 F3000 X56.779 Y60.316 E93.84171
G0 F5400 X56.779 Y59.751
G1 F3000 X68.218 Y48.312 E94.27216
G0 F5400 X68.218 Y47.746
G1 F3000 X56.779 Y59.185 E94.7026
G0 F5400 X56.779 Y58.619
G1 F3000 X68.218 Y47.18 E95.13305
G0 F5400 X68.218 Y46.615
G1 F3000 X56.779 Y58.054 E95.56349
G0 F5400 X56.779 Y57.488
G1 F3000 X68.218 Y46.049 E95.99394
G0 F5400 X68.218 Y45.483
G1 F3000 X56.779 Y56.922 E96.42438
G0 F5400 X56.779 Y56.357
G1 F3000 X68.218 Y44.918 E96.85482
G0 F5400 X68.218 Y44.352
G1 F3000 X56.779 Y55.791 E97.28527
G0 F5400 X56.779 Y55.225
G1 F3000 X68.218 Y43.786 E97.71571
G0 F5400 X68.218 Y43.221
G1 F3000 X56.779 Y54.66 E98.14616
G0 F5400 X56.779 Y54.094
G1 F3000 X68.218 Y42.655 E98.5766
G0 F5400 X68.218 Y42.089
G1 F3000 X56.779 Y53.528 E99.00705
G0 F5400 X56.779 Y52.963
G1 F3000 X68.218 Y41.524 E99.43749
G0 F5400 X68.218 Y40.958
G1 F3000 X56.779 Y52.397 E99.86794
G0 F5400 X56.779 Y51.831
G1 F3000 X68.218 Y40.392 E100.29838
G0 F5400 X68.218 Y39.827
G1 F3000 X56.779 Y51.265 E100.72881
G0 F5400 X56.779 Y50.7
G1 F3000 X68.218 Y39.261 E101.15925
G0 F5400 X68.218 Y38.695
G1 F3000 X56.779 Y50.134 E101.58969
G0 F5400 X56.779 Y49.568
G1 F3000 X68.218 Y38.13 E102.02012
G0 F5400 X68.218 Y37.564
G1 F3000 X56.779 Y49.003 E102.45056
G0 F5400 X56.779 Y48.437
G1 F3000 X68.218 Y36.998 E102.88101
G0 F5400 X68.218 Y36.432
G1 F3000 X56.779 Y47.871 E103.31145
G0 F5400 X56.779 Y47.306
G1 F3000 X68.218 Y35.867 E103.7419
G0 F5400 X68.218 Y35.301
G1 F3000 X56.779 Y46.74 E104.17234
