;FLAVOR:Marlin
;TIME:2557
;Filament used: 2.79508m
;Layer height: 0.16
;MINX:9.857
;MINY:7.798
;MINZ:0.2
;MAXX:114.239
;MAXY:112.203
;MAXZ:7.08
;Generated with Cura_SteamEngine 4.12.1
M82 ;absolute extrusion mode
M104 S208.0 ;Set Hotend Temperature
M140 S58.0 ;Set Bed Temperature
G28 ;home
G90 ;absolute positioning
G1 X-10 Y-10 F3000 ;Move to corner 
G1 Z0 F1800 ;Go to zero offset
M109 S208.0 ;Wait for Hotend Temperature
M190 S58.0 ;Wait for Bed Temperature
G92 E0 ;Zero set extruder position
G1 E20 F200 ;Feed filament to clear nozzle
G92 E0 ;Zero set extruder position
G92 E0
G92 E0
G1 F1500 E-6.5
;LAYER_COUNT:44
;LAYER:0
M107
;MESH:The_Ultimate_Spool_Holder_v2.stl
G0 F3600 X30.866 Y111.797 Z0.2
;TYPE:WALL-INNER
G1 F1500 E0
G1 F2700 X29.708 Y111.803 E0.03852
G1 X28.554 Y111.703 E0.07704
G1 X27.409 Y111.501 E0.11571
G1 X26.303 Y111.201 E0.15383
G1 X25.208 Y110.795 E0.19267
G1 X24.162 Y110.297 E0.2312
G1 X23.173 Y109.712 E0.26942
G1 X22.225 Y109.029 E0.30828
G1 X21.35 Y108.272 E0.34676
G1 X10.588 Y97.498 E0.85326
G1 X10.404 Y97.283 E0.86267
G1 X10.304 Y97.071 E0.87047
G1 X10.26 Y96.832 E0.87855
G1 X10.279 Y96.608 E0.88603
G1 X10.359 Y96.384 E0.89394
G1 X10.506 Y96.17 E0.90257
G1 X98.129 Y8.531 E5.02447
G1 X98.348 Y8.344 E5.03404
G1 X98.564 Y8.242 E5.04199
G1 X98.787 Y8.201 E5.04953
G1 X99.022 Y8.221 E5.05737
G1 X99.312 Y8.347 E5.06789
G1 X110.045 Y19.082 E5.57279
G1 X110.617 Y19.675 E5.60019
G1 X111.345 Y20.58 E5.63882
G1 X111.983 Y21.538 E5.6771
G1 X112.536 Y22.555 E5.71561
G1 X112.996 Y23.618 E5.75413
G1 X113.357 Y24.713 E5.79248
G1 X113.623 Y25.854 E5.83144
G1 X113.78 Y26.981 E5.86929
G1 X113.838 Y28.145 E5.90805
G1 X113.791 Y29.308 E5.94677
G1 X113.64 Y30.458 E5.98534
G1 X113.389 Y31.579 E6.02355
G1 X113.036 Y32.685 E6.06217
G1 X112.586 Y33.75 E6.10062
G1 X112.043 Y34.769 E6.13902
G1 X111.412 Y35.734 E6.17737
G1 X110.687 Y36.651 E6.21625
G1 X109.891 Y37.491 E6.25474
G1 X109.028 Y38.252 E6.29301
G1 X108.09 Y38.939 E6.33168
G1 X107.105 Y39.534 E6.36996
G1 X106.064 Y40.042 E6.40848
G1 X104.957 Y40.462 E6.44786
G1 X101.216 Y41.806 E6.58008
G1 X95.401 Y44.276 E6.79021
G1 X89.751 Y47.106 E7.00038
G1 X84.289 Y50.287 E7.21061
G1 X79.037 Y53.803 E7.42083
G1 X74.018 Y57.643 E7.63101
G1 X69.249 Y61.789 E7.84119
G1 X64.75 Y66.228 E8.0514
G1 X60.539 Y70.94 E8.26159
G1 X56.632 Y75.908 E8.4718
G1 X53.044 Y81.111 E8.68201
G1 X49.79 Y86.528 E8.89219
G1 X46.883 Y92.14 E9.1024
G1 X44.333 Y97.923 E9.31262
G1 X42.164 Y103.823 E9.52169
G1 X41.883 Y104.443 E9.54433
G1 X41.33 Y105.483 E9.58351
G1 X40.697 Y106.45 E9.62195
G1 X39.977 Y107.362 E9.6606
G1 X39.185 Y108.197 E9.69887
G1 X38.312 Y108.968 E9.73761
G1 X37.387 Y109.645 E9.77574
G1 X36.394 Y110.244 E9.81431
G1 X35.344 Y110.755 E9.85315
G1 X34.27 Y111.163 E9.89136
G1 X33.151 Y111.478 E9.93002
G1 X32.013 Y111.689 E9.96852
G1 X30.866 Y111.797 E10.00684
G0 F3600 X30.884 Y112.197
;TYPE:WALL-OUTER
G1 F2700 X29.687 Y112.203 E10.04665
G1 X28.505 Y112.101 E10.08611
G1 X27.323 Y111.892 E10.12603
G1 X26.182 Y111.583 E10.16535
G1 X25.053 Y111.164 E10.2054
G1 X23.973 Y110.65 E10.24518
G1 X22.949 Y110.044 E10.28476
G1 X21.982 Y109.348 E10.32439
G1 X21.073 Y108.561 E10.36438
G1 X10.301 Y97.777 E10.87134
G1 X10.065 Y97.5 E10.88345
G1 X9.919 Y97.193 E10.89475
G1 X9.857 Y96.853 E10.90625
G1 X9.884 Y96.524 E10.91723
G1 X10 Y96.199 E10.9287
G1 X10.196 Y95.914 E10.94021
G1 X97.855 Y8.239 E15.0638
G1 X98.129 Y8.005 E15.07578
G1 X98.439 Y7.859 E15.08718
G1 X98.77 Y7.798 E15.09837
G1 X99.106 Y7.826 E15.10959
G1 X99.424 Y7.939 E15.12081
G1 X99.568 Y8.037 E15.1266
G1 X110.333 Y18.804 E15.633
G1 X110.919 Y19.411 E15.66106
G1 X111.667 Y20.341 E15.70076
G1 X112.322 Y21.325 E15.74008
G1 X112.898 Y22.383 E15.78014
G1 X113.371 Y23.477 E15.81978
G1 X113.744 Y24.61 E15.85946
G1 X114.015 Y25.773 E15.89918
G1 X114.18 Y26.951 E15.93874
G1 X114.239 Y28.145 E15.9785
G1 X114.19 Y29.343 E16.01838
G1 X114.036 Y30.519 E16.05783
G1 X113.774 Y31.689 E16.0977
G1 X113.413 Y32.82 E16.13719
G1 X112.946 Y33.925 E16.17709
G1 X112.386 Y34.976 E16.2167
G1 X111.738 Y35.967 E16.25608
G1 X110.993 Y36.909 E16.29603
G1 X110.169 Y37.779 E16.33588
G1 X109.275 Y38.567 E16.37552
G1 X108.314 Y39.271 E16.41514
G1 X107.3 Y39.883 E16.45453
G1 X106.216 Y40.412 E16.49465
G1 X105.099 Y40.836 E16.53439
G1 X101.362 Y42.179 E16.66646
G1 X95.569 Y44.639 E16.87579
G1 X89.941 Y47.458 E17.08515
G1 X84.501 Y50.626 E17.29453
G1 X79.27 Y54.128 E17.5039
G1 X74.271 Y57.953 E17.71326
G1 X69.521 Y62.083 E17.92261
G1 X65.04 Y66.504 E18.13198
G1 X60.846 Y71.197 E18.34132
G1 X56.954 Y76.145 E18.5507
G1 X53.38 Y81.328 E18.7601
G1 X50.139 Y86.723 E18.96942
G1 X47.244 Y92.313 E19.1788
G1 X44.704 Y98.073 E19.38818
G1 X42.726 Y103.453 E19.57883
G1 X42.534 Y103.975 E19.59733
G1 X42.24 Y104.624 E19.62103
G1 X41.673 Y105.69 E19.66119
G1 X41.023 Y106.683 E19.70066
G1 X40.283 Y107.62 E19.74037
G1 X39.458 Y108.49 E19.78025
G1 X38.565 Y109.278 E19.81986
G1 X37.604 Y109.982 E19.85948
G1 X36.589 Y110.594 E19.8989
G1 X35.505 Y111.122 E19.93901
G1 X34.397 Y111.543 E19.97843
G1 X33.243 Y111.867 E20.0183
G1 X32.067 Y112.085 E20.05808
G1 X30.884 Y112.197 E20.0976
G0 F3600 X30.684 Y112.198
G0 X30.682 Y111.697
G0 X22.338 Y108.888
;TYPE:SKIN
G1 F2700 X10.487 Y97.036 E20.65506
G0 F3600 X10.509 Y96.493
G1 F2700 X24.017 Y110.001 E21.29043
G1 X24.087 Y110.071
G0 F3600 X25.146 Y110.564
G1 F2700 X10.754 Y96.172 E21.96739
G0 F3600 X11.037 Y95.89
G1 F2700 X26.066 Y110.919 E22.67431
G1 X26.136 Y110.989
G0 F3600 X26.884 Y111.171
G1 F2700 X11.32 Y95.607 E23.40639
G0 F3600 X11.602 Y95.324
G1 F2700 X27.635 Y111.357 E24.16053
G0 F3600 X28.322 Y111.478
G1 F2700 X11.885 Y95.041 E24.93368
G0 F3600 X12.168 Y94.758
G1 F2700 X28.967 Y111.557 E25.72385
G0 F3600 X29.586 Y111.61
G1 F2700 X12.451 Y94.475 E26.52983
G0 F3600 X12.734 Y94.192
G1 F2700 X30.16 Y111.619 E27.34952
G0 F3600 X30.723 Y111.616
G1 F2700 X13.017 Y93.91 E28.18235
G0 F3600 X13.299 Y93.627
G1 F2700 X31.251 Y111.579 E29.02676
G0 F3600 X31.768 Y111.53
G1 F2700 X13.582 Y93.344 E29.88218
G0 F3600 X13.865 Y93.061
G1 F2700 X32.262 Y111.458 E30.74751
G0 F3600 X32.739 Y111.369
G1 F2700 X14.148 Y92.778 E31.62198
G0 F3600 X14.431 Y92.495
G1 F2700 X33.207 Y111.272 E32.50517
G0 F3600 X33.649 Y111.147
G1 F2700 X14.714 Y92.213 E33.39579
G0 F3600 X14.997 Y91.93
G1 F2700 X34.091 Y111.024 E34.29391
G0 F3600 X34.509 Y110.877
G1 F2700 X15.279 Y91.647 E35.19843
G0 F3600 X15.562 Y91.364
G1 F2700 X34.919 Y110.721 E36.10892
G0 F3600 X35.325 Y110.561
G1 F2700 X15.845 Y91.081 E37.0252
G0 F3600 X16.128 Y90.798
G1 F2700 X35.706 Y110.377 E37.94612
G0 F3600 X36.087 Y110.191
G1 F2700 X16.411 Y90.516 E38.87159
G0 F3600 X16.694 Y90.233
G1 F2700 X36.457 Y109.996 E39.80118
G0 F3600 X36.809 Y109.783
G1 F2700 X16.976 Y89.95 E40.73407
G0 F3600 X17.259 Y89.667
G1 F2700 X37.162 Y109.57 E41.67024
G0 F3600 X37.498 Y109.34
G1 F2700 X17.542 Y89.384 E42.60891
G0 F3600 X17.825 Y89.101
G1 F2700 X37.825 Y109.101 E43.54965
G0 F3600 X38.151 Y108.862
G1 F2700 X18.107 Y88.818 E44.49246
G0 F3600 X18.39 Y88.535
G1 F2700 X38.456 Y108.6 E45.43628
G0 F3600 X38.755 Y108.335
G1 F2700 X18.673 Y88.252 E46.3809
G0 F3600 X18.956 Y87.969
G1 F2700 X39.055 Y108.069 E47.32632
G0 F3600 X39.332 Y107.78
G1 F2700 X19.238 Y87.686 E48.27148
G0 F3600 X19.521 Y87.404
G1 F2700 X39.607 Y107.489 E49.21624
G0 F3600 X39.878 Y107.195
G1 F2700 X19.804 Y87.121 E50.16046
G0 F3600 X20.087 Y86.838
G1 F2700 X40.128 Y106.879 E51.10312
G0 F3600 X40.377 Y106.563
G1 F2700 X20.37 Y86.555 E52.04421
G0 F3600 X20.653 Y86.272
G1 F2700 X40.619 Y106.239 E52.98338
G0 F3600 X40.843 Y105.897
G1 F2700 X20.936 Y85.989 E53.91977
G0 F3600 X21.218 Y85.706
G1 F2700 X41.067 Y105.555 E54.8534
G0 F3600 X41.276 Y105.199
G1 F2700 X21.501 Y85.424 E55.78356
G0 F3600 X21.784 Y85.141
G1 F2700 X41.473 Y104.829 E56.70964
G0 F3600 X41.669 Y104.46
G1 F2700 X22.067 Y84.858 E57.63166
G0 F3600 X22.35 Y84.575
G1 F2700 X41.851 Y104.076 E58.54893
G0 F3600 X42.023 Y103.683
G1 F2700 X22.633 Y84.292 E59.461
G0 F3600 X22.915 Y84.009
G1 F2700 X42.175 Y103.269 E60.36693
G0 F3600 X42.327 Y102.855
G1 F2700 X23.198 Y83.727 E61.26668
G0 F3600 X23.481 Y83.444
G1 F2700 X42.48 Y102.442 E62.16031
G0 F3600 X42.632 Y102.029
G1 F2700 X23.764 Y83.161 E63.0478
G0 F3600 X24.047 Y82.878
G1 F2700 X42.784 Y101.615 E63.92913
G0 F3600 X42.936 Y101.201
G1 F2700 X24.33 Y82.595 E64.8043
G0 F3600 X24.612 Y82.312
G1 F2700 X43.088 Y100.788 E65.67335
G0 F3600 X43.24 Y100.374
G1 F2700 X24.895 Y82.03 E66.53622
G0 F3600 X25.178 Y81.747
G1 F2700 X43.392 Y99.96 E67.39293
G0 F3600 X43.544 Y99.547
G1 F2700 X25.46 Y81.463 E68.24355
G0 F3600 X25.743 Y81.18
G1 F2700 X43.696 Y99.133 E69.088
G0 F3600 X43.848 Y98.719
G1 F2700 X26.026 Y80.897 E69.92629
G0 F3600 X26.309 Y80.615
G1 F2700 X44.001 Y98.306 E70.75845
G0 F3600 X44.153 Y97.893
G1 F2700 X26.592 Y80.332 E71.58446
G0 F3600 X26.875 Y80.049
G1 F2700 X44.324 Y97.498 E72.40521
G0 F3600 X44.497 Y97.106
G1 F2700 X27.157 Y79.766 E73.22083
G0 F3600 X27.44 Y79.483
G1 F2700 X44.67 Y96.713 E74.03128
G0 F3600 X44.843 Y96.32
G1 F2700 X27.723 Y79.2 E74.83655
G0 F3600 X28.006 Y78.918
G1 F2700 X45.016 Y95.928 E75.63665
G0 F3600 X45.189 Y95.535
G1 F2700 X28.289 Y78.635 E76.43157
G0 F3600 X28.572 Y78.352
G1 F2700 X45.363 Y95.143 E77.22137
G0 F3600 X45.536 Y94.75
G1 F2700 X28.854 Y78.069 E78.00602
G0 F3600 X29.137 Y77.786
G1 F2700 X45.709 Y94.358 E78.78551
G0 F3600 X45.882 Y93.966
G1 F2700 X29.42 Y77.503 E79.55986
G0 F3600 X29.703 Y77.221
G1 F2700 X46.055 Y93.572 E80.32898
G0 F3600 X46.228 Y93.18
G1 F2700 X29.986 Y76.938 E81.09296
G0 F3600 X30.269 Y76.655
G1 F2700 X46.401 Y92.787 E81.85175
G0 F3600 X46.575 Y92.395
G1 F2700 X30.551 Y76.372 E82.60545
G0 F3600 X30.834 Y76.089
G1 F2700 X46.751 Y92.005 E83.35411
G0 F3600 X46.944 Y91.633
G1 F2700 X31.117 Y75.806 E84.09857
G0 F3600 X31.4 Y75.523
G1 F2700 X47.137 Y91.26 E84.83879
G0 F3600 X47.33 Y90.887
G1 F2700 X31.683 Y75.241 E85.57475
G0 F3600 X31.966 Y74.958
G1 F2700 X47.523 Y90.515 E86.30651
G0 F3600 X47.715 Y90.141
G1 F2700 X32.249 Y74.675 E87.03398
G0 F3600 X32.531 Y74.392
G1 F2700 X47.908 Y89.769 E87.75727
G0 F3600 X48.101 Y89.396
G1 F2700 X32.813 Y74.109 E88.47634
G0 F3600 X33.096 Y73.826
G1 F2700 X48.294 Y89.024 E89.19121
G0 F3600 X48.487 Y88.651
G1 F2700 X33.379 Y73.543 E89.90184
G0 F3600 X33.662 Y73.26
G1 F2700 X48.68 Y88.278 E90.60824
G0 F3600 X48.873 Y87.906
G1 F2700 X33.945 Y72.977 E91.31044
G0 F3600 X34.228 Y72.694
G1 F2700 X49.066 Y87.532 E92.00837
G0 F3600 X49.259 Y87.16
G1 F2700 X34.511 Y72.411 E92.70209
G0 F3600 X34.793 Y72.129
G1 F2700 X49.452 Y86.787 E93.39158
G0 F3600 X49.646 Y86.416
G1 F2700 X35.076 Y71.846 E94.07691
G0 F3600 X35.359 Y71.563
G1 F2700 X49.858 Y86.062 E94.7589
G0 F3600 X50.07 Y85.709
G1 F2700 X35.642 Y71.28 E95.43757
G0 F3600 X35.925 Y70.997
G1 F2700 X50.283 Y85.355 E96.11293
G0 F3600 X50.495 Y85.002
G1 F2700 X36.208 Y70.714 E96.78497
G0 F3600 X36.49 Y70.432
G1 F2700 X50.708 Y84.649 E97.45372
G0 F3600 X50.92 Y84.295
G1 F2700 X36.773 Y70.149 E98.11913
G0 F3600 X37.056 Y69.866
G1 F2700 X51.132 Y83.942 E98.78122
G0 F3600 X51.345 Y83.589
G1 F2700 X37.339 Y69.583 E99.44002
G0 F3600 X37.622 Y69.3
G1 F2700 X51.557 Y83.235 E100.09548
G0 F3600 X51.769 Y82.882
G1 F2700 X37.905 Y69.017 E100.74762
G0 F3600 X38.188 Y68.735
G1 F2700 X51.981 Y82.528 E101.3964
G0 F3600 X52.194 Y82.175
G1 F2700 X38.47 Y68.452 E102.04191
G0 F3600 X38.753 Y68.169
G1 F2700 X52.406 Y81.822 E102.68411
G0 F3600 X52.618 Y81.468
G1 F2700 X39.036 Y67.886 E103.32296
G0 F3600 X39.319 Y67.603
G1 F2700 X52.83 Y81.115 E103.9585
G0 F3600 X53.056 Y80.774
G1 F2700 X39.602 Y67.32 E104.59134
G0 F3600 X39.884 Y67.037
G1 F2700 X53.287 Y80.44 E105.22177
G0 F3600 X53.518 Y80.105
G1 F2700 X40.167 Y66.754 E105.84976
G0 F3600 X40.45 Y66.471
G1 F2700 X53.749 Y79.77 E106.47531
G0 F3600 X53.979 Y79.435
G1 F2700 X40.732 Y66.188 E107.09841
G0 F3600 X41.015 Y65.905
G1 F2700 X54.211 Y79.101 E107.71911
G0 F3600 X54.441 Y78.766
G1 F2700 X41.298 Y65.623 E108.33731
G0 F3600 X41.581 Y65.34
G1 F2700 X54.672 Y78.431 E108.95307
G0 F3600 X54.903 Y78.096
G1 F2700 X41.864 Y65.057 E109.56639
G0 F3600 X42.147 Y64.774
G1 F2700 X55.134 Y77.761 E110.17726
G0 F3600 X55.365 Y77.426
G1 F2700 X42.429 Y64.491 E110.7857
G0 F3600 X42.712 Y64.208
G1 F2700 X55.596 Y77.092 E111.39173
G0 F3600 X55.826 Y76.757
G1 F2700 X42.995 Y63.925 E111.99528
G0 F3600 X43.278 Y63.643
G1 F2700 X56.058 Y76.422 E112.59639
G0 F3600 X56.289 Y76.088
G1 F2700 X43.561 Y63.36 E113.19507
G0 F3600 X43.844 Y63.077
G1 F2700 X56.522 Y75.755 E113.79141
G0 F3600 X56.771 Y75.439
G1 F2700 X44.126 Y62.794 E114.38619
G0 F3600 X44.409 Y62.511
G1 F2700 X57.02 Y75.122 E114.97937
G0 F3600 X57.269 Y74.805
G1 F2700 X44.692 Y62.228 E115.57096
G0 F3600 X44.975 Y61.946
G1 F2700 X57.518 Y74.489 E116.16094
G0 F3600 X57.767 Y74.172
G1 F2700 X45.258 Y61.663 E116.74933
G0 F3600 X45.541 Y61.38
G1 F2700 X58.016 Y73.855 E117.33611
G0 F3600 X58.265 Y73.539
G1 F2700 X45.824 Y61.097 E117.92132
G0 F3600 X46.106 Y60.814
G1 F2700 X58.514 Y73.222 E118.50496
G0 F3600 X58.764 Y72.906
G1 F2700 X46.389 Y60.531 E119.08704
G0 F3600 X46.672 Y60.249
G1 F2700 X59.013 Y72.589 E119.6675
G0 F3600 X59.261 Y72.272
G1 F2700 X46.955 Y59.966 E120.24633
G0 F3600 X47.237 Y59.682
G1 F2700 X59.51 Y71.955 E120.82362
G0 F3600 X59.76 Y71.639
G1 F2700 X47.52 Y59.399 E121.39935
G0 F3600 X47.803 Y59.116
G1 F2700 X60.009 Y71.323 E121.97351
G0 F3600 X60.258 Y71.006
G1 F2700 X48.086 Y58.834 E122.54604
G0 F3600 X48.368 Y58.551
G1 F2700 X60.514 Y70.697 E123.11735
G0 F3600 X60.781 Y70.398
G1 F2700 X48.651 Y58.268 E123.68791
G0 F3600 X48.934 Y57.985
G1 F2700 X61.048 Y70.099 E124.25771
G0 F3600 X61.316 Y69.801
G1 F2700 X49.217 Y57.702 E124.82681
G0 F3600 X49.5 Y57.419
G1 F2700 X61.582 Y69.502 E125.39514
G0 F3600 X61.849 Y69.203
G1 F2700 X49.783 Y57.137 E125.96269
G0 F3600 X50.065 Y56.854
G1 F2700 X62.116 Y68.904 E126.5295
G0 F3600 X62.383 Y68.606
G1 F2700 X50.348 Y56.571 E127.09559
G0 F3600 X50.631 Y56.288
G1 F2700 X62.65 Y68.307 E127.66093
G0 F3600 X62.917 Y68.008
G1 F2700 X50.914 Y56.005 E128.22552
G0 F3600 X51.197 Y55.722
G1 F2700 X63.184 Y67.709 E128.78935
G0 F3600 X63.451 Y67.411
G1 F2700 X51.48 Y55.44 E129.35243
G0 F3600 X51.763 Y55.157
G1 F2700 X63.718 Y67.112 E129.91475
G0 F3600 X63.985 Y66.813
G1 F2700 X52.045 Y54.874 E130.47635
G0 F3600 X52.328 Y54.591
G1 F2700 X64.251 Y66.514 E131.03717
G0 F3600 X64.519 Y66.216
G1 F2700 X52.611 Y54.308 E131.59729
G0 F3600 X52.894 Y54.025
G1 F2700 X64.796 Y65.927 E132.15712
G0 F3600 X65.081 Y65.647
G1 F2700 X53.177 Y53.742 E132.71707
G0 F3600 X53.46 Y53.46
G1 F2700 X65.365 Y65.365 E133.27705
G0 F3600 X65.65 Y65.084
G1 F2700 X53.742 Y53.177 E133.83714
G0 F3600 X54.025 Y52.894
G1 F2700 X65.935 Y64.804 E134.39735
G0 F3600 X66.219 Y64.522
G1 F2700 X54.308 Y52.611 E134.95761
G0 F3600 X54.59 Y52.328
G1 F2700 X66.504 Y64.242 E135.518
G0 F3600 X66.789 Y63.961
G1 F2700 X54.873 Y52.045 E136.0785
G0 F3600 X55.156 Y51.762
G1 F2700 X67.074 Y63.679 E136.63906
G0 F3600 X67.358 Y63.399
G1 F2700 X55.439 Y51.479 E137.19972
G0 F3600 X55.722 Y51.196
G1 F2700 X67.643 Y63.118 E137.76047
G0 F3600 X67.928 Y62.837
G1 F2700 X56.004 Y50.913 E138.32133
G0 F3600 X56.287 Y50.63
G1 F2700 X68.213 Y62.556 E138.8823
G0 F3600 X68.498 Y62.275
G1 F2700 X56.57 Y50.348 E139.44333
G0 F3600 X56.853 Y50.065
G1 F2700 X68.782 Y61.994 E140.00443
G0 F3600 X69.067 Y61.713
G1 F2700 X57.136 Y49.782 E140.56563
G0 F3600 X57.419 Y49.499
G1 F2700 X69.366 Y61.446 E141.12758
G0 F3600 X69.669 Y61.183
G1 F2700 X57.702 Y49.216 E141.69047
G0 F3600 X57.984 Y48.933
G1 F2700 X69.971 Y60.92 E142.2543
G0 F3600 X70.274 Y60.657
G1 F2700 X58.267 Y48.651 E142.81905
G0 F3600 X58.55 Y48.368
G1 F2700 X70.577 Y60.394 E143.38474
G0 F3600 X70.879 Y60.131
G1 F2700 X58.833 Y48.085 E143.95135
G0 F3600 X59.116 Y47.802
G1 F2700 X71.182 Y59.868 E144.5189
G0 F3600 X71.484 Y59.605
G1 F2700 X59.399 Y47.519 E145.08736
G0 F3600 X59.681 Y47.236
G1 F2700 X71.787 Y59.342 E145.65679
G0 F3600 X72.09 Y59.079
G1 F2700 X59.964 Y46.954 E146.22714
G0 F3600 X60.247 Y46.671
G1 F2700 X72.392 Y58.816 E146.7984
G0 F3600 X72.695 Y58.553
G1 F2700 X60.53 Y46.388 E147.37061
G0 F3600 X60.813 Y46.105
