;FLAVOR:Marlin
;TIME:2082
;Filament used: 1.67835m
;Layer height: 0.16
;MINX:20.193
;MINY:39.708
;MINZ:0.2
;MAXX:104.807
;MAXY:85.309
;MAXZ:3.24
;Generated with Cura_SteamEngine 4.12.1
M82 ;absolute extrusion mode
M104 S208.0 ;Set Hotend Temperature
M140 S58.0 ;Set Bed Temperature
G28 ;home
G90 ;absolute positioning
G1 X-10 Y-10 F3000 ;Move to corner 
G1 Z0 F1800 ;Go to zero offset
M109 S208.0 ;Wait for Hotend Temperature
M190 S58.0 ;Wait for Bed Temperature
G92 E0 ;Zero set extruder position
G1 E20 F200 ;Feed filament to clear nozzle
G92 E0 ;Zero set extruder position
G92 E0
G92 E0
G1 F1500 E-6.5
;LAYER_COUNT:20
;LAYER:0
M107
M205 X30 Y30
G0 F3600 X28.371 Y71.086 Z0.2
M205 X20 Y20
;TYPE:SUPPORT
G1 F1500 E0
G1 F2400 X28.281 Y71.2 E0.00483
G1 X28.087 Y71.6 E0.01962
G1 X27.991 Y72 E0.0333
G1 X27.974 Y72.4 E0.04661
G1 X28.048 Y72.8 E0.06014
G1 X28.246 Y73.2 E0.07499
G1 X28.597 Y73.6 E0.09269
G1 X29.004 Y74 E0.11167
G1 X29.191 Y74.237 E0.12171
G1 X29.191 Y76.587 E0.19987
G1 X29.004 Y76.8 E0.2093
G1 X28.597 Y77.2 E0.22828
G1 X28.281 Y77.6 E0.24523
G1 X28.087 Y78 E0.26002
G1 X27.991 Y78.4 E0.2737
G1 X27.974 Y78.8 E0.28702
G1 X28.048 Y79.2 E0.30055
G1 X28.246 Y79.6 E0.31539
G1 X28.597 Y80 E0.33309
G1 X28.844 Y80.243 E0.34462
G1 X28.815 Y80.374 E0.34908
G1 X28.588 Y81.128 E0.37527
G1 X28.345 Y81.77 E0.3981
G1 X28.046 Y82.41 E0.4216
G1 X27.711 Y82.995 E0.44402
G1 X27.329 Y83.544 E0.46626
G1 X26.944 Y83.997 E0.48604
G1 X26.583 Y84.337 E0.50253
G1 X26.529 Y84.385 E0.50493
G1 X26.1 Y84.705 E0.52273
G1 X25.617 Y84.981 E0.54124
G1 X25.177 Y85.155 E0.55697
G1 X25.16 Y85.159 E0.55755
G1 X24.897 Y85.221 E0.56654
G1 X24.887 Y85.2 E0.56732
G1 X24.791 Y84.8 E0.581
G1 X24.774 Y84.4 E0.59431
G1 X24.848 Y84 E0.60784
G1 X25.046 Y83.6 E0.62269
G1 X25.397 Y83.2 E0.64039
G1 X25.804 Y82.8 E0.65937
G1 X26.12 Y82.4 E0.67632
G1 X26.314 Y82 E0.69111
G1 X26.41 Y81.6 E0.70479
G1 X26.427 Y81.2 E0.71811
G1 X26.353 Y80.8 E0.73164
G1 X26.155 Y80.4 E0.74648
G1 X25.804 Y80 E0.76418
G1 X25.397 Y79.6 E0.78316
G1 X25.081 Y79.2 E0.80012
G1 X24.887 Y78.8 E0.8149
G1 X24.791 Y78.4 E0.82858
G1 X24.774 Y78 E0.8419
G1 X24.848 Y77.6 E0.85543
G1 X25.046 Y77.2 E0.87027
G1 X25.397 Y76.8 E0.88797
G1 X25.804 Y76.4 E0.90695
G1 X26.12 Y76 E0.92391
G1 X26.314 Y75.6 E0.9387
G1 X26.41 Y75.2 E0.95238
G1 X26.427 Y74.8 E0.96569
G1 X26.353 Y74.4 E0.97922
G1 X26.155 Y74 E0.99407
G1 X25.804 Y73.6 E1.01177
G1 X25.397 Y73.2 E1.03075
G1 X25.081 Y72.8 E1.0477
G1 X24.887 Y72.4 E1.06249
G1 X24.791 Y72 E1.07617
G1 X24.774 Y71.6 E1.08949
G1 X24.848 Y71.2 E1.10302
G1 X25.046 Y70.8 E1.11786
G1 X25.397 Y70.4 E1.13556
G1 X25.719 Y70.084 E1.15057
G1 X22.883 Y70.082 E1.24489
G1 X22.604 Y70.4 E1.25896
G1 X22.197 Y70.8 E1.27794
G1 X21.881 Y71.2 E1.2949
G1 X21.687 Y71.6 E1.30968
G1 X21.591 Y72 E1.32337
G1 X21.574 Y72.4 E1.33668
G1 X21.648 Y72.8 E1.35021
G1 X21.846 Y73.2 E1.36506
G1 X22.197 Y73.6 E1.38276
G1 X22.604 Y74 E1.40174
G1 X22.92 Y74.4 E1.41869
G1 X23.114 Y74.8 E1.43348
G1 X23.21 Y75.2 E1.44716
G1 X23.227 Y75.6 E1.46048
G1 X23.153 Y76 E1.47401
G1 X22.955 Y76.4 E1.48885
G1 X22.604 Y76.8 E1.50655
G1 X22.197 Y77.2 E1.52553
G1 X21.881 Y77.6 E1.54248
G1 X21.687 Y78 E1.55727
G1 X21.591 Y78.4 E1.57095
G1 X21.574 Y78.8 E1.58427
G1 X21.648 Y79.2 E1.5978
G1 X21.846 Y79.6 E1.61264
G1 X22.197 Y80 E1.63034
G1 X22.604 Y80.4 E1.64932
G1 X22.92 Y80.8 E1.66628
G1 X23.114 Y81.2 E1.68106
G1 X23.21 Y81.6 E1.69475
G1 X23.227 Y82 E1.70806
G1 X23.153 Y82.4 E1.72159
G1 X22.955 Y82.8 E1.73644
G1 X22.604 Y83.2 E1.75414
G1 X22.197 Y83.6 E1.77312
G1 X21.881 Y84 E1.79007
G1 X21.76 Y84.249 E1.79928
M205 X30 Y30
G0 F3600 X79.508 Y79.671
M205 X20 Y20
G1 F2400 X79.797 Y80 E1.81384
G1 X80.204 Y80.4 E1.83282
G1 X80.52 Y80.8 E1.84978
G1 X80.714 Y81.2 E1.86457
G1 X80.81 Y81.6 E1.87825
G1 X80.827 Y82 E1.89156
G1 X80.753 Y82.4 E1.90509
G1 X80.601 Y82.706 E1.91646
G1 X80.774 Y83.007 E1.928
G1 X81.136 Y83.53 E1.94916
G1 X81.512 Y83.971 E1.96843
G1 X81.968 Y84.402 E1.9893
G1 X82.387 Y84.713 E2.00666
G1 X82.374 Y84.4 E2.01708
G1 X82.448 Y84 E2.03061
G1 X82.646 Y83.6 E2.04545
G1 X82.997 Y83.2 E2.06315
G1 X83.404 Y82.8 E2.08213
G1 X83.72 Y82.4 E2.09909
G1 X83.914 Y82 E2.11387
G1 X84.01 Y81.6 E2.12756
G1 X84.027 Y81.2 E2.14087
G1 X83.953 Y80.8 E2.1544
G1 X83.755 Y80.4 E2.16925
G1 X83.404 Y80 E2.18695
G1 X82.997 Y79.6 E2.20593
G1 X82.681 Y79.2 E2.22288
G1 X82.487 Y78.8 E2.23767
G1 X82.442 Y78.613 E2.24406
G1 X85.582 Y78.613 E2.3485
G1 X85.574 Y78.8 E2.35473
G1 X85.648 Y79.2 E2.36826
G1 X85.846 Y79.6 E2.3831
G1 X86.197 Y80 E2.4008
G1 X86.604 Y80.4 E2.41978
G1 X86.92 Y80.8 E2.43674
G1 X87.114 Y81.2 E2.45152
G1 X87.21 Y81.6 E2.4652
G1 X87.227 Y82 E2.47852
G1 X87.153 Y82.4 E2.49205
G1 X86.955 Y82.8 E2.50689
G1 X86.604 Y83.2 E2.52459
G1 X86.197 Y83.6 E2.54357
G1 X85.881 Y84 E2.56053
G1 X85.687 Y84.4 E2.57532
G1 X85.591 Y84.8 E2.589
G1 X85.582 Y85.012 E2.59606
G1 X85.688 Y84.97 E2.59985
G1 X86.139 Y84.716 E2.61706
G1 X86.591 Y84.377 E2.63586
G1 X86.985 Y84 E2.65399
G1 X87.382 Y83.534 E2.67435
G1 X87.751 Y83.004 E2.69583
G1 X87.772 Y82.97 E2.69716
G1 X88.105 Y82.387 E2.71949
G1 X88.392 Y81.771 E2.7421
G1 X88.404 Y81.74 E2.7432
G1 X88.638 Y81.111 E2.76552
G1 X88.855 Y80.4 E2.79025
G1 X89.022 Y79.662 E2.81541
G1 X89.092 Y79.214 E2.8305
G1 X89.081 Y79.2 E2.83109
G1 X88.887 Y78.8 E2.84587
G1 X88.812 Y78.488 E2.85655
M205 X30 Y30
G1 F1500 E-3.64345
;MESH:bracket-left-v3.stl
G0 F3600 X88.942 Y76.92
G0 X91.878 Y67.039
M205 X20 Y20
;TYPE:WALL-INNER
G1 F1500 E2.85655
G1 F2400 X92.44 Y67.112 E2.8754
G1 X93.001 Y67.039 E2.89421
G1 X93.526 Y66.821 E2.91312
G1 X93.976 Y66.476 E2.93198
G1 X94.321 Y66.026 E2.95084
G1 X94.539 Y65.501 E2.96975
G1 X94.607 Y64.979 E2.98725
G1 X94.607 Y52.86 E3.39033
G1 X94.539 Y52.337 E3.40788
G1 X94.321 Y51.812 E3.42678
G1 X93.976 Y51.362 E3.44564
G1 X93.525 Y51.016 E3.46455
G1 X93.001 Y50.8 E3.4834
G1 X92.44 Y50.725 E3.50222
G1 X91.878 Y50.8 E3.52108
G1 X91.354 Y51.016 E3.53993
G1 X90.903 Y51.362 E3.55884
G1 X90.557 Y51.813 E3.57775
G1 X90.341 Y52.337 E3.5966
G1 X90.272 Y52.86 E3.61414
G1 X90.272 Y64.979 E4.01722
G1 X90.341 Y65.501 E4.03473
G1 X90.557 Y66.025 E4.05359
G1 X90.903 Y66.476 E4.07249
G1 X91.353 Y66.821 E4.09135
G1 X91.878 Y67.039 E4.11026
M205 X30 Y30
G0 F3600 X96.697 Y68.966
M205 X20 Y20
G1 F2400 X96.375 Y69.231 E4.12413
G1 X88.822 Y76.783 E4.47937
G1 X88.457 Y77.029 E4.49401
G1 X88.026 Y77.113 E4.50862
G1 X36.988 Y77.113 E6.20615
G1 X36.557 Y77.03 E6.22075
G1 X36.183 Y76.776 E6.23579
G1 X28.623 Y69.218 E6.59134
G1 X28.318 Y68.967 E6.60448
G1 X27.913 Y68.75 E6.61976
G1 X27.485 Y68.623 E6.63461
G1 X27.085 Y68.584 E6.64797
G1 X21.629 Y68.582 E6.82944
G1 X21.353 Y68.545 E6.8387
G1 X21.114 Y68.444 E6.84733
G1 X20.907 Y68.283 E6.85605
G1 X20.747 Y68.071 E6.86489
G1 X20.647 Y67.826 E6.87369
G1 X20.607 Y67.519 E6.88399
G1 X20.608 Y41.161 E7.76066
G1 X20.647 Y40.865 E7.77059
G1 X20.747 Y40.62 E7.77939
G1 X20.907 Y40.408 E7.78822
G1 X21.114 Y40.247 E7.79695
G1 X21.349 Y40.147 E7.80544
G1 X21.655 Y40.108 E7.8157
G1 X27.016 Y40.108 E7.99401
G1 X27.34 Y40.173 E8.005
G1 X27.624 Y40.366 E8.01642
G1 X35.149 Y47.891 E8.37037
G1 X35.521 Y48.197 E8.38639
G1 X35.972 Y48.439 E8.40342
G1 X36.46 Y48.589 E8.4204
G1 X36.938 Y48.637 E8.43637
G1 X82.946 Y48.637 E9.96661
G1 X83.347 Y48.638 E9.97994
G1 X82.946 Y48.828 E9.98427
G1 X82.47 Y49.221 E10.0048
G1 X82.106 Y49.721 E10.02537
G1 X81.881 Y50.296 E10.0459
G1 X81.802 Y50.908 E10.06643
G1 X81.881 Y51.521 E10.08699
G1 X82.107 Y52.095 E10.1075
G1 X82.47 Y52.595 E10.12805
G1 X82.946 Y52.989 E10.14861
G1 X83.506 Y53.253 E10.1692
G1 X84.112 Y53.367 E10.18971
G1 X84.73 Y53.329 E10.2103
G1 X85.317 Y53.138 E10.23083
G1 X85.839 Y52.807 E10.25139
G1 X86.261 Y52.357 E10.27191
G1 X86.56 Y51.815 E10.2925
G1 X86.712 Y51.216 E10.31305
G1 X86.712 Y50.6 E10.33354
G1 X86.56 Y50.001 E10.35409
G1 X86.261 Y49.459 E10.37468
G1 X85.839 Y49.009 E10.3952
G1 X85.317 Y48.678 E10.41576
G1 X85.194 Y48.638 E10.42006
G1 X85.839 Y48.638 E10.4317
G1 X88.074 Y48.638 E10.50604
G1 X88.543 Y48.593 E10.52171
G1 X89.043 Y48.44 E10.5391
G1 X89.499 Y48.192 E10.55637
G1 X89.865 Y47.891 E10.57213
G1 X97.397 Y40.36 E10.92639
G1 X97.683 Y40.171 E10.93779
G1 X97.999 Y40.109 E10.9485
G1 X103.372 Y40.109 E11.12721
G1 X103.668 Y40.149 E11.13714
G1 X103.9 Y40.247 E11.14552
G1 X104.106 Y40.408 E11.15421
G1 X104.268 Y40.623 E11.16317
G1 X104.369 Y40.867 E11.17195
G1 X104.407 Y41.169 E11.18207
G1 X104.407 Y67.522 E12.05858
G1 X104.368 Y67.826 E12.06877
G1 X104.268 Y68.071 E12.07757
G1 X104.111 Y68.279 E12.08624
G1 X103.9 Y68.444 E12.09515
G1 X103.661 Y68.545 E12.10378
G1 X103.384 Y68.583 E12.11308
G1 X97.929 Y68.583 E12.29451
G1 X97.516 Y68.624 E12.30832
G1 X97.091 Y68.755 E12.32311
G1 X96.697 Y68.966 E12.33797
M205 X30 Y30
G0 F3600 X99.715 Y67.275
M205 X20 Y20
G1 F2400 X100.321 Y67.387 E12.35847
G1 X100.92 Y67.351 E12.37843
G1 X101.497 Y67.166 E12.39858
G1 X102.019 Y66.841 E12.41903
G1 X102.444 Y66.396 E12.4395
G1 X102.746 Y65.86 E12.45996
G1 X102.906 Y65.261 E12.48058
G1 X102.914 Y64.643 E12.50114
G1 X102.766 Y64.041 E12.52176
G1 X102.472 Y63.498 E12.5423
G1 X102.047 Y63.036 E12.56318
G1 X101.539 Y62.712 E12.58322
G1 X100.954 Y62.514 E12.60376
G1 X100.323 Y62.467 E12.6248
G1 X99.713 Y62.581 E12.64544
G1 X99.194 Y62.824 E12.6645
G1 X99.115 Y62.872 E12.66758
G1 X98.663 Y63.249 E12.68715
G1 X98.297 Y63.765 E12.7082
G1 X98.077 Y64.338 E12.72861
G1 X98.002 Y64.936 E12.74866
G1 X98.079 Y65.534 E12.76871
G1 X98.302 Y66.106 E12.78913
G1 X98.664 Y66.607 E12.80969
G1 X99.099 Y66.97 E12.82853
G1 X99.176 Y67.025 E12.83168
G1 X99.715 Y67.275 E12.85144
M205 X30 Y30
G0 F3600 X98.782 Y66.497
G0 X98.237 Y65.494
G0 X99.706 Y53.253
M205 X20 Y20
G1 F2400 X100.312 Y53.367 E12.87195
G1 X100.93 Y53.329 E12.89254
G1 X101.517 Y53.138 E12.91307
G1 X102.039 Y52.807 E12.93363
G1 X102.461 Y52.357 E12.95415
G1 X102.76 Y51.815 E12.97474
G1 X102.912 Y51.216 E12.99529
G1 X102.912 Y50.6 E13.01578
G1 X102.76 Y50.001 E13.03634
G1 X102.461 Y49.459 E13.05692
G1 X102.039 Y49.009 E13.07744
G1 X101.517 Y48.678 E13.098
G1 X100.93 Y48.487 E13.11853
G1 X100.312 Y48.449 E13.13913
G1 X99.705 Y48.563 E13.15967
G1 X99.146 Y48.828 E13.18024
G1 X98.67 Y49.221 E13.20077
G1 X98.306 Y49.721 E13.22134
G1 X98.081 Y50.296 E13.24188
G1 X98.002 Y50.908 E13.2624
G1 X98.081 Y51.521 E13.28296
G1 X98.307 Y52.095 E13.30348
G1 X98.67 Y52.595 E13.32403
G1 X99.146 Y52.989 E13.34458
G1 X99.706 Y53.253 E13.36517
M205 X30 Y30
G0 F3600 X94.181 Y65.945
G0 X93.445 Y66.681
G0 X83.506 Y67.273
M205 X20 Y20
G1 F2400 X84.112 Y67.387 E13.38568
G1 X84.73 Y67.349 E13.40628
G1 X85.317 Y67.158 E13.42681
G1 X85.839 Y66.827 E13.44737
G1 X86.261 Y66.377 E13.46788
G1 X86.56 Y65.835 E13.48847
G1 X86.712 Y65.236 E13.50903
G1 X86.712 Y64.62 E13.52951
G1 X86.56 Y64.021 E13.55007
G1 X86.261 Y63.479 E13.57066
G1 X85.839 Y63.029 E13.59118
G1 X85.317 Y62.698 E13.61173
G1 X84.73 Y62.507 E13.63226
G1 X84.112 Y62.469 E13.65286
G1 X83.505 Y62.583 E13.6734
G1 X82.946 Y62.848 E13.69398
G1 X82.47 Y63.241 E13.71451
G1 X82.106 Y63.741 E13.73508
G1 X81.881 Y64.316 E13.75561
G1 X81.802 Y64.928 E13.77614
G1 X81.881 Y65.541 E13.79669
G1 X82.107 Y66.115 E13.81721
G1 X82.47 Y66.615 E13.83776
G1 X82.946 Y67.009 E13.85831
G1 X83.506 Y67.273 E13.87891
M205 X30 Y30
G0 F3600 X70.294 Y71.78
G0 X69.242 Y72.084
G0 X68.156 Y72.267
G0 X41.134 Y72.427
M205 X20 Y20
G1 F2400 X42.234 Y72.489 E13.91555
G1 X67.076 Y72.489 E14.7418
G1 X68.175 Y72.427 E14.77841
G1 X69.279 Y72.24 E14.81565
G1 X70.353 Y71.93 E14.85283
G1 X71.387 Y71.503 E14.89004
G1 X72.366 Y70.962 E14.92724
G1 X73.278 Y70.314 E14.96445
G1 X74.112 Y69.569 E15.00165
G1 X74.858 Y68.735 E15.03886
G1 X75.505 Y67.822 E15.07608
G1 X76.046 Y66.843 E15.11329
G1 X76.474 Y65.809 E15.15051
G1 X76.784 Y64.735 E15.18769
G1 X76.971 Y63.632 E15.2249
G1 X77.034 Y62.515 E15.26211
G1 X76.971 Y61.398 E15.29932
G1 X76.784 Y60.295 E15.33653
G1 X76.474 Y59.221 E15.37371
G1 X76.046 Y58.187 E15.41093
G1 X75.505 Y57.207 E15.44816
G1 X74.858 Y56.295 E15.48535
G1 X74.112 Y55.461 E15.52257
G1 X73.278 Y54.716 E15.55976
G1 X72.366 Y54.068 E15.59697
G1 X71.387 Y53.527 E15.63417
G1 X70.353 Y53.1 E15.67138
G1 X69.279 Y52.79 E15.70856
G1 X68.175 Y52.603 E15.7458
G1 X67.076 Y52.541 E15.78241
G1 X42.234 Y52.541 E16.60866
G1 X41.134 Y52.603 E16.64531
G1 X40.031 Y52.79 E16.68252
G1 X38.957 Y53.1 E16.7197
G1 X37.923 Y53.527 E16.7569
G1 X36.944 Y54.068 E16.79411
G1 X36.031 Y54.716 E16.83134
G1 X35.197 Y55.461 E16.86854
G1 X34.452 Y56.295 E16.90573
G1 X33.804 Y57.207 E16.94294
G1 X33.263 Y58.187 E16.98018
G1 X32.836 Y59.221 E17.01738
G1 X32.526 Y60.295 E17.05456
G1 X32.339 Y61.398 E17.09177
G1 X32.276 Y62.515 E17.12898
G1 X32.339 Y63.632 E17.16619
G1 X32.526 Y64.735 E17.2034
G1 X32.836 Y65.809 E17.24058
G1 X33.263 Y66.843 E17.27779
G1 X33.804 Y67.822 E17.31499
G1 X34.452 Y68.735 E17.35223
G1 X35.197 Y69.569 E17.38943
G1 X36.031 Y70.314 E17.42662
G1 X36.944 Y70.962 E17.46386
G1 X37.923 Y71.503 E17.50106
G1 X38.957 Y71.93 E17.53827
G1 X40.031 Y72.24 E17.57545
G1 X41.134 Y72.427 E17.61266
M205 X30 Y30
G0 F3600 X23.506 Y67.273
M205 X20 Y20
G1 F2400 X24.112 Y67.387 E17.63317
G1 X24.73 Y67.349 E17.65376
G1 X25.317 Y67.158 E17.67429
G1 X25.839 Y66.827 E17.69485
G1 X26.261 Y66.377 E17.71537
G1 X26.56 Y65.835 E17.73596
G1 X26.712 Y65.236 E17.75651
G1 X26.712 Y64.62 E17.777
G1 X26.56 Y64.021 E17.79755
G1 X26.261 Y63.479 E17.81814
G1 X25.839 Y63.029 E17.83866
G1 X25.317 Y62.698 E17.85922
G1 X24.73 Y62.507 E17.87975
G1 X24.112 Y62.469 E17.90034
G1 X23.505 Y62.583 E17.92089
G1 X22.946 Y62.848 E17.94146
G1 X22.47 Y63.241 E17.96199
G1 X22.106 Y63.741 E17.98256
G1 X21.881 Y64.316 E18.0031
G1 X21.802 Y64.928 E18.02362
G1 X21.881 Y65.541 E18.04418
G1 X22.107 Y66.115 E18.0647
G1 X22.47 Y66.615 E18.08525
G1 X22.946 Y67.009 E18.1058
G1 X23.506 Y67.273 E18.12639
M205 X30 Y30
G0 F3600 X22.589 Y66.505
G0 X22.039 Y65.501
G0 X23.506 Y53.253
M205 X20 Y20
G1 F2400 X24.112 Y53.367 E18.1469
G1 X24.73 Y53.329 E18.16749
G1 X25.317 Y53.138 E18.18803
G1 X25.839 Y52.807 E18.20858
G1 X26.261 Y52.357 E18.2291
G1 X26.56 Y51.815 E18.24969
G1 X26.712 Y51.216 E18.27024
G1 X26.712 Y50.6 E18.29073
G1 X26.56 Y50.001 E18.31129
G1 X26.261 Y49.459 E18.33187
G1 X25.839 Y49.009 E18.35239
G1 X25.317 Y48.678 E18.37295
G1 X24.73 Y48.487 E18.39348
G1 X24.112 Y48.449 E18.41408
G1 X23.505 Y48.563 E18.43462
G1 X22.946 Y48.828 E18.45519
G1 X22.47 Y49.221 E18.47572
G1 X22.106 Y49.721 E18.49629
G1 X21.881 Y50.296 E18.51683
G1 X21.802 Y50.908 E18.53736
G1 X21.881 Y51.521 E18.55791
G1 X22.107 Y52.095 E18.57843
G1 X22.47 Y52.595 E18.59898
G1 X22.946 Y52.989 E18.61953
G1 X23.506 Y53.253 E18.64012
M205 X30 Y30
G0 F3600 X23.63 Y52.869
M205 X20 Y20
;TYPE:WALL-OUTER
G1 F2400 X24.137 Y52.965 E18.65729
G1 X24.654 Y52.933 E18.67452
G1 X25.145 Y52.773 E18.69169
G1 X25.582 Y52.496 E18.7089
G1 X25.935 Y52.12 E18.72605
G1 X26.185 Y51.667 E18.74326
G1 X26.312 Y51.166 E18.76045
G1 X26.312 Y50.65 E18.77761
G1 X26.185 Y50.149 E18.79481
G1 X25.935 Y49.696 E18.81201
G1 X25.582 Y49.32 E18.82917
G1 X25.145 Y49.043 E18.84638
G1 X24.654 Y48.883 E18.86355
G1 X24.137 Y48.851 E18.88078
G1 X23.63 Y48.947 E18.89794
G1 X23.162 Y49.168 E18.91516
G1 X22.764 Y49.497 E18.93233
G1 X22.46 Y49.915 E18.94952
G1 X22.271 Y50.396 E18.96671
G1 X22.205 Y50.908 E18.98388
G1 X22.271 Y51.421 E19.00108
G1 X22.46 Y51.901 E19.01824
G1 X22.764 Y52.319 E19.03543
G1 X23.162 Y52.649 E19.05263
G1 X23.63 Y52.869 E19.06983
M205 X30 Y30
G0 F3600 X23.826 Y52.906
G0 X23.771 Y53.2
G0 X21.964 Y64.928
G0 X22.248 Y66.036
G0 X23.502 Y67.16
G0 X23.63 Y66.889
M205 X20 Y20
G1 F2400 X24.137 Y66.985 E19.08699
G1 X24.654 Y66.953 E19.10422
G1 X25.145 Y66.793 E19.1214
G1 X25.582 Y66.516 E19.1386
G1 X25.935 Y66.14 E19.15576
G1 X26.185 Y65.687 E19.17297
G1 X26.312 Y65.186 E19.19016
G1 X26.312 Y64.67 E19.20732
G1 X26.185 Y64.169 E19.22451
G1 X25.935 Y63.716 E19.24172
G1 X25.582 Y63.34 E19.25887
G1 X25.145 Y63.063 E19.27608
G1 X24.654 Y62.903 E19.29326
G1 X24.137 Y62.871 E19.31049
G1 X23.63 Y62.967 E19.32765
G1 X23.162 Y63.188 E19.34486
G1 X22.764 Y63.517 E19.36204
G1 X22.46 Y63.935 E19.37923
G1 X22.271 Y64.416 E19.39642
