;FLAVOR:Marlin
;TIME:1863
;Filament used: 1.52731m
;Layer height: 0.16
;MINX:20.2
;MINY:43.598
;MINZ:0.2
;MAXX:104.8
;MAXY:81.403
;MAXZ:3.24
;Generated with Cura_SteamEngine 4.12.1
M82 ;absolute extrusion mode
M104 S208.0 ;Set Hotend Temperature
M140 S58.0 ;Set Bed Temperature
G28 ;home
G90 ;absolute positioning
G1 X-10 Y-10 F3000 ;Move to corner 
G1 Z0 F1800 ;Go to zero offset
M109 S208.0 ;Wait for Hotend Temperature
M190 S58.0 ;Wait for Bed Temperature
G92 E0 ;Zero set extruder position
G1 E20 F200 ;Feed filament to clear nozzle
G92 E0 ;Zero set extruder position
G92 E0
G92 E0
G1 F1500 E-6.5
;LAYER_COUNT:20
;LAYER:0
M107
M205 X30 Y30
;MESH:bracket-right-top-v3.stl
G0 F3600 X23.498 Y58.526 Z0.2
M205 X20 Y20
;TYPE:WALL-INNER
G1 F1500 E0
G1 F2400 X24.104 Y58.642 E0.02052
G1 X24.723 Y58.604 E0.04115
G1 X25.31 Y58.412 E0.06169
G1 X25.831 Y58.082 E0.0822
G1 X26.254 Y57.631 E0.10277
G1 X26.551 Y57.089 E0.12332
G1 X26.705 Y56.492 E0.14383
G1 X26.705 Y55.873 E0.16442
G1 X26.551 Y55.276 E0.18492
G1 X26.255 Y54.735 E0.20544
G1 X25.832 Y54.283 E0.22603
G1 X25.31 Y53.952 E0.24658
G1 X24.723 Y53.761 E0.26711
G1 X24.104 Y53.723 E0.28774
G1 X23.498 Y53.839 E0.30826
G1 X22.939 Y54.102 E0.32881
G1 X22.463 Y54.495 E0.34934
G1 X22.1 Y54.995 E0.36989
G1 X21.873 Y55.57 E0.39045
G1 X21.795 Y56.182 E0.41097
G1 X21.872 Y56.795 E0.43152
G1 X22.1 Y57.37 E0.45209
G1 X22.463 Y57.87 E0.47264
G1 X22.939 Y58.263 E0.49318
G1 X23.498 Y58.526 E0.51372
M205 X30 Y30
G0 F3600 X21.956 Y70.203
G0 X22.241 Y71.311
G0 X23.498 Y72.546
M205 X20 Y20
G1 F2400 X24.104 Y72.662 E0.53424
G1 X24.723 Y72.624 E0.55487
G1 X25.31 Y72.432 E0.57541
G1 X25.831 Y72.102 E0.59592
G1 X26.254 Y71.651 E0.61649
G1 X26.551 Y71.109 E0.63705
G1 X26.705 Y70.512 E0.65755
G1 X26.705 Y69.893 E0.67814
G1 X26.551 Y69.296 E0.69865
G1 X26.255 Y68.755 E0.71916
G1 X25.832 Y68.303 E0.73975
G1 X25.31 Y67.972 E0.76031
G1 X24.723 Y67.781 E0.78084
G1 X24.104 Y67.743 E0.80146
G1 X23.498 Y67.859 E0.82199
G1 X22.939 Y68.122 E0.84253
G1 X22.463 Y68.515 E0.86306
G1 X22.1 Y69.015 E0.88361
G1 X21.873 Y69.59 E0.90418
G1 X21.795 Y70.202 E0.92469
G1 X21.872 Y70.815 E0.94524
G1 X22.1 Y71.39 E0.96582
G1 X22.463 Y71.89 E0.98637
G1 X22.939 Y72.283 E1.0069
G1 X23.498 Y72.546 E1.02745
M205 X30 Y30
G0 F3600 X35.515 Y72.912
M205 X20 Y20
G1 F2400 X35.142 Y73.219 E1.04351
G1 X27.605 Y80.755 E1.39801
G1 X27.326 Y80.94 E1.40914
G1 X27.011 Y81.002 E1.41982
G1 X21.642 Y81.003 E1.59839
G1 X21.338 Y80.96 E1.6086
G1 X21.109 Y80.864 E1.61686
G1 X20.899 Y80.701 E1.62571
G1 X20.739 Y80.487 E1.63459
G1 X20.64 Y80.245 E1.64329
G1 X20.6 Y79.936 E1.65365
G1 X20.6 Y53.592 E2.52986
G1 X20.64 Y53.288 E2.54005
G1 X20.741 Y53.037 E2.54905
G1 X20.892 Y52.834 E2.55747
G1 X21.109 Y52.666 E2.5666
G1 X21.346 Y52.567 E2.57514
G1 X21.624 Y52.528 E2.58448
G1 X27.078 Y52.528 E2.76588
G1 X27.492 Y52.486 E2.77972
G1 X27.917 Y52.355 E2.79451
G1 X28.31 Y52.144 E2.80934
G1 X28.632 Y51.879 E2.82322
G1 X36.177 Y44.334 E3.17811
G1 X36.553 Y44.082 E3.19316
G1 X36.981 Y43.998 E3.20767
G1 X88.02 Y43.998 E4.90523
G1 X88.454 Y44.083 E4.91994
G1 X88.823 Y44.334 E4.93479
G1 X96.367 Y51.878 E5.28963
G1 X96.689 Y52.143 E5.3035
G1 X97.095 Y52.36 E5.31882
G1 X97.521 Y52.487 E5.3336
G1 X97.921 Y52.527 E5.34697
G1 X103.379 Y52.529 E5.5285
G1 X103.654 Y52.566 E5.53773
G1 X103.894 Y52.666 E5.54638
G1 X104.099 Y52.826 E5.55503
G1 X104.26 Y53.039 E5.56391
G1 X104.36 Y53.284 E5.57271
G1 X104.4 Y53.591 E5.58301
G1 X104.399 Y79.948 E6.45965
G1 X104.36 Y80.244 E6.46958
G1 X104.26 Y80.489 E6.47838
G1 X104.099 Y80.702 E6.48726
G1 X103.894 Y80.862 E6.49591
G1 X103.654 Y80.962 E6.50456
G1 X103.363 Y81.002 E6.51433
G1 X97.992 Y81.003 E6.69297
G1 X97.67 Y80.939 E6.70388
G1 X97.381 Y80.743 E6.7155
G1 X89.845 Y73.208 E7.06995
G1 X89.485 Y72.912 E7.08545
G1 X89.035 Y72.67 E7.10244
G1 X88.546 Y72.52 E7.11945
G1 X88.082 Y72.472 E7.13497
G1 X85.831 Y72.472 E7.20984
G1 X85.188 Y72.472 E7.23122
G1 X85.31 Y72.432 E7.23549
G1 X85.831 Y72.102 E7.24841
G1 X86.254 Y71.651 E7.26897
G1 X86.551 Y71.109 E7.28953
G1 X86.705 Y70.512 E7.31004
G1 X86.705 Y69.893 E7.33062
G1 X86.551 Y69.296 E7.35113
G1 X86.255 Y68.755 E7.37164
G1 X85.832 Y68.303 E7.39223
G1 X85.31 Y67.972 E7.41279
G1 X84.723 Y67.781 E7.43332
G1 X84.104 Y67.743 E7.45395
G1 X83.498 Y67.859 E7.47447
G1 X82.939 Y68.122 E7.49502
G1 X82.463 Y68.515 E7.51555
G1 X82.1 Y69.015 E7.5361
G1 X81.873 Y69.59 E7.55666
G1 X81.795 Y70.202 E7.57718
G1 X81.872 Y70.815 E7.59773
G1 X82.1 Y71.39 E7.6183
G1 X82.463 Y71.89 E7.63885
G1 X82.939 Y72.283 E7.65938
G1 X83.341 Y72.472 E7.67415
G1 X82.94 Y72.472 E7.67703
G1 X36.931 Y72.473 E9.20729
G1 X36.455 Y72.52 E9.2232
G1 X35.965 Y72.67 E9.24024
G1 X35.515 Y72.912 E9.25724
M205 X30 Y30
G0 F3600 X41.127 Y68.508
M205 X20 Y20
G1 F2400 X42.227 Y68.57 E9.29388
G1 X67.068 Y68.57 E10.1201
G1 X68.168 Y68.508 E10.15674
G1 X69.271 Y68.321 E10.19395
G1 X70.346 Y68.011 E10.23116
G1 X71.38 Y67.583 E10.26838
G1 X72.359 Y67.042 E10.30559
G1 X73.271 Y66.395 E10.34278
G1 X74.105 Y65.649 E10.37999
G1 X74.851 Y64.815 E10.41721
G1 X75.498 Y63.903 E10.4544
G1 X76.039 Y62.924 E10.49161
G1 X76.467 Y61.89 E10.52883
G1 X76.777 Y60.816 E10.56601
G1 X76.964 Y59.712 E10.60325
G1 X77.027 Y58.596 E10.64043
G1 X76.964 Y57.479 E10.67764
G1 X76.777 Y56.376 E10.71485
G1 X76.467 Y55.301 E10.75206
G1 X76.039 Y54.267 E10.78928
G1 X75.498 Y53.288 E10.82648
G1 X74.851 Y52.376 E10.86367
G1 X74.105 Y51.542 E10.90089
G1 X73.271 Y50.796 E10.93811
G1 X72.359 Y50.149 E10.9753
G1 X71.38 Y49.609 E11.01248
G1 X70.346 Y49.18 E11.04972
G1 X69.271 Y48.87 E11.08693
G1 X68.168 Y48.683 E11.12414
G1 X67.068 Y48.621 E11.16078
G1 X42.227 Y48.621 E11.987
G1 X41.127 Y48.683 E12.02364
G1 X40.024 Y48.87 E12.06085
G1 X38.95 Y49.18 E12.09803
G1 X37.915 Y49.609 E12.13529
G1 X36.936 Y50.149 E12.17248
G1 X36.024 Y50.796 E12.20967
G1 X35.19 Y51.542 E12.24689
G1 X34.445 Y52.376 E12.28408
G1 X33.797 Y53.288 E12.32129
G1 X33.256 Y54.267 E12.3585
G1 X32.829 Y55.301 E12.3957
G1 X32.519 Y56.376 E12.43292
G1 X32.331 Y57.478 E12.4701
G1 X32.268 Y58.596 E12.50734
G1 X32.331 Y59.713 E12.54455
G1 X32.519 Y60.816 E12.58177
G1 X32.829 Y61.89 E12.61895
G1 X33.256 Y62.924 E12.65616
G1 X33.797 Y63.903 E12.69336
G1 X34.445 Y64.815 E12.73057
G1 X35.19 Y65.649 E12.76776
G1 X36.024 Y66.395 E12.80498
G1 X36.936 Y67.042 E12.84217
G1 X37.915 Y67.583 E12.87937
G1 X38.95 Y68.011 E12.91663
G1 X40.024 Y68.321 E12.9538
G1 X41.127 Y68.508 E12.99101
M205 X30 Y30
G0 F3600 X67.07 Y68.409
G0 X68.149 Y68.348
G0 X69.234 Y68.165
G0 X70.287 Y67.861
G0 X71.316 Y67.435
G0 X72.275 Y66.905
G0 X83.498 Y58.526
M205 X20 Y20
G1 F2400 X84.104 Y58.642 E13.01154
G1 X84.723 Y58.604 E13.03216
G1 X85.31 Y58.412 E13.0527
G1 X85.831 Y58.082 E13.07322
G1 X86.254 Y57.631 E13.09378
G1 X86.551 Y57.089 E13.11434
G1 X86.705 Y56.492 E13.13484
G1 X86.705 Y55.873 E13.15543
G1 X86.551 Y55.276 E13.17594
G1 X86.255 Y54.735 E13.19645
G1 X85.832 Y54.283 E13.21704
G1 X85.31 Y53.952 E13.2376
G1 X84.723 Y53.761 E13.25813
G1 X84.104 Y53.723 E13.27876
G1 X83.498 Y53.839 E13.29928
G1 X82.939 Y54.102 E13.31982
G1 X82.463 Y54.495 E13.34036
G1 X82.1 Y54.995 E13.36091
G1 X81.873 Y55.57 E13.38147
G1 X81.795 Y56.182 E13.40199
G1 X81.872 Y56.795 E13.42254
G1 X82.1 Y57.37 E13.44311
G1 X82.463 Y57.87 E13.46366
G1 X82.939 Y58.263 E13.48419
G1 X83.498 Y58.526 E13.50474
M205 X30 Y30
G0 F3600 X91.01 Y69.634
G0 X91.871 Y70.311
M205 X20 Y20
G1 F2400 X92.433 Y70.384 E13.52359
G1 X92.994 Y70.311 E13.5424
G1 X93.519 Y70.093 E13.56131
G1 X93.969 Y69.748 E13.58017
G1 X94.314 Y69.298 E13.59903
G1 X94.532 Y68.773 E13.61794
G1 X94.6 Y68.251 E13.63544
G1 X94.6 Y56.132 E14.03852
G1 X94.532 Y55.609 E14.05607
G1 X94.314 Y55.084 E14.07497
G1 X93.969 Y54.635 E14.09381
G1 X93.519 Y54.29 E14.11267
G1 X92.994 Y54.072 E14.13157
G1 X92.433 Y53.999 E14.15039
G1 X91.871 Y54.072 E14.16924
G1 X91.346 Y54.29 E14.18814
G1 X90.896 Y54.635 E14.207
G1 X90.55 Y55.085 E14.22588
G1 X90.334 Y55.609 E14.24474
G1 X90.265 Y56.132 E14.26228
G1 X90.265 Y68.251 E14.66536
G1 X90.334 Y68.773 E14.68287
G1 X90.55 Y69.297 E14.70172
G1 X90.896 Y69.748 E14.72063
G1 X91.346 Y70.093 E14.73949
G1 X91.871 Y70.311 E14.7584
M205 X30 Y30
G0 F3600 X99.698 Y72.546
M205 X20 Y20
G1 F2400 X100.304 Y72.662 E14.77892
G1 X100.923 Y72.624 E14.79955
G1 X101.51 Y72.432 E14.82009
G1 X102.031 Y72.102 E14.8406
G1 X102.454 Y71.651 E14.86116
G1 X102.751 Y71.109 E14.88172
G1 X102.905 Y70.512 E14.90223
G1 X102.905 Y69.893 E14.92282
G1 X102.751 Y69.296 E14.94332
G1 X102.455 Y68.755 E14.96383
G1 X102.032 Y68.303 E14.98442
G1 X101.51 Y67.972 E15.00498
G1 X100.923 Y67.781 E15.02551
G1 X100.304 Y67.743 E15.04614
G1 X99.698 Y67.859 E15.06666
G1 X99.139 Y68.122 E15.08721
G1 X98.663 Y68.515 E15.10774
G1 X98.3 Y69.015 E15.12829
G1 X98.073 Y69.59 E15.14885
G1 X97.995 Y70.202 E15.16937
G1 X98.072 Y70.815 E15.18992
G1 X98.3 Y71.39 E15.21049
G1 X98.663 Y71.89 E15.23104
G1 X99.139 Y72.283 E15.25157
G1 X99.698 Y72.546 E15.27212
M205 X30 Y30
G0 F3600 X98.782 Y71.78
G0 X98.23 Y70.774
G0 X99.705 Y58.528
M205 X20 Y20
G1 F2400 X100.312 Y58.643 E15.29267
G1 X100.946 Y58.598 E15.31381
G1 X101.531 Y58.399 E15.33436
G1 X102.039 Y58.077 E15.35436
G1 X102.465 Y57.614 E15.37529
G1 X102.757 Y57.071 E15.3958
G1 X102.905 Y56.471 E15.41635
G1 X102.901 Y55.853 E15.43691
G1 X102.755 Y55.285 E15.45641
G1 X102.476 Y54.771 E15.47586
G1 X102.42 Y54.696 E15.47898
G1 X102.024 Y54.277 E15.49815
G1 X101.491 Y53.945 E15.51904
G1 X100.914 Y53.76 E15.53919
G1 X100.298 Y53.724 E15.55971
G1 X99.708 Y53.835 E15.57968
G1 X99.149 Y54.095 E15.60019
G1 X98.707 Y54.458 E15.61921
G1 X98.642 Y54.524 E15.62229
G1 X98.296 Y55.002 E15.64192
G1 X98.071 Y55.578 E15.66249
G1 X97.995 Y56.19 E15.683
G1 X98.08 Y56.818 E15.70407
G1 X98.311 Y57.387 E15.7245
G1 X98.657 Y57.862 E15.74405
G1 X99.107 Y58.238 E15.76355
G1 X99.186 Y58.286 E15.76662
G1 X99.705 Y58.528 E15.78567
M205 X30 Y30
G0 F3600 X99.829 Y58.144
M205 X20 Y20
;TYPE:WALL-OUTER
G1 F2400 X100.336 Y58.24 E15.80283
G1 X100.866 Y58.203 E15.8205
G1 X101.357 Y58.036 E15.83775
G1 X101.78 Y57.767 E15.85443
G1 X102.137 Y57.38 E15.87194
G1 X102.381 Y56.926 E15.88908
G1 X102.505 Y56.424 E15.90628
G1 X102.501 Y55.905 E15.92354
G1 X102.38 Y55.432 E15.93978
G1 X102.139 Y54.988 E15.95658
G1 X102.114 Y54.955 E15.95796
G1 X101.769 Y54.589 E15.97469
G1 X101.322 Y54.311 E15.9922
G1 X100.84 Y54.156 E16.00904
G1 X100.324 Y54.126 E16.02623
G1 X99.831 Y54.219 E16.04291
G1 X99.364 Y54.436 E16.06004
G1 X98.976 Y54.755 E16.07675
G1 X98.947 Y54.784 E16.07811
G1 X98.65 Y55.195 E16.09498
G1 X98.462 Y55.677 E16.11219
G1 X98.398 Y56.188 E16.12931
G1 X98.47 Y56.714 E16.14697
G1 X98.663 Y57.191 E16.16409
G1 X98.951 Y57.587 E16.18037
G1 X99.339 Y57.911 E16.19719
G1 X99.374 Y57.932 E16.19854
G1 X99.829 Y58.144 E16.21524
M205 X30 Y30
G0 F3600 X100.025 Y58.181
G0 X99.969 Y58.476
G0 X98.156 Y70.203
G0 X98.441 Y71.311
G0 X99.033 Y71.986
G0 X99.767 Y72.456
G0 X99.823 Y72.163
M205 X20 Y20
G1 F2400 X100.33 Y72.26 E16.23241
G1 X100.847 Y72.228 E16.24964
G1 X101.338 Y72.067 E16.26682
G1 X101.774 Y71.791 E16.28398
G1 X102.128 Y71.414 E16.30119
G1 X102.376 Y70.961 E16.31836
G1 X102.505 Y70.461 E16.33554
G1 X102.505 Y69.944 E16.35273
G1 X102.376 Y69.444 E16.36991
G1 X102.128 Y68.991 E16.38708
G1 X101.775 Y68.614 E16.40426
G1 X101.338 Y68.337 E16.42147
G1 X100.847 Y68.177 E16.43865
G1 X100.33 Y68.145 E16.45587
G1 X99.823 Y68.242 E16.47304
G1 X99.355 Y68.462 E16.49024
G1 X98.957 Y68.791 E16.50742
G1 X98.653 Y69.209 E16.52461
G1 X98.463 Y69.69 E16.54181
G1 X98.398 Y70.202 E16.55898
G1 X98.463 Y70.715 E16.57617
G1 X98.653 Y71.196 E16.59338
G1 X98.957 Y71.614 E16.61057
G1 X99.355 Y71.943 E16.62774
G1 X99.823 Y72.163 E16.64494
M205 X30 Y30
G0 F3600 X100.019 Y72.2
G0 X99.963 Y72.494
G0 X91.937 Y70.217
G0 X91.975 Y69.921
M205 X20 Y20
G1 F2400 X92.433 Y69.981 E16.6603
G1 X92.89 Y69.921 E16.67563
G1 X93.317 Y69.744 E16.69101
G1 X93.684 Y69.463 E16.70638
G1 X93.965 Y69.096 E16.72176
G1 X94.142 Y68.669 E16.73713
G1 X94.2 Y68.225 E16.75202
G1 X94.2 Y56.158 E17.15337
G1 X94.142 Y55.713 E17.1683
G1 X93.965 Y55.286 E17.18367
G1 X93.684 Y54.92 E17.19902
G1 X93.317 Y54.639 E17.21439
G1 X92.89 Y54.462 E17.22977
G1 X92.433 Y54.402 E17.2451
G1 X91.975 Y54.462 E17.26046
G1 X91.548 Y54.639 E17.27583
G1 X91.181 Y54.92 E17.29121
G1 X90.9 Y55.286 E17.30655
G1 X90.724 Y55.713 E17.32192
G1 X90.665 Y56.158 E17.33685
G1 X90.665 Y68.225 E17.7382
G1 X90.724 Y68.669 E17.75309
G1 X90.9 Y69.096 E17.76845
G1 X91.181 Y69.463 E17.78383
G1 X91.548 Y69.744 E17.7992
G1 X91.975 Y69.921 E17.81458
M205 X30 Y30
G0 F3600 X92.173 Y69.947
G0 X92.135 Y70.243
G0 X84.769 Y72.427
G0 X83.739 Y72.2
G0 X83.623 Y72.163
M205 X20 Y20
G1 F2400 X84.13 Y72.26 E17.83174
G1 X84.647 Y72.228 E17.84897
G1 X85.138 Y72.067 E17.86616
G1 X85.574 Y71.791 E17.88332
G1 X85.928 Y71.414 E17.90052
G1 X86.176 Y70.961 E17.9177
G1 X86.305 Y70.461 E17.93487
G1 X86.305 Y69.944 E17.95207
G1 X86.176 Y69.444 E17.96924
G1 X85.928 Y68.991 E17.98642
G1 X85.575 Y68.614 E18.0036
G1 X85.138 Y68.337 E18.02081
G1 X84.647 Y68.177 E18.03798
G1 X84.13 Y68.145 E18.05521
G1 X83.623 Y68.242 E18.07238
G1 X83.155 Y68.462 E18.08958
G1 X82.757 Y68.791 E18.10676
G1 X82.453 Y69.209 E18.12395
G1 X82.263 Y69.69 E18.14115
G1 X82.198 Y70.202 E18.15831
G1 X82.263 Y70.715 E18.17551
G1 X82.453 Y71.196 E18.19271
G1 X82.757 Y71.614 E18.2099
G1 X83.155 Y71.943 E18.22708
G1 X83.623 Y72.163 E18.24428
M205 X30 Y30
G0 F3600 X83.819 Y72.2
G0 X83.8 Y72.298
G0 X83.025 Y72.145
G0 X82.241 Y71.311
G0 X81.971 Y70.313
G0 X83.567 Y58.436
G0 X83.623 Y58.143
M205 X20 Y20
G1 F2400 X84.13 Y58.24 E18.26145
G1 X84.647 Y58.208 E18.27868
G1 X85.138 Y58.047 E18.29586
G1 X85.574 Y57.771 E18.31302
G1 X85.928 Y57.394 E18.33022
G1 X86.176 Y56.941 E18.3474
G1 X86.305 Y56.441 E18.36458
G1 X86.305 Y55.924 E18.38177
G1 X86.176 Y55.424 E18.39895
G1 X85.928 Y54.971 E18.41612
G1 X85.575 Y54.594 E18.4333
G1 X85.138 Y54.317 E18.45051
G1 X84.647 Y54.157 E18.46769
G1 X84.13 Y54.125 E18.48491
G1 X83.623 Y54.222 E18.50208
G1 X83.155 Y54.442 E18.51928
G1 X82.757 Y54.771 E18.53646
G1 X82.453 Y55.189 E18.55365
G1 X82.263 Y55.67 E18.57085
G1 X82.198 Y56.182 E18.58802
G1 X82.263 Y56.695 E18.60521
G1 X82.453 Y57.176 E18.62241
G1 X82.757 Y57.594 E18.63961
G1 X83.155 Y57.923 E18.65678
G1 X83.623 Y58.143 E18.67398
M205 X30 Y30
G0 F3600 X83.819 Y58.18
G0 X83.763 Y58.474
G0 X72.275 Y66.905
G0 X71.316 Y67.435
G0 X70.287 Y67.861
G0 X69.234 Y68.165
G0 X68.149 Y68.348
G0 X41.155 Y68.408
G0 X41.172 Y68.11
M205 X20 Y20
G1 F2400 X42.238 Y68.17 E18.70949
G1 X67.057 Y68.17 E19.53497
G1 X68.123 Y68.11 E19.57049
G1 X69.182 Y67.93 E19.60621
G1 X70.214 Y67.633 E19.64193
G1 X71.206 Y67.222 E19.67765
G1 X72.146 Y66.703 E19.71336
G1 X73.021 Y66.082 E19.74905
G1 X73.822 Y65.366 E19.78478
G1 X74.538 Y64.565 E19.82051
G1 X75.159 Y63.69 E19.8562
G1 X75.678 Y62.75 E19.89191
G1 X76.089 Y61.758 E19.92763
G1 X76.386 Y60.727 E19.96331
G1 X76.566 Y59.667 E19.99907
G1 X76.626 Y58.596 E20.03475
G1 X76.566 Y57.524 E20.07046
G1 X76.386 Y56.465 E20.10619
G1 X76.089 Y55.433 E20.14191
G1 X75.678 Y54.441 E20.17762
G1 X75.159 Y53.501 E20.21333
G1 X74.538 Y52.626 E20.24902
G1 X73.822 Y51.825 E20.28475
G1 X73.021 Y51.109 E20.32049
G1 X72.146 Y50.488 E20.35618
G1 X71.206 Y49.97 E20.39187
G1 X70.214 Y49.558 E20.4276
G1 X69.182 Y49.261 E20.46332
G1 X68.123 Y49.081 E20.49904
G1 X67.057 Y49.021 E20.53456
G1 X42.238 Y49.021 E21.36004
G1 X41.172 Y49.081 E21.39555
G1 X40.113 Y49.261 E21.43128
G1 X39.082 Y49.558 E21.46696
G1 X38.089 Y49.97 E21.50272
G1 X37.149 Y50.488 E21.53842
G1 X36.274 Y51.109 E21.57411
G1 X35.473 Y51.825 E21.60984
G1 X34.758 Y52.626 E21.64555
G1 X34.136 Y53.501 E21.68126
G1 X33.617 Y54.441 E21.71697
G1 X33.207 Y55.433 E21.75267
G1 X32.91 Y56.465 E21.78839
G1 X32.729 Y57.523 E21.82409
G1 X32.669 Y58.596 E21.85983
G1 X32.729 Y59.668 E21.89554
G1 X32.91 Y60.727 E21.93128
G1 X33.207 Y61.758 E21.96696
G1 X33.617 Y62.75 E22.00266
G1 X34.136 Y63.69 E22.03838
G1 X34.758 Y64.565 E22.07408
G1 X35.473 Y65.366 E22.10979
G1 X36.274 Y66.082 E22.14553
G1 X37.149 Y66.703 E22.18122
G1 X38.089 Y67.222 E22.21693
G1 X39.082 Y67.633 E22.25267
