;FLAVOR:Marlin
;TIME:2096
;Filament used: 1.99324m
;Layer height: 0.16
;MINX:41.7
;MINY:28.196
;MINZ:0.2
;MAXX:83.3
;MAXY:96.793
;MAXZ:11.08
;Generated with Cura_SteamEngine 4.12.1
M82 ;absolute extrusion mode
M104 S208.0 ;Set Hotend Temperature
M140 S58.0 ;Set Bed Temperature
G28 ;home
G90 ;absolute positioning
G1 X-10 Y-10 F3000 ;Move to corner 
G1 Z0 F1800 ;Go to zero offset
M109 S208.0 ;Wait for Hotend Temperature
M190 S58.0 ;Wait for Bed Temperature
G92 E0 ;Zero set extruder position
G1 E20 F200 ;Feed filament to clear nozzle
G92 E0 ;Zero set extruder position
G92 E0
G92 E0
G1 F1500 E-6.5
;LAYER_COUNT:69
;LAYER:0
M107
;MESH:Pump Bracket_11_v1.stl
G0 F3600 X43.397 Y30.143 Z0.2
;TYPE:WALL-INNER
G1 F1500 E0
G1 F2700 X43.397 Y57.848 E0.92147
G1 X81.603 Y57.848 E2.19221
G1 X81.603 Y30.143 E3.11368
G1 X43.397 Y30.143 E4.38442
G0 F3600 X43.327 Y30.073
G0 X43.369 Y57.876
G0 X68.347 Y60.358
G0 X68.437 Y60.317
G1 F2700 X73.399 Y62.844 E4.56962
G1 X77.502 Y66.947 E4.76262
G1 X80.135 Y72.114 E4.9555
G1 X81.042 Y77.846 E5.14852
G1 X80.135 Y83.578 E5.34154
G1 X77.502 Y88.745 E5.53442
G1 X73.399 Y92.848 E5.72741
G1 X68.232 Y95.481 E5.92029
G1 X62.5 Y96.388 E6.11331
G1 X56.768 Y95.481 E6.30633
G1 X51.601 Y92.848 E6.49921
G1 X47.498 Y88.745 E6.6922
G1 X44.865 Y83.578 E6.88509
G1 X43.958 Y77.846 E7.07811
G1 X44.865 Y72.114 E7.27112
G1 X47.498 Y66.947 E7.46401
G1 X51.601 Y62.844 E7.657
G1 X56.563 Y60.317 E7.8422
G1 X56.344 Y59.396 E7.87369
G1 X42.1 Y59.396 E8.34745
G1 X42.1 Y28.596 E9.37186
G1 X82.9 Y28.596 E10.72887
G1 X82.9 Y59.396 E11.75329
G1 X68.656 Y59.396 E12.22704
G1 X68.437 Y60.317 E12.25853
G0 F3600 X68.347 Y60.358
G0 X73.109 Y63.243
G0 X77.103 Y67.237
G0 X79.667 Y72.268
G0 X80.55 Y77.846
G0 X79.667 Y83.424
G0 X77.103 Y88.455
G0 X73.109 Y92.449
G0 X68.078 Y95.013
G0 X62.5 Y95.896
G0 X56.904 Y95.07
G0 X56.934 Y94.975
G1 F2700 X62.5 Y95.856 E12.44596
G1 X68.066 Y94.975 E12.63339
G1 X73.086 Y92.417 E12.82078
G1 X77.071 Y88.432 E13.00823
G1 X79.629 Y83.412 E13.19562
G1 X80.51 Y77.846 E13.38305
G1 X79.629 Y72.28 E13.57048
G1 X77.071 Y67.26 E13.75787
G1 X73.086 Y63.275 E13.94532
G1 X68.066 Y60.717 E14.13271
G1 X62.5 Y59.836 E14.32014
G1 X56.934 Y60.717 E14.50757
G1 X51.914 Y63.275 E14.69496
G1 X47.929 Y67.26 E14.88241
G1 X45.371 Y72.28 E15.0698
G1 X44.49 Y77.846 E15.25723
G1 X45.371 Y83.412 E15.44466
G1 X47.929 Y88.432 E15.63205
G1 X51.914 Y92.417 E15.81949
G1 X56.934 Y94.975 E16.00689
G0 F3600 X57.059 Y94.59
;TYPE:WALL-OUTER
G1 F2700 X62.5 Y95.451 E16.19011
G1 X67.941 Y94.59 E16.37333
G1 X72.848 Y92.089 E16.55651
G1 X76.743 Y88.194 E16.73972
G1 X79.244 Y83.287 E16.9229
G1 X80.105 Y77.846 E17.10612
G1 X79.244 Y72.405 E17.28934
G1 X76.743 Y67.498 E17.47253
G1 X72.848 Y63.603 E17.65574
G1 X67.941 Y61.102 E17.83892
G1 X62.5 Y60.241 E18.02214
G1 X57.059 Y61.102 E18.20536
G1 X52.152 Y63.603 E18.38854
G1 X48.257 Y67.498 E18.57175
G1 X45.756 Y72.405 E18.75494
G1 X44.895 Y77.846 E18.93816
G1 X45.756 Y83.287 E19.12138
G1 X48.257 Y88.194 E19.30456
G1 X52.152 Y92.089 E19.48777
G1 X57.059 Y94.59 E19.67095
G0 F3600 X57.256 Y94.621
G0 X57.178 Y95.114
G0 X62.5 Y95.896
G0 X68.078 Y95.013
G0 X73.109 Y92.449
G0 X77.103 Y88.455
G0 X79.667 Y83.424
G0 X80.55 Y77.846
G0 X79.667 Y72.268
G0 X77.103 Y67.237
G0 X73.109 Y63.243
G0 X68.672 Y60.548
G0 X68.899 Y60.103
G1 F2700 X73.638 Y62.517 E19.84784
G1 X77.829 Y66.708 E20.04498
G1 X80.52 Y71.989 E20.24211
G1 X81.447 Y77.846 E20.43934
G1 X80.52 Y83.703 E20.63657
G1 X77.829 Y88.984 E20.83371
G1 X73.638 Y93.175 E21.03084
G1 X68.357 Y95.866 E21.22797
G1 X62.5 Y96.793 E21.4252
G1 X56.643 Y95.866 E21.62243
G1 X51.362 Y93.175 E21.81957
G1 X47.171 Y88.984 E22.0167
G1 X44.48 Y83.703 E22.21384
G1 X43.553 Y77.846 E22.41107
G1 X44.48 Y71.989 E22.6083
G1 X47.171 Y66.708 E22.80543
G1 X51.362 Y62.517 E23.00256
G1 X56.101 Y60.103 E23.17945
G1 X56.028 Y59.796 E23.18995
G1 X41.7 Y59.796 E23.6665
G1 X41.7 Y28.196 E24.71752
G1 X83.3 Y28.196 E26.10114
G1 X83.3 Y59.796 E27.15216
G1 X68.972 Y59.796 E27.62871
G1 X68.899 Y60.103 E27.63921
G0 F3600 X69.077 Y60.193
G0 X68.85 Y60.639
G0 X43.369 Y57.876
G0 X43.297 Y30.543
G0 X43.797 Y30.543
G1 F2700 X43.797 Y57.448 E28.53407
G1 X81.203 Y57.448 E29.7782
G1 X81.203 Y30.543 E30.67307
G1 X43.797 Y30.543 E31.91719
G0 F3600 X43.797 Y30.743
G0 X43.297 Y30.743
G0 X82.719 Y28.979
;TYPE:SKIN
G1 F2700 X82.516 Y28.776 E31.92674
G0 F3600 X81.95 Y28.776
G1 F2700 X82.719 Y29.545 E31.96291
G0 F3600 X82.719 Y30.11
G1 F2700 X81.385 Y28.776 E32.02566
G0 F3600 X80.819 Y28.776
G1 F2700 X82.719 Y30.676 E32.11503
G0 F3600 X82.719 Y31.242
G1 F2700 X81.782 Y30.305 E32.15911
G0 F3600 X81.44 Y29.962
G1 F2700 X80.253 Y28.776 E32.21492
G0 F3600 X79.688 Y28.776
G1 F2700 X80.874 Y29.962 E32.2707
G0 F3600 X80.308 Y29.962
G1 F2700 X79.122 Y28.776 E32.32649
G0 F3600 X78.556 Y28.776
G1 F2700 X79.743 Y29.962 E32.3823
G0 F3600 X79.177 Y29.962
G1 F2700 X77.991 Y28.776 E32.43808
G0 F3600 X77.425 Y28.776
G1 F2700 X78.611 Y29.962 E32.49387
G0 F3600 X78.046 Y29.962
G1 F2700 X76.859 Y28.776 E32.54968
G0 F3600 X76.293 Y28.776
G1 F2700 X77.48 Y29.962 E32.60549
G0 F3600 X76.914 Y29.962
G1 F2700 X75.728 Y28.776 E32.66127
G0 F3600 X75.162 Y28.776
G1 F2700 X76.349 Y29.962 E32.71708
G0 F3600 X75.783 Y29.962
G1 F2700 X74.596 Y28.776 E32.77289
G0 F3600 X74.031 Y28.776
G1 F2700 X75.217 Y29.962 E32.82868
G0 F3600 X74.652 Y29.962
G1 F2700 X73.465 Y28.776 E32.88449
G0 F3600 X72.899 Y28.776
G1 F2700 X74.086 Y29.962 E32.9403
G0 F3600 X73.52 Y29.962
G1 F2700 X72.334 Y28.776 E32.99608
G0 F3600 X71.768 Y28.776
G1 F2700 X72.955 Y29.962 E33.05189
G0 F3600 X72.389 Y29.962
G1 F2700 X71.202 Y28.776 E33.1077
G0 F3600 X70.637 Y28.776
G1 F2700 X71.823 Y29.962 E33.16349
G0 F3600 X71.257 Y29.962
G1 F2700 X70.071 Y28.776 E33.21927
G0 F3600 X69.505 Y28.776
G1 F2700 X70.692 Y29.962 E33.27508
G0 F3600 X70.126 Y29.962
G1 F2700 X68.94 Y28.776 E33.33087
G0 F3600 X68.374 Y28.776
G1 F2700 X69.56 Y29.962 E33.38665
G0 F3600 X68.995 Y29.962
G1 F2700 X67.808 Y28.776 E33.44246
G0 F3600 X67.243 Y28.776
G1 F2700 X68.429 Y29.962 E33.49825
G0 F3600 X67.863 Y29.962
G1 F2700 X66.677 Y28.776 E33.55403
G0 F3600 X66.111 Y28.776
G1 F2700 X67.298 Y29.962 E33.60984
G0 F3600 X66.732 Y29.962
G1 F2700 X65.545 Y28.776 E33.66565
G0 F3600 X64.98 Y28.776
G1 F2700 X66.166 Y29.962 E33.72144
G0 F3600 X65.601 Y29.962
G1 F2700 X64.414 Y28.776 E33.77725
G0 F3600 X63.848 Y28.776
G1 F2700 X65.035 Y29.962 E33.83306
G0 F3600 X64.469 Y29.962
G1 F2700 X63.283 Y28.776 E33.88884
G0 F3600 X62.717 Y28.776
G1 F2700 X63.904 Y29.962 E33.94465
G0 F3600 X63.338 Y29.962
G1 F2700 X62.151 Y28.776 E34.00046
G0 F3600 X61.586 Y28.776
G1 F2700 X62.772 Y29.962 E34.05625
G0 F3600 X62.207 Y29.962
G1 F2700 X61.02 Y28.776 E34.11206
G0 F3600 X60.454 Y28.776
G1 F2700 X61.641 Y29.962 E34.16787
G0 F3600 X61.075 Y29.962
G1 F2700 X59.889 Y28.776 E34.22365
G0 F3600 X59.323 Y28.776
G1 F2700 X60.509 Y29.962 E34.27944
G0 F3600 X59.944 Y29.962
G1 F2700 X58.757 Y28.776 E34.33525
G0 F3600 X58.192 Y28.776
G1 F2700 X59.378 Y29.962 E34.39103
G0 F3600 X58.812 Y29.962
G1 F2700 X57.626 Y28.776 E34.44682
G0 F3600 X57.06 Y28.776
G1 F2700 X58.247 Y29.962 E34.50263
G0 F3600 X57.681 Y29.962
G1 F2700 X56.495 Y28.776 E34.55841
G0 F3600 X55.929 Y28.776
G1 F2700 X57.115 Y29.962 E34.6142
G0 F3600 X56.55 Y29.962
G1 F2700 X55.363 Y28.776 E34.67001
G0 F3600 X54.797 Y28.776
G1 F2700 X55.984 Y29.962 E34.72582
G0 F3600 X55.418 Y29.962
G1 F2700 X54.232 Y28.776 E34.7816
G0 F3600 X53.666 Y28.776
G1 F2700 X54.853 Y29.962 E34.83741
G0 F3600 X54.287 Y29.962
G1 F2700 X53.1 Y28.776 E34.89322
G0 F3600 X52.535 Y28.776
G1 F2700 X53.721 Y29.962 E34.94901
G0 F3600 X53.156 Y29.962
G1 F2700 X51.969 Y28.776 E35.00482
G0 F3600 X51.403 Y28.776
G1 F2700 X52.59 Y29.962 E35.06063
G0 F3600 X52.024 Y29.962
G1 F2700 X50.838 Y28.776 E35.11641
G0 F3600 X50.272 Y28.776
G1 F2700 X51.458 Y29.962 E35.1722
G0 F3600 X50.893 Y29.962
G1 F2700 X49.706 Y28.776 E35.22801
G0 F3600 X49.141 Y28.776
G1 F2700 X50.327 Y29.962 E35.28379
G0 F3600 X49.761 Y29.962
G1 F2700 X48.575 Y28.776 E35.33958
G0 F3600 X48.009 Y28.776
G1 F2700 X49.196 Y29.962 E35.39539
G0 F3600 X48.63 Y29.962
G1 F2700 X47.444 Y28.776 E35.45117
G0 F3600 X46.878 Y28.776
G1 F2700 X48.064 Y29.962 E35.50696
G0 F3600 X47.499 Y29.962
G1 F2700 X46.312 Y28.776 E35.56277
G0 F3600 X45.746 Y28.776
G1 F2700 X46.933 Y29.962 E35.61858
G0 F3600 X46.367 Y29.962
G1 F2700 X45.181 Y28.776 E35.67436
G0 F3600 X44.615 Y28.776
G1 F2700 X45.802 Y29.962 E35.73017
G0 F3600 X45.236 Y29.962
G1 F2700 X44.049 Y28.776 E35.78598
G0 F3600 X43.484 Y28.776
G1 F2700 X44.67 Y29.962 E35.84177
G0 F3600 X44.105 Y29.962
G1 F2700 X42.918 Y28.776 E35.89758
G0 F3600 X42.352 Y28.776
G1 F2700 X43.539 Y29.962 E35.95339
G0 F3600 X43.216 Y30.206
G1 F2700 X42.279 Y29.268 E35.99748
G0 F3600 X42.279 Y29.834
G1 F2700 X43.216 Y30.771 E36.04156
G0 F3600 X43.216 Y31.337
G1 F2700 X42.279 Y30.399 E36.08566
G0 F3600 X42.279 Y30.965
G1 F2700 X43.216 Y31.903 E36.12975
G0 F3600 X43.216 Y32.468
G1 F2700 X42.279 Y31.531 E36.17383
G0 F3600 X42.279 Y32.096
G1 F2700 X43.216 Y33.034 E36.21792
G0 F3600 X43.216 Y33.6
G1 F2700 X42.279 Y32.662 E36.26202
G0 F3600 X42.279 Y33.228
G1 F2700 X43.216 Y34.165 E36.30609
G0 F3600 X43.216 Y34.731
G1 F2700 X42.279 Y33.794 E36.35017
G0 F3600 X42.279 Y34.359
G1 F2700 X43.216 Y35.297 E36.39426
G0 F3600 X43.216 Y35.863
G1 F2700 X42.279 Y34.925 E36.43836
G0 F3600 X42.279 Y35.491
G1 F2700 X43.216 Y36.428 E36.48244
G0 F3600 X43.216 Y36.994
G1 F2700 X42.279 Y36.056 E36.52653
G0 F3600 X42.279 Y36.622
G1 F2700 X43.216 Y37.56 E36.57063
G0 F3600 X43.216 Y38.125
G1 F2700 X42.279 Y37.188 E36.6147
G0 F3600 X42.279 Y37.753
G1 F2700 X43.216 Y38.691 E36.6588
G0 F3600 X43.216 Y39.257
G1 F2700 X42.279 Y38.319 E36.7029
G0 F3600 X42.279 Y38.885
G1 F2700 X43.216 Y39.822 E36.74697
G0 F3600 X43.216 Y40.388
G1 F2700 X42.279 Y39.45 E36.79107
G0 F3600 X42.279 Y40.016
G1 F2700 X43.216 Y40.954 E36.83517
G0 F3600 X43.216 Y41.519
G1 F2700 X42.279 Y40.582 E36.87924
G0 F3600 X42.279 Y41.147
G1 F2700 X43.216 Y42.085 E36.92334
G0 F3600 X43.216 Y42.651
G1 F2700 X42.279 Y41.713 E36.96743
G0 F3600 X42.279 Y42.279
G1 F2700 X43.216 Y43.216 E37.01151
G0 F3600 X43.216 Y43.782
G1 F2700 X42.279 Y42.845 E37.05558
G0 F3600 X42.279 Y43.41
G1 F2700 X43.217 Y44.349 E37.09972
G0 F3600 X43.217 Y44.914
G1 F2700 X42.279 Y43.976 E37.14385
G0 F3600 X42.279 Y44.542
G1 F2700 X43.217 Y45.48 E37.18797
G0 F3600 X43.217 Y46.046
G1 F2700 X42.279 Y45.107 E37.23211
G0 F3600 X42.279 Y45.673
G1 F2700 X43.217 Y46.611 E37.27623
G0 F3600 X43.217 Y47.177
G1 F2700 X42.279 Y46.239 E37.32035
G0 F3600 X42.279 Y46.804
G1 F2700 X43.217 Y47.743 E37.3645
G0 F3600 X43.217 Y48.308
G1 F2700 X42.279 Y47.37 E37.40862
G0 F3600 X42.279 Y47.936
G1 F2700 X43.217 Y48.874 E37.45274
G0 F3600 X43.217 Y49.44
G1 F2700 X42.279 Y48.501 E37.49688
G0 F3600 X42.279 Y49.067
G1 F2700 X43.217 Y50.005 E37.541
G0 F3600 X43.217 Y50.571
G1 F2700 X42.279 Y49.633 E37.58512
G0 F3600 X42.279 Y50.198
G1 F2700 X43.217 Y51.137 E37.62927
G0 F3600 X43.217 Y51.702
G1 F2700 X42.279 Y50.764 E37.67339
G0 F3600 X42.279 Y51.33
G1 F2700 X43.217 Y52.268 E37.71751
G0 F3600 X43.217 Y52.834
G1 F2700 X42.279 Y51.895 E37.76165
G0 F3600 X42.279 Y52.461
G1 F2700 X43.217 Y53.399 E37.80577
G0 F3600 X43.217 Y53.965
G1 F2700 X42.279 Y53.027 E37.84989
G0 F3600 X42.279 Y53.593
G1 F2700 X43.217 Y54.531 E37.89401
G0 F3600 X43.217 Y55.097
G1 F2700 X42.279 Y54.158 E37.93816
G0 F3600 X42.279 Y54.724
G1 F2700 X43.217 Y55.662 E37.98228
G0 F3600 X43.217 Y56.228
G1 F2700 X42.279 Y55.29 E38.0264
G0 F3600 X42.279 Y55.855
G1 F2700 X43.217 Y56.794 E38.07054
G0 F3600 X43.217 Y57.359
G1 F2700 X42.279 Y56.421 E38.11466
G0 F3600 X42.279 Y56.987
G1 F2700 X43.217 Y57.925 E38.15878
G0 F3600 X43.32 Y58.028
G1 F2700 X44.507 Y59.215 E38.21462
G0 F3600 X43.941 Y59.215
G1 F2700 X42.279 Y57.552 E38.29282
G0 F3600 X42.279 Y58.118
G1 F2700 X43.376 Y59.215 E38.34442
G0 F3600 X42.81 Y59.215
G1 F2700 X42.279 Y58.684 E38.36939
G0 F3600 X43.885 Y58.028
G1 F2700 X45.073 Y59.215 E38.42525
G0 F3600 X45.638 Y59.215
G1 F2700 X44.451 Y58.028 E38.48108
G0 F3600 X45.017 Y58.028
G1 F2700 X46.204 Y59.215 E38.53691
G0 F3600 X46.77 Y59.215
G1 F2700 X45.582 Y58.028 E38.59277
G0 F3600 X46.148 Y58.028
G1 F2700 X47.335 Y59.215 E38.6486
G0 F3600 X47.901 Y59.215
G1 F2700 X46.714 Y58.028 E38.70444
G0 F3600 X47.279 Y58.028
G1 F2700 X48.467 Y59.215 E38.76029
G0 F3600 X49.032 Y59.215
G1 F2700 X47.845 Y58.028 E38.81613
G0 F3600 X48.411 Y58.028
G1 F2700 X49.598 Y59.215 E38.87196
G0 F3600 X50.164 Y59.215
G1 F2700 X48.977 Y58.028 E38.92779
G0 F3600 X49.542 Y58.028
G1 F2700 X50.729 Y59.215 E38.98362
G0 F3600 X51.295 Y59.215
G1 F2700 X50.108 Y58.028 E39.03946
G0 F3600 X50.674 Y58.028
G1 F2700 X51.861 Y59.215 E39.09529
G0 F3600 X52.427 Y59.215
G1 F2700 X51.239 Y58.028 E39.15115
G0 F3600 X51.805 Y58.028
G1 F2700 X52.992 Y59.215 E39.20698
G0 F3600 X53.558 Y59.215
G1 F2700 X52.371 Y58.028 E39.26281
G0 F3600 X52.936 Y58.028
G1 F2700 X54.124 Y59.215 E39.31867
G0 F3600 X54.689 Y59.215
G1 F2700 X53.502 Y58.028 E39.3745
G0 F3600 X54.068 Y58.028
G1 F2700 X55.255 Y59.215 E39.43033
G0 F3600 X55.821 Y59.215
G1 F2700 X54.633 Y58.028 E39.48619
G0 F3600 X55.199 Y58.028
G1 F2700 X56.386 Y59.215 E39.54202
G0 F3600 X56.518 Y59.346
G1 F2700 X57.6 Y60.428 E39.59292
G0 F3600 X58.088 Y60.35
G1 F2700 X55.765 Y58.028 E39.70216
G0 F3600 X56.33 Y58.028
G1 F2700 X58.576 Y60.273 E39.80778
G0 F3600 X59.065 Y60.196
G1 F2700 X56.896 Y58.028 E39.90978
G0 F3600 X57.462 Y58.028
G1 F2700 X59.553 Y60.119 E40.00814
G0 F3600 X60.041 Y60.041
G1 F2700 X58.028 Y58.028 E40.10282
G0 F3600 X58.593 Y58.028
G1 F2700 X60.53 Y59.964 E40.19391
G0 F3600 X61.019 Y59.887
G1 F2700 X59.159 Y58.028 E40.28137
G0 F3600 X59.725 Y58.028
G1 F2700 X61.506 Y59.809 E40.36515
G0 F3600 X61.995 Y59.732
G1 F2700 X60.29 Y58.028 E40.44532
G0 F3600 X60.856 Y58.028
G1 F2700 X62.484 Y59.655 E40.52187
G0 F3600 X63.15 Y59.756
G1 F2700 X61.422 Y58.028 E40.60315
G0 F3600 X61.987 Y58.028
G1 F2700 X63.822 Y59.862 E40.68944
G0 F3600 X64.494 Y59.969
G1 F2700 X62.553 Y58.028 E40.78074
G0 F3600 X63.119 Y58.028
G1 F2700 X65.166 Y60.075 E40.87703
G0 F3600 X65.838 Y60.181
G1 F2700 X63.684 Y58.028 E40.97832
G0 F3600 X64.25 Y58.028
G1 F2700 X66.511 Y60.288 E41.08465
G0 F3600 X67.182 Y60.394
G1 F2700 X64.816 Y58.028 E41.19594
G0 F3600 X65.381 Y58.028
G1 F2700 X67.855 Y60.501 E41.31228
G0 F3600 X68.248 Y60.328
G1 F2700 X65.947 Y58.028 E41.42049
G0 F3600 X66.513 Y58.028
G1 F2700 X68.356 Y59.871 E41.50718
G0 F3600 X68.465 Y59.414
G1 F2700 X67.078 Y58.028 E41.5724
G0 F3600 X67.644 Y58.028
G1 F2700 X68.832 Y59.215 E41.62825
G0 F3600 X69.398 Y59.215
G1 F2700 X68.21 Y58.028 E41.68411
G0 F3600 X68.776 Y58.028
G1 F2700 X69.963 Y59.215 E41.73994
G0 F3600 X70.529 Y59.215
G1 F2700 X69.341 Y58.028 E41.7958
G0 F3600 X69.907 Y58.028
G1 F2700 X71.095 Y59.215 E41.85165
G0 F3600 X71.661 Y59.215
G1 F2700 X70.473 Y58.028 E41.90751
G0 F3600 X71.038 Y58.028
G1 F2700 X72.226 Y59.215 E41.96337
G0 F3600 X72.792 Y59.215
G1 F2700 X71.604 Y58.028 E42.01922
G0 F3600 X72.17 Y58.028
G1 F2700 X73.358 Y59.215 E42.07508
G0 F3600 X73.923 Y59.215
G1 F2700 X72.735 Y58.028 E42.13094
G0 F3600 X73.301 Y58.028
G1 F2700 X74.489 Y59.215 E42.18679
G0 F3600 X75.055 Y59.215
G1 F2700 X73.867 Y58.028 E42.24265
G0 F3600 X74.432 Y58.028
G1 F2700 X75.62 Y59.215 E42.29851
G0 F3600 X76.186 Y59.215
G1 F2700 X74.998 Y58.028 E42.35436
G0 F3600 X75.564 Y58.028
G1 F2700 X76.752 Y59.215 E42.41022
G0 F3600 X77.317 Y59.215
G1 F2700 X76.129 Y58.028 E42.46607
G0 F3600 X76.695 Y58.028
G1 F2700 X77.883 Y59.215 E42.52193
G0 F3600 X78.449 Y59.215
G1 F2700 X77.261 Y58.028 E42.57779
G0 F3600 X77.827 Y58.028
G1 F2700 X79.014 Y59.215 E42.63362
G0 F3600 X79.58 Y59.215
G1 F2700 X78.392 Y58.028 E42.68948
G0 F3600 X78.958 Y58.028
G1 F2700 X80.146 Y59.215 E42.74533
G0 F3600 X80.711 Y59.215
G1 F2700 X79.524 Y58.028 E42.80117
G0 F3600 X80.089 Y58.028
G1 F2700 X81.277 Y59.215 E42.85702
G0 F3600 X81.843 Y59.215
G1 F2700 X80.655 Y58.028 E42.91288
G0 F3600 X81.221 Y58.028
G1 F2700 X82.409 Y59.215 E42.96873
G0 F3600 X82.719 Y58.96
G1 F2700 X81.782 Y58.023 E43.01281
G0 F3600 X81.782 Y57.458
