;FLAVOR:Marlin
;TIME:2088
;Filament used: 1.67763m
;Layer height: 0.16
;MINX:20.193
;MINY:39.691
;MINZ:0.2
;MAXX:104.807
;MAXY:85.292
;MAXZ:3.24
;Generated with Cura_SteamEngine 4.12.1
M82 ;absolute extrusion mode
M104 S208.0 ;Set Hotend Temperature
M140 S58.0 ;Set Bed Temperature
G28 ;home
G90 ;absolute positioning
G1 X-10 Y-10 F3000 ;Move to corner 
G1 Z0 F1800 ;Go to zero offset
M109 S208.0 ;Wait for Hotend Temperature
M190 S58.0 ;Wait for Bed Temperature
G92 E0 ;Zero set extruder position
G1 E20 F200 ;Feed filament to clear nozzle
G92 E0 ;Zero set extruder position
G92 E0
G92 E0
G1 F1500 E-6.5
;LAYER_COUNT:20
;LAYER:0
M107
M205 X30 Y30
G0 F3600 X21.667 Y40.839 Z0.2
M205 X20 Y20
;TYPE:SUPPORT
G1 F1500 E0
G1 F2400 X21.846 Y41.2 E0.0134
G1 X22.197 Y41.6 E0.0311
G1 X22.604 Y42 E0.05008
G1 X22.92 Y42.4 E0.06704
G1 X23.114 Y42.8 E0.08182
G1 X23.21 Y43.2 E0.0955
G1 X23.227 Y43.6 E0.10882
G1 X23.153 Y44 E0.12235
G1 X22.955 Y44.4 E0.1372
G1 X22.604 Y44.8 E0.1549
G1 X22.197 Y45.2 E0.17388
G1 X21.881 Y45.6 E0.19083
G1 X21.687 Y46 E0.20562
G1 X21.591 Y46.4 E0.2193
G1 X21.574 Y46.8 E0.23261
G1 X21.648 Y47.2 E0.24614
G1 X21.846 Y47.6 E0.26099
G1 X22.197 Y48 E0.27869
G1 X22.604 Y48.4 E0.29767
G1 X22.92 Y48.8 E0.31462
G1 X23.114 Y49.2 E0.32941
G1 X23.21 Y49.6 E0.34309
G1 X23.227 Y50 E0.35641
G1 X23.153 Y50.4 E0.36994
G1 X22.955 Y50.8 E0.38478
G1 X22.604 Y51.2 E0.40248
G1 X22.197 Y51.6 E0.42146
G1 X21.881 Y52 E0.43842
G1 X21.687 Y52.4 E0.4532
G1 X21.591 Y52.8 E0.46689
G1 X21.574 Y53.2 E0.4802
G1 X21.648 Y53.6 E0.49373
G1 X21.846 Y54 E0.50858
G1 X22.197 Y54.4 E0.52628
G1 X22.604 Y54.8 E0.54526
G1 X22.696 Y54.917 E0.55021
G1 X26.213 Y54.917 E0.66718
G1 X26.155 Y54.8 E0.67153
G1 X25.804 Y54.4 E0.68923
G1 X25.397 Y54 E0.70821
G1 X25.081 Y53.6 E0.72516
G1 X24.887 Y53.2 E0.73995
G1 X24.791 Y52.8 E0.75363
G1 X24.774 Y52.4 E0.76694
G1 X24.848 Y52 E0.78047
G1 X25.046 Y51.6 E0.79532
G1 X25.397 Y51.2 E0.81302
G1 X25.804 Y50.8 E0.832
G1 X26.12 Y50.4 E0.84895
G1 X26.314 Y50 E0.86374
G1 X26.41 Y49.6 E0.87742
G1 X26.427 Y49.2 E0.89074
G1 X26.353 Y48.8 E0.90427
G1 X26.155 Y48.4 E0.91911
G1 X25.804 Y48 E0.93681
G1 X25.397 Y47.6 E0.95579
G1 X25.081 Y47.2 E0.97275
G1 X24.887 Y46.8 E0.98753
G1 X24.791 Y46.4 E1.00122
G1 X24.774 Y46 E1.01453
G1 X24.848 Y45.6 E1.02806
G1 X25.046 Y45.2 E1.04291
G1 X25.397 Y44.8 E1.06061
G1 X25.804 Y44.4 E1.07959
G1 X26.12 Y44 E1.09654
G1 X26.314 Y43.6 E1.11133
G1 X26.41 Y43.2 E1.12501
G1 X26.427 Y42.8 E1.13832
G1 X26.353 Y42.4 E1.15185
G1 X26.155 Y42 E1.1667
G1 X25.804 Y41.6 E1.1844
G1 X25.397 Y41.2 E1.20338
G1 X25.081 Y40.8 E1.22033
G1 X24.887 Y40.4 E1.23512
G1 X24.791 Y40 E1.2488
G1 X24.781 Y39.757 E1.25689
G1 X25.194 Y39.848 E1.27096
G1 X25.619 Y40.018 E1.28618
G1 X26.099 Y40.292 E1.30456
G1 X26.505 Y40.597 E1.32145
G1 X26.548 Y40.635 E1.32336
G1 X26.96 Y41.021 E1.34214
G1 X27.334 Y41.462 E1.36137
G1 X27.712 Y42.008 E1.38346
G1 X28.039 Y42.577 E1.40529
G1 X28.316 Y43.168 E1.427
G1 X28.582 Y43.854 E1.45147
G1 X28.803 Y44.599 E1.47731
G1 X28.877 Y44.924 E1.4884
G1 X28.597 Y45.2 E1.50148
G1 X28.281 Y45.6 E1.51843
G1 X28.087 Y46 E1.53322
G1 X27.991 Y46.4 E1.5469
G1 X27.974 Y46.8 E1.56022
G1 X28.048 Y47.2 E1.57375
G1 X28.246 Y47.6 E1.58859
G1 X28.597 Y48 E1.60629
G1 X29.004 Y48.4 E1.62527
G1 X29.191 Y48.637 E1.63531
G1 X29.191 Y50.987 E1.71347
G1 X29.004 Y51.2 E1.7229
G1 X28.597 Y51.6 E1.74188
G1 X28.281 Y52 E1.75883
G1 X28.087 Y52.4 E1.77362
G1 X27.991 Y52.8 E1.7873
G1 X27.974 Y53.2 E1.80062
G1 X28.048 Y53.6 E1.81415
G1 X28.246 Y54 E1.82899
G1 X28.266 Y54.022 E1.82998
M205 X30 Y30
G1 F1500 E-4.67002
G0 F3600 X35.697 Y46.996
G0 X36.476 Y46.677
G0 X79.454 Y45.657
M205 X20 Y20
G1 F1500 E1.82998
G1 F2400 X79.481 Y45.6 E1.83208
G1 X79.797 Y45.2 E1.84903
G1 X80.204 Y44.8 E1.86801
G1 X80.555 Y44.4 E1.88571
G1 X80.753 Y44 E1.90056
G1 X80.827 Y43.6 E1.91409
G1 X80.81 Y43.2 E1.9274
G1 X80.714 Y42.8 E1.94109
G1 X80.528 Y42.416 E1.95528
G1 X80.759 Y42.014 E1.9707
G1 X81.149 Y41.459 E1.99326
G1 X81.53 Y41.01 E2.01285
G1 X81.953 Y40.611 E2.03219
G1 X82.395 Y40.281 E2.05053
G1 X82.451 Y40.249 E2.05268
G1 X82.487 Y40.4 E2.05784
G1 X82.681 Y40.8 E2.07263
G1 X82.997 Y41.2 E2.08958
G1 X83.404 Y41.6 E2.10856
G1 X83.755 Y42 E2.12626
G1 X83.953 Y42.4 E2.14111
G1 X84.027 Y42.8 E2.15464
G1 X84.01 Y43.2 E2.16795
G1 X83.914 Y43.6 E2.18163
G1 X83.72 Y44 E2.19642
G1 X83.404 Y44.4 E2.21338
G1 X82.997 Y44.8 E2.23236
G1 X82.646 Y45.2 E2.25006
G1 X82.448 Y45.6 E2.2649
G1 X82.374 Y46 E2.27843
G1 X82.39 Y46.388 E2.29135
G1 X85.594 Y46.388 E2.39791
G1 X85.687 Y46 E2.41118
G1 X85.881 Y45.6 E2.42597
G1 X86.197 Y45.2 E2.44292
G1 X86.604 Y44.8 E2.4619
G1 X86.955 Y44.4 E2.4796
G1 X87.153 Y44 E2.49445
G1 X87.227 Y43.6 E2.50798
G1 X87.21 Y43.2 E2.52129
G1 X87.114 Y42.8 E2.53498
G1 X86.92 Y42.4 E2.54976
G1 X86.604 Y42 E2.56672
G1 X86.197 Y41.6 E2.5857
G1 X85.846 Y41.2 E2.6034
G1 X85.648 Y40.8 E2.61824
G1 X85.574 Y40.4 E2.63177
G1 X85.591 Y40 E2.64509
G1 X85.593 Y39.991 E2.64539
G1 X85.692 Y40.03 E2.64893
G1 X86.136 Y40.281 E2.6659
G1 X86.538 Y40.58 E2.68256
G1 X86.59 Y40.626 E2.68487
G1 X86.976 Y40.989 E2.70249
G1 X87.392 Y41.484 E2.724
G1 X87.752 Y41.998 E2.74487
G1 X88.101 Y42.61 E2.7683
G1 X88.361 Y43.158 E2.78848
G1 X88.387 Y43.218 E2.79065
G1 X88.627 Y43.854 E2.81326
G1 X88.861 Y44.633 E2.84031
G1 X89.008 Y45.277 E2.86228
G1 X88.848 Y45.6 E2.87427
G1 X88.774 Y46 E2.8878
G1 X88.791 Y46.4 E2.90112
G1 X88.818 Y46.512 E2.90495
M205 X30 Y30
G1 F1500 E-3.59505
;MESH:bracket-right-v3.stl
G0 F3600 X88.526 Y47.799
G0 X86.551 Y60.358
G0 X86.132 Y61.422
G0 X85.247 Y62.156
G0 X83.505 Y62.417
M205 X20 Y20
;TYPE:WALL-INNER
G1 F1500 E2.90495
G1 F2400 X84.112 Y62.531 E2.92549
G1 X84.73 Y62.493 E2.94609
G1 X85.317 Y62.302 E2.96662
G1 X85.839 Y61.971 E2.98718
G1 X86.261 Y61.521 E3.00769
G1 X86.56 Y60.979 E3.02828
G1 X86.712 Y60.38 E3.04884
G1 X86.712 Y59.764 E3.06932
G1 X86.56 Y59.165 E3.08988
G1 X86.261 Y58.623 E3.11047
G1 X85.839 Y58.173 E3.13099
G1 X85.317 Y57.842 E3.15154
G1 X84.73 Y57.651 E3.17208
G1 X84.112 Y57.613 E3.19267
G1 X83.506 Y57.727 E3.21318
G1 X82.946 Y57.991 E3.23377
G1 X82.47 Y58.385 E3.25432
G1 X82.107 Y58.885 E3.27487
G1 X81.881 Y59.459 E3.29539
G1 X81.802 Y60.072 E3.31595
G1 X81.881 Y60.684 E3.33647
G1 X82.106 Y61.259 E3.35701
G1 X82.47 Y61.759 E3.37758
G1 X82.946 Y62.152 E3.39811
G1 X83.505 Y62.417 E3.41868
M205 X30 Y30
G0 F3600 X91.017 Y73.524
G0 X91.878 Y74.2
M205 X20 Y20
G1 F2400 X92.44 Y74.275 E3.43754
G1 X93.001 Y74.2 E3.45637
G1 X93.525 Y73.984 E3.47522
G1 X93.976 Y73.638 E3.49412
G1 X94.321 Y73.188 E3.51298
G1 X94.539 Y72.663 E3.53189
G1 X94.607 Y72.14 E3.54943
G1 X94.607 Y60.021 E3.95251
G1 X94.539 Y59.499 E3.97002
G1 X94.321 Y58.974 E3.98893
G1 X93.976 Y58.524 E4.00779
G1 X93.526 Y58.179 E4.02665
G1 X93.001 Y57.961 E4.04555
G1 X92.44 Y57.888 E4.06437
G1 X91.878 Y57.961 E4.08322
G1 X91.353 Y58.179 E4.10213
G1 X90.903 Y58.524 E4.12099
G1 X90.557 Y58.975 E4.13989
G1 X90.341 Y59.499 E4.15874
G1 X90.272 Y60.021 E4.17626
G1 X90.272 Y72.14 E4.57934
G1 X90.341 Y72.663 E4.59688
G1 X90.557 Y73.187 E4.61573
G1 X90.903 Y73.638 E4.63464
G1 X91.354 Y73.984 E4.65354
G1 X91.878 Y74.2 E4.6724
M205 X30 Y30
G0 F3600 X99.705 Y76.437
M205 X20 Y20
G1 F2400 X100.312 Y76.551 E4.69294
G1 X100.93 Y76.513 E4.71353
G1 X101.517 Y76.322 E4.73406
G1 X102.039 Y75.991 E4.75462
G1 X102.461 Y75.541 E4.77514
G1 X102.76 Y74.999 E4.79573
G1 X102.912 Y74.4 E4.81628
G1 X102.912 Y73.784 E4.83677
G1 X102.76 Y73.185 E4.85732
G1 X102.461 Y72.643 E4.87791
G1 X102.039 Y72.193 E4.89843
G1 X101.517 Y71.862 E4.91899
G1 X100.93 Y71.671 E4.93952
G1 X100.312 Y71.633 E4.96011
G1 X99.706 Y71.747 E4.98062
G1 X99.146 Y72.011 E5.00121
G1 X98.67 Y72.405 E5.02177
G1 X98.307 Y72.905 E5.04232
G1 X98.081 Y73.479 E5.06283
G1 X98.002 Y74.092 E5.08339
G1 X98.081 Y74.704 E5.10392
G1 X98.306 Y75.279 E5.12445
G1 X98.67 Y75.779 E5.14502
G1 X99.146 Y76.172 E5.16555
G1 X99.705 Y76.437 E5.18613
M205 X30 Y30
G0 F3600 X98.786 Y75.667
G0 X98.239 Y74.666
G0 X99.712 Y62.418
M205 X20 Y20
G1 F2400 X100.32 Y62.532 E5.2067
G1 X100.952 Y62.487 E5.22778
G1 X101.538 Y62.289 E5.24835
G1 X102.046 Y61.965 E5.26839
G1 X102.471 Y61.503 E5.28927
G1 X102.765 Y60.96 E5.30981
G1 X102.912 Y60.359 E5.33039
G1 X102.908 Y59.741 E5.35094
G1 X102.747 Y59.141 E5.3716
G1 X102.445 Y58.606 E5.39204
G1 X102.031 Y58.167 E5.41211
G1 X101.498 Y57.835 E5.43299
G1 X100.921 Y57.65 E5.45314
G1 X100.306 Y57.614 E5.47363
G1 X99.715 Y57.724 E5.49363
G1 X99.195 Y57.967 E5.51272
G1 X99.115 Y58.015 E5.51582
G1 X98.665 Y58.392 E5.53535
G1 X98.303 Y58.893 E5.55591
G1 X98.079 Y59.466 E5.57637
G1 X98.001 Y60.08 E5.59695
G1 X98.089 Y60.707 E5.61801
G1 X98.317 Y61.275 E5.63837
G1 X98.664 Y61.751 E5.65796
G1 X99.114 Y62.127 E5.67747
G1 X99.193 Y62.175 E5.68054
G1 X99.712 Y62.418 E5.6996
M205 X30 Y30
G0 F3600 X93.445 Y58.319
G0 X92.44 Y58.05
G0 X91.434 Y58.319
G0 X72.278 Y70.798
G0 X71.323 Y71.326
G0 X70.294 Y71.75
G0 X69.242 Y72.054
G0 X68.156 Y72.237
G0 X41.134 Y72.397
M205 X20 Y20
G1 F2400 X42.234 Y72.459 E5.73624
G1 X67.076 Y72.459 E6.56249
G1 X68.175 Y72.397 E6.5991
G1 X69.279 Y72.21 E6.63635
G1 X70.353 Y71.9 E6.67353
G1 X71.387 Y71.473 E6.71073
G1 X72.366 Y70.932 E6.74794
G1 X73.278 Y70.284 E6.78515
G1 X74.112 Y69.539 E6.82234
G1 X74.858 Y68.705 E6.85956
G1 X75.505 Y67.793 E6.89675
G1 X76.046 Y66.813 E6.93398
G1 X76.474 Y65.779 E6.9712
G1 X76.784 Y64.705 E7.00838
G1 X76.971 Y63.602 E7.04559
G1 X77.034 Y62.485 E7.0828
G1 X76.971 Y61.368 E7.12001
G1 X76.784 Y60.265 E7.15722
G1 X76.474 Y59.191 E7.1944
G1 X76.046 Y58.157 E7.23162
G1 X75.505 Y57.178 E7.26883
G1 X74.858 Y56.265 E7.30604
G1 X74.112 Y55.431 E7.34326
G1 X73.278 Y54.686 E7.38045
G1 X72.366 Y54.038 E7.41767
G1 X71.387 Y53.497 E7.45487
G1 X70.353 Y53.07 E7.49208
G1 X69.279 Y52.76 E7.52926
G1 X68.175 Y52.573 E7.5665
G1 X67.076 Y52.511 E7.60311
G1 X42.234 Y52.511 E8.42936
G1 X41.134 Y52.573 E8.466
G1 X40.031 Y52.76 E8.50321
G1 X38.957 Y53.07 E8.54039
G1 X37.923 Y53.497 E8.5776
G1 X36.944 Y54.038 E8.6148
G1 X36.031 Y54.686 E8.65204
G1 X35.197 Y55.431 E8.68923
G1 X34.452 Y56.265 E8.72643
G1 X33.804 Y57.178 E8.76367
G1 X33.263 Y58.157 E8.80087
G1 X32.836 Y59.191 E8.83808
G1 X32.526 Y60.265 E8.87526
G1 X32.339 Y61.368 E8.91247
G1 X32.276 Y62.485 E8.94968
G1 X32.339 Y63.602 E8.98689
G1 X32.526 Y64.705 E9.0241
G1 X32.836 Y65.779 E9.06128
G1 X33.263 Y66.813 E9.09848
G1 X33.804 Y67.793 E9.13572
G1 X34.452 Y68.705 E9.17293
G1 X35.197 Y69.539 E9.21012
G1 X36.031 Y70.284 E9.24731
G1 X36.944 Y70.932 E9.28455
G1 X37.923 Y71.473 E9.32176
G1 X38.957 Y71.9 E9.35896
G1 X40.031 Y72.21 E9.39614
G1 X41.134 Y72.397 E9.43335
M205 X30 Y30
G0 F3600 X35.522 Y76.802
M205 X20 Y20
G1 F2400 X35.149 Y77.109 E9.44942
G1 X27.612 Y84.644 E9.80389
G1 X27.333 Y84.829 E9.81502
G1 X27.018 Y84.891 E9.8257
G1 X21.645 Y84.892 E10.00441
G1 X21.347 Y84.85 E10.01442
G1 X21.112 Y84.752 E10.02289
G1 X20.907 Y84.592 E10.03154
G1 X20.748 Y84.381 E10.04032
G1 X20.647 Y84.129 E10.04935
G1 X20.607 Y83.825 E10.05955
G1 X20.607 Y57.481 E10.93576
G1 X20.647 Y57.175 E10.94602
G1 X20.745 Y56.931 E10.95477
G1 X20.904 Y56.719 E10.96358
G1 X21.114 Y56.556 E10.97242
G1 X21.353 Y56.455 E10.98105
G1 X21.63 Y56.417 E10.99035
G1 X27.085 Y56.417 E11.17179
G1 X27.498 Y56.376 E11.18559
G1 X27.924 Y56.245 E11.20041
G1 X28.31 Y56.039 E11.21497
G1 X28.639 Y55.769 E11.22912
G1 X36.193 Y48.216 E11.58441
G1 X36.557 Y47.972 E11.59899
G1 X36.984 Y47.888 E11.61346
G1 X88.031 Y47.888 E13.31129
G1 X88.456 Y47.97 E13.32569
G1 X88.83 Y48.223 E13.34071
G1 X96.383 Y55.774 E13.69593
G1 X96.696 Y56.033 E13.70944
G1 X97.103 Y56.25 E13.72478
G1 X97.53 Y56.377 E13.7396
G1 X97.929 Y56.416 E13.75294
G1 X103.38 Y56.418 E13.93424
G1 X103.665 Y56.455 E13.9438
G1 X103.9 Y56.555 E13.95229
G1 X104.108 Y56.718 E13.96108
G1 X104.266 Y56.926 E13.96977
G1 X104.368 Y57.175 E13.97872
G1 X104.407 Y57.477 E13.98884
G1 X104.406 Y83.838 E14.86561
G1 X104.367 Y84.134 E14.87554
G1 X104.267 Y84.38 E14.88438
G1 X104.108 Y84.589 E14.89311
G1 X103.9 Y84.752 E14.9019
G1 X103.665 Y84.852 E14.91039
G1 X103.367 Y84.891 E14.92039
G1 X97.999 Y84.892 E15.09893
G1 X97.675 Y84.828 E15.10992
G1 X97.395 Y84.639 E15.12115
G1 X89.852 Y77.098 E15.4759
G1 X89.492 Y76.802 E15.49141
G1 X89.042 Y76.56 E15.5084
G1 X88.553 Y76.41 E15.52541
G1 X88.089 Y76.362 E15.54093
G1 X85.839 Y76.362 E15.61576
G1 X85.194 Y76.362 E15.63722
G1 X85.317 Y76.322 E15.64152
G1 X85.839 Y75.991 E15.65451
G1 X86.261 Y75.541 E15.67503
G1 X86.56 Y74.999 E15.69562
G1 X86.712 Y74.4 E15.71617
G1 X86.712 Y73.784 E15.73666
G1 X86.56 Y73.185 E15.75721
G1 X86.261 Y72.643 E15.7778
G1 X85.839 Y72.193 E15.79832
G1 X85.317 Y71.862 E15.81888
G1 X84.73 Y71.671 E15.83941
G1 X84.112 Y71.633 E15.86
G1 X83.506 Y71.747 E15.88051
G1 X82.946 Y72.011 E15.9011
G1 X82.47 Y72.405 E15.92165
G1 X82.107 Y72.905 E15.94221
G1 X81.881 Y73.479 E15.96272
G1 X81.802 Y74.092 E15.98328
G1 X81.881 Y74.704 E16.0038
G1 X82.106 Y75.279 E16.02434
G1 X82.47 Y75.779 E16.04491
G1 X82.946 Y76.172 E16.06544
G1 X83.347 Y76.362 E16.0802
G1 X82.947 Y76.362 E16.08307
G1 X36.938 Y76.363 E17.61333
G1 X36.463 Y76.41 E17.62921
G1 X35.973 Y76.56 E17.64625
G1 X35.522 Y76.802 E17.66328
M205 X30 Y30
G0 F3600 X23.505 Y76.437
M205 X20 Y20
G1 F2400 X24.112 Y76.551 E17.68382
G1 X24.73 Y76.513 E17.70441
G1 X25.317 Y76.322 E17.72494
G1 X25.839 Y75.991 E17.7455
G1 X26.261 Y75.541 E17.76602
G1 X26.56 Y74.999 E17.78661
G1 X26.712 Y74.4 E17.80716
G1 X26.712 Y73.784 E17.82765
G1 X26.56 Y73.185 E17.84821
G1 X26.261 Y72.643 E17.86879
G1 X25.839 Y72.193 E17.88931
G1 X25.317 Y71.862 E17.90987
G1 X24.73 Y71.671 E17.9304
G1 X24.112 Y71.633 E17.951
G1 X23.506 Y71.747 E17.9715
G1 X22.946 Y72.011 E17.9921
G1 X22.47 Y72.405 E18.01265
G1 X22.107 Y72.905 E18.0332
G1 X21.881 Y73.479 E18.05372
G1 X21.802 Y74.092 E18.07427
G1 X21.881 Y74.704 E18.0948
G1 X22.106 Y75.279 E18.11533
G1 X22.47 Y75.779 E18.1359
G1 X22.946 Y76.172 E18.15643
G1 X23.505 Y76.437 E18.17701
M205 X30 Y30
G0 F3600 X22.586 Y75.667
G0 X22.039 Y74.666
G0 X23.505 Y62.417
M205 X20 Y20
G1 F2400 X24.112 Y62.531 E18.19755
G1 X24.73 Y62.493 E18.21815
G1 X25.317 Y62.302 E18.23868
G1 X25.839 Y61.971 E18.25924
G1 X26.261 Y61.521 E18.27975
G1 X26.56 Y60.979 E18.30034
G1 X26.712 Y60.38 E18.3209
G1 X26.712 Y59.764 E18.34138
G1 X26.56 Y59.165 E18.36194
G1 X26.261 Y58.623 E18.38253
G1 X25.839 Y58.173 E18.40305
G1 X25.317 Y57.842 E18.4236
G1 X24.73 Y57.651 E18.44413
G1 X24.112 Y57.613 E18.46473
G1 X23.506 Y57.727 E18.48524
G1 X22.946 Y57.991 E18.50583
G1 X22.47 Y58.385 E18.52638
G1 X22.107 Y58.885 E18.54693
G1 X21.881 Y59.459 E18.56745
G1 X21.802 Y60.072 E18.58801
G1 X21.881 Y60.684 E18.60853
G1 X22.106 Y61.259 E18.62907
G1 X22.47 Y61.759 E18.64964
G1 X22.946 Y62.152 E18.67017
G1 X23.505 Y62.417 E18.69074
M205 X30 Y30
G0 F3600 X23.63 Y62.033
M205 X20 Y20
;TYPE:WALL-OUTER
G1 F2400 X24.137 Y62.129 E18.70791
G1 X24.654 Y62.097 E18.72513
G1 X25.145 Y61.937 E18.74231
G1 X25.582 Y61.66 E18.75952
G1 X25.935 Y61.284 E18.77667
G1 X26.185 Y60.831 E18.79388
G1 X26.312 Y60.33 E18.81107
G1 X26.312 Y59.814 E18.82823
G1 X26.185 Y59.313 E18.84542
G1 X25.935 Y58.86 E18.86263
G1 X25.582 Y58.484 E18.87979
G1 X25.145 Y58.207 E18.897
G1 X24.654 Y58.047 E18.91417
G1 X24.137 Y58.015 E18.9314
G1 X23.63 Y58.111 E18.94856
G1 X23.162 Y58.331 E18.96576
G1 X22.764 Y58.661 E18.98296
G1 X22.46 Y59.079 E19.00015
G1 X22.271 Y59.559 E19.01731
G1 X22.205 Y60.072 E19.03451
G1 X22.271 Y60.584 E19.05168
G1 X22.46 Y61.065 E19.06887
G1 X22.764 Y61.483 E19.08606
G1 X23.162 Y61.812 E19.10323
G1 X23.63 Y62.033 E19.12045
M205 X30 Y30
G0 F3600 X23.826 Y62.07
G0 X23.771 Y62.364
G0 X21.964 Y74.092
G0 X22.248 Y75.202
G0 X22.84 Y75.875
G0 X23.574 Y76.348
G0 X23.63 Y76.053
M205 X20 Y20
G1 F2400 X24.137 Y76.149 E19.13761
G1 X24.654 Y76.117 E19.15484
G1 X25.145 Y75.957 E19.17202
G1 X25.582 Y75.68 E19.18922
G1 X25.935 Y75.304 E19.20638
G1 X26.185 Y74.851 E19.22359
G1 X26.312 Y74.35 E19.24078
G1 X26.312 Y73.834 E19.25794
G1 X26.185 Y73.333 E19.27513
G1 X25.935 Y72.88 E19.29234
G1 X25.582 Y72.504 E19.30949
G1 X25.145 Y72.227 E19.3267
G1 X24.654 Y72.067 E19.34388
G1 X24.137 Y72.035 E19.3611
G1 X23.63 Y72.131 E19.37827
