;FLAVOR:Marlin
;TIME:3973
;Filament used: 4.66349m
;Layer height: 0.16
;MINX:6.213
;MINY:6.213
;MINZ:0.2
;MAXX:118.787
;MAXY:118.787
;MAXZ:15.08
;Generated with Cura_SteamEngine 4.12.1
M82 ;absolute extrusion mode
M104 S208.0 ;Set Hotend Temperature
M140 S58.0 ;Set Bed Temperature
G28 ;home
G90 ;absolute positioning
G1 X-10 Y-10 F3000 ;Move to corner 
G1 Z0 F1800 ;Go to zero offset
M109 S208.0 ;Wait for Hotend Temperature
M190 S58.0 ;Wait for Bed Temperature
G92 E0 ;Zero set extruder position
G1 E20 F200 ;Feed filament to clear nozzle
G92 E0 ;Zero set extruder position
G92 E0
G92 E0
G1 F1500 E-6.5
;LAYER_COUNT:94
;LAYER:0
M107
;MESH:ballast-tray-v1.stl
G0 F3600 X20.109 Y103.121 Z0.2
;TYPE:WALL-INNER
G1 F1500 E0
G1 F3000 X21.878 Y104.89 E0.08321
G1 X24.213 Y102.557 E0.19299
G1 X22.444 Y100.788 E0.2762
G1 X20.109 Y103.121 E0.38599
G0 F3600 X20.009 Y103.121
G0 X22.444 Y100.748
G0 X118.121 Y34.216
G0 X118.221 Y34.216
G1 F3000 X34.216 Y118.221 E4.33732
G1 X6.779 Y90.784 E5.62788
G1 X90.784 Y6.779 E9.57921
G1 X118.221 Y34.216 E10.86977
G0 F3600 X118.787 Y34.216
;TYPE:WALL-OUTER
G1 F3000 X34.216 Y118.787 E14.84773
G1 X6.213 Y90.784 E16.1649
G1 X90.784 Y6.213 E20.14286
G1 X118.787 Y34.216 E21.46004
G0 F3600 X118.646 Y34.357
G0 X118.121 Y34.216
G0 X22.444 Y100.748
G0 X20.323 Y102.768
G0 X20.675 Y103.121
G1 F3000 X21.878 Y104.324 E21.51662
G1 X23.647 Y102.557 E21.59978
G1 X22.444 Y101.354 E21.65637
G1 X20.675 Y103.121 E21.73953
G0 F3600 X20.816 Y103.262
G0 X20.463 Y103.615
G0 X34.23 Y117.951
;TYPE:SKIN
G1 F3000 X7.047 Y90.769 E23.01811
G0 F3600 X7.33 Y90.486
G1 F3000 X19.909 Y103.065 E23.60979
G0 F3600 X20.192 Y102.782
G1 F3000 X7.613 Y90.203 E24.20147
G0 F3600 X7.896 Y89.92
G1 F3000 X20.474 Y102.499 E24.79312
G0 F3600 X20.757 Y102.216
G1 F3000 X8.179 Y89.637 E25.38478
G0 F3600 X8.461 Y89.354
G1 F3000 X21.04 Y101.933 E25.97645
G0 F3600 X21.323 Y101.65
G1 F3000 X8.744 Y89.072 E26.56811
G0 F3600 X9.027 Y88.789
G1 F3000 X21.606 Y101.367 E27.15976
G0 F3600 X21.889 Y101.085
G1 F3000 X9.31 Y88.506 E27.75144
G0 F3600 X9.593 Y88.223
G1 F3000 X22.172 Y100.802 E28.34312
G1 X22.242 Y100.872
G0 F3600 X22.231 Y100.86
G0 X24.253 Y102.557
G0 X24.197 Y102.827
G1 F3000 X36.775 Y115.406 E28.93477
G0 F3600 X36.493 Y115.689
G1 F3000 X23.914 Y103.11 E29.52645
G0 F3600 X23.631 Y103.393
G1 F3000 X36.21 Y115.971 E30.1181
G0 F3600 X35.927 Y116.254
G1 F3000 X23.348 Y103.675 E30.70978
G0 F3600 X23.065 Y103.958
G1 F3000 X35.644 Y116.537 E31.30146
G0 F3600 X35.361 Y116.82
G1 F3000 X22.782 Y104.24 E31.89316
G0 F3600 X22.499 Y104.523
G1 F3000 X35.078 Y117.103 E32.48486
G0 F3600 X34.796 Y117.386
G1 F3000 X22.216 Y104.806 E33.07658
G0 F3600 X21.933 Y105.089
G1 F3000 X34.513 Y117.668 E33.66828
G1 X34.583 Y117.738
G0 F3600 X34.571 Y117.726
G0 X37.058 Y115.123
G1 F3000 X9.876 Y87.94 E34.94687
G0 F3600 X10.159 Y87.657
G1 F3000 X37.341 Y114.84 E36.22545
G0 F3600 X37.624 Y114.557
G1 F3000 X10.441 Y87.375 E37.50403
G0 F3600 X10.724 Y87.092
G1 F3000 X37.907 Y114.274 E38.78261
G0 F3600 X38.19 Y113.991
G1 F3000 X11.007 Y86.809 E40.06119
G0 F3600 X11.29 Y86.526
G1 F3000 X38.472 Y113.709 E41.33977
G0 F3600 X38.755 Y113.426
G1 F3000 X11.573 Y86.243 E42.61836
G0 F3600 X11.856 Y85.96
G1 F3000 X39.038 Y113.143 E43.89694
G0 F3600 X39.321 Y112.86
G1 F3000 X12.138 Y85.678 E45.17552
G0 F3600 X12.421 Y85.395
G1 F3000 X39.604 Y112.577 E46.4541
G0 F3600 X39.887 Y112.294
G1 F3000 X12.704 Y85.112 E47.73268
G0 F3600 X12.987 Y84.829
G1 F3000 X40.17 Y112.012 E49.01129
G0 F3600 X40.452 Y111.729
G1 F3000 X13.27 Y84.546 E50.28987
G0 F3600 X13.553 Y84.263
G1 F3000 X40.735 Y111.446 E51.56845
G0 F3600 X41.018 Y111.163
G1 F3000 X13.835 Y83.98 E52.84705
G0 F3600 X14.118 Y83.698
G1 F3000 X41.301 Y110.88 E54.12564
G0 F3600 X41.584 Y110.597
G1 F3000 X14.401 Y83.415 E55.40422
G0 F3600 X14.684 Y83.132
G1 F3000 X41.867 Y110.315 E56.68282
G0 F3600 X42.149 Y110.032
G1 F3000 X14.967 Y82.849 E57.9614
G0 F3600 X15.25 Y82.566
G1 F3000 X42.432 Y109.749 E59.23998
G0 F3600 X42.715 Y109.466
G1 F3000 X15.533 Y82.283 E60.51857
G0 F3600 X15.815 Y82.001
G1 F3000 X42.998 Y109.183 E61.79715
G0 F3600 X43.281 Y108.9
G1 F3000 X16.098 Y81.718 E63.07573
G0 F3600 X16.381 Y81.435
G1 F3000 X43.564 Y108.617 E64.35431
G0 F3600 X43.846 Y108.335
G1 F3000 X16.664 Y81.152 E65.63289
G0 F3600 X16.947 Y80.869
G1 F3000 X44.129 Y108.052 E66.91147
G0 F3600 X44.412 Y107.769
G1 F3000 X17.23 Y80.586 E68.19005
G0 F3600 X17.512 Y80.303
G1 F3000 X44.695 Y107.486 E69.46866
G0 F3600 X44.978 Y107.203
G1 F3000 X17.795 Y80.021 E70.74724
G0 F3600 X18.078 Y79.738
G1 F3000 X45.261 Y106.92 E72.02582
G0 F3600 X45.544 Y106.638
G1 F3000 X18.361 Y79.455 E73.30443
G0 F3600 X18.644 Y79.172
G1 F3000 X45.826 Y106.355 E74.58301
G0 F3600 X46.109 Y106.072
G1 F3000 X18.927 Y78.889 E75.86159
G0 F3600 X19.209 Y78.606
G1 F3000 X46.392 Y105.789 E77.1402
G0 F3600 X46.675 Y105.506
G1 F3000 X19.492 Y78.324 E78.41878
G0 F3600 X19.775 Y78.041
G1 F3000 X46.958 Y105.223 E79.69736
G0 F3600 X47.241 Y104.941
G1 F3000 X20.058 Y77.758 E80.97596
G0 F3600 X20.341 Y77.475
G1 F3000 X47.523 Y104.658 E82.25454
G0 F3600 X47.806 Y104.375
G1 F3000 X20.624 Y77.192 E83.53313
G0 F3600 X20.907 Y76.909
G1 F3000 X48.089 Y104.092 E84.81171
G0 F3600 X48.372 Y103.809
G1 F3000 X21.189 Y76.627 E86.09029
G0 F3600 X21.472 Y76.344
G1 F3000 X48.655 Y103.526 E87.36887
G0 F3600 X48.938 Y103.243
G1 F3000 X21.755 Y76.061 E88.64745
G0 F3600 X22.038 Y75.778
G1 F3000 X49.22 Y102.961 E89.92603
G0 F3600 X49.503 Y102.678
G1 F3000 X22.321 Y75.495 E91.20462
G0 F3600 X22.604 Y75.212
G1 F3000 X49.786 Y102.395 E92.4832
G0 F3600 X50.069 Y102.112
G1 F3000 X22.886 Y74.929 E93.7618
G0 F3600 X23.169 Y74.647
G1 F3000 X50.352 Y101.829 E95.04038
G0 F3600 X50.635 Y101.546
G1 F3000 X23.452 Y74.364 E96.31896
G0 F3600 X23.735 Y74.081
G1 F3000 X50.918 Y101.264 E97.59757
G0 F3600 X51.2 Y100.981
G1 F3000 X24.018 Y73.798 E98.87615
G0 F3600 X24.301 Y73.515
G1 F3000 X51.483 Y100.698 E100.15473
G0 F3600 X51.766 Y100.415
G1 F3000 X24.583 Y73.232 E101.43334
G0 F3600 X24.866 Y72.95
G1 F3000 X52.049 Y100.132 E102.71192
G0 F3600 X52.332 Y99.849
G1 F3000 X25.149 Y72.667 E103.9905
G0 F3600 X25.432 Y72.384
G1 F3000 X52.615 Y99.566 E105.26908
G0 F3600 X52.897 Y99.284
G1 F3000 X25.715 Y72.101 E106.54766
G0 F3600 X25.998 Y71.818
G1 F3000 X53.18 Y99.001 E107.82624
G0 F3600 X53.463 Y98.718
G1 F3000 X26.281 Y71.535 E109.10483
G0 F3600 X26.563 Y71.253
G1 F3000 X53.746 Y98.435 E110.38341
G0 F3600 X54.029 Y98.152
G1 F3000 X26.846 Y70.97 E111.66199
G0 F3600 X27.129 Y70.687
G1 F3000 X54.312 Y97.869 E112.94057
G0 F3600 X54.595 Y97.587
G1 F3000 X27.412 Y70.404 E114.21918
G0 F3600 X27.695 Y70.121
G1 F3000 X54.877 Y97.304 E115.49776
G0 F3600 X55.16 Y97.021
G1 F3000 X27.978 Y69.838 E116.77634
G0 F3600 X28.26 Y69.555
G1 F3000 X55.443 Y96.738 E118.05494
G0 F3600 X55.726 Y96.455
G1 F3000 X28.543 Y69.273 E119.33352
G0 F3600 X28.826 Y68.99
G1 F3000 X56.009 Y96.172 E120.61211
G0 F3600 X56.292 Y95.89
G1 F3000 X29.109 Y68.707 E121.89071
G0 F3600 X29.392 Y68.424
G1 F3000 X56.574 Y95.607 E123.16929
G0 F3600 X56.857 Y95.324
G1 F3000 X29.675 Y68.141 E124.44787
G0 F3600 X29.957 Y67.858
G1 F3000 X57.14 Y95.041 E125.72648
G0 F3600 X57.423 Y94.758
G1 F3000 X30.24 Y67.576 E127.00506
G0 F3600 X30.523 Y67.293
G1 F3000 X57.706 Y94.475 E128.28364
G0 F3600 X57.989 Y94.192
G1 F3000 X30.806 Y67.01 E129.56222
G0 F3600 X31.089 Y66.727
G1 F3000 X58.271 Y93.91 E130.84081
G0 F3600 X58.554 Y93.627
G1 F3000 X31.372 Y66.444 E132.11939
G0 F3600 X31.655 Y66.161
G1 F3000 X58.837 Y93.344 E133.39797
G0 F3600 X59.12 Y93.061
G1 F3000 X31.937 Y65.879 E134.67655
G0 F3600 X32.22 Y65.596
G1 F3000 X59.403 Y92.778 E135.95513
G0 F3600 X59.686 Y92.495
G1 F3000 X32.503 Y65.313 E137.23371
G0 F3600 X32.786 Y65.03
G1 F3000 X59.969 Y92.213 E138.51232
G0 F3600 X60.251 Y91.93
G1 F3000 X33.069 Y64.747 E139.7909
G0 F3600 X33.352 Y64.464
G1 F3000 X60.534 Y91.647 E141.06948
G0 F3600 X60.817 Y91.364
G1 F3000 X33.634 Y64.181 E142.34809
G0 F3600 X33.917 Y63.899
G1 F3000 X61.1 Y91.081 E143.62667
G0 F3600 X61.383 Y90.798
G1 F3000 X34.2 Y63.616 E144.90525
G0 F3600 X34.483 Y63.333
G1 F3000 X61.666 Y90.516 E146.18385
G0 F3600 X61.948 Y90.233
G1 F3000 X34.766 Y63.05 E147.46243
G0 F3600 X35.049 Y62.767
G1 F3000 X62.231 Y89.95 E148.74102
G0 F3600 X62.514 Y89.667
G1 F3000 X35.332 Y62.484 E150.0196
G0 F3600 X35.614 Y62.202
G1 F3000 X62.797 Y89.384 E151.29818
G0 F3600 X63.08 Y89.101
G1 F3000 X35.897 Y61.919 E152.57676
G0 F3600 X36.18 Y61.636
G1 F3000 X63.363 Y88.818 E153.85534
G0 F3600 X63.645 Y88.536
G1 F3000 X36.463 Y61.353 E155.13392
G0 F3600 X36.746 Y61.07
G1 F3000 X63.928 Y88.253 E156.4125
G0 F3600 X64.211 Y87.97
G1 F3000 X37.029 Y60.787 E157.69109
G0 F3600 X37.311 Y60.505
G1 F3000 X64.494 Y87.687 E158.96967
G0 F3600 X64.777 Y87.404
G1 F3000 X37.594 Y60.222 E160.24825
G0 F3600 X37.877 Y59.939
G1 F3000 X65.06 Y87.121 E161.52683
G0 F3600 X65.343 Y86.839
G1 F3000 X38.16 Y59.656 E162.80544
G0 F3600 X38.443 Y59.373
G1 F3000 X65.625 Y86.556 E164.08402
G0 F3600 X65.908 Y86.273
G1 F3000 X38.726 Y59.09 E165.3626
G0 F3600 X39.008 Y58.807
G1 F3000 X66.191 Y85.99 E166.6412
G0 F3600 X66.474 Y85.707
G1 F3000 X39.291 Y58.525 E167.91979
G0 F3600 X39.574 Y58.242
G1 F3000 X66.757 Y85.424 E169.19837
G0 F3600 X67.04 Y85.142
G1 F3000 X39.857 Y57.959 E170.47697
G0 F3600 X40.14 Y57.676
G1 F3000 X67.322 Y84.859 E171.75555
G0 F3600 X67.605 Y84.576
G1 F3000 X40.423 Y57.393 E173.03413
G0 F3600 X40.706 Y57.11
G1 F3000 X67.888 Y84.293 E174.31272
G0 F3600 X68.171 Y84.01
G1 F3000 X40.988 Y56.828 E175.5913
G0 F3600 X41.271 Y56.545
G1 F3000 X68.454 Y83.727 E176.86988
G0 F3600 X68.737 Y83.444
G1 F3000 X41.554 Y56.262 E178.14846
G0 F3600 X41.837 Y55.979
G1 F3000 X69.019 Y83.162 E179.42704
G0 F3600 X69.302 Y82.879
G1 F3000 X42.12 Y55.696 E180.70562
G0 F3600 X42.403 Y55.413
G1 F3000 X69.585 Y82.596 E181.9842
G0 F3600 X69.868 Y82.313
G1 F3000 X42.685 Y55.13 E183.26281
G0 F3600 X42.968 Y54.848
G1 F3000 X70.151 Y82.03 E184.54139
G0 F3600 X70.434 Y81.747
G1 F3000 X43.251 Y54.565 E185.81997
G0 F3600 X43.534 Y54.282
G1 F3000 X70.717 Y81.465 E187.09858
G0 F3600 X70.999 Y81.182
G1 F3000 X43.817 Y53.999 E188.37716
G0 F3600 X44.1 Y53.716
G1 F3000 X71.282 Y80.899 E189.65574
G0 F3600 X71.565 Y80.616
G1 F3000 X44.382 Y53.433 E190.93435
G0 F3600 X44.665 Y53.151
G1 F3000 X71.848 Y80.333 E192.21293
G0 F3600 X72.131 Y80.05
G1 F3000 X44.948 Y52.868 E193.49151
G0 F3600 X45.231 Y52.585
G1 F3000 X72.414 Y79.768 E194.77011
G0 F3600 X72.696 Y79.485
G1 F3000 X45.514 Y52.302 E196.04869
G0 F3600 X45.797 Y52.019
G1 F3000 X72.979 Y79.202 E197.32728
G0 F3600 X73.262 Y78.919
G1 F3000 X46.08 Y51.736 E198.60586
G0 F3600 X46.362 Y51.454
G1 F3000 X73.545 Y78.636 E199.88444
G0 F3600 X73.828 Y78.353
G1 F3000 X46.645 Y51.171 E201.16302
G0 F3600 X46.928 Y50.888
G1 F3000 X74.111 Y78.07 E202.4416
G0 F3600 X74.393 Y77.788
G1 F3000 X47.211 Y50.605 E203.72018
G0 F3600 X47.494 Y50.322
G1 F3000 X74.676 Y77.505 E204.99877
G0 F3600 X74.959 Y77.222
G1 F3000 X47.777 Y50.039 E206.27735
G0 F3600 X48.059 Y49.756
G1 F3000 X75.242 Y76.939 E207.55595
G0 F3600 X75.525 Y76.656
G1 F3000 X48.342 Y49.474 E208.83453
G0 F3600 X48.625 Y49.191
G1 F3000 X75.808 Y76.373 E210.11311
G0 F3600 X76.091 Y76.091
G1 F3000 X48.908 Y48.908 E211.39172
G0 F3600 X49.191 Y48.625
G1 F3000 X76.373 Y75.808 E212.6703
G0 F3600 X76.656 Y75.525
G1 F3000 X49.474 Y48.342 E213.94888
G0 F3600 X49.756 Y48.059
G1 F3000 X76.939 Y75.242 E215.22749
G0 F3600 X77.222 Y74.959
G1 F3000 X50.039 Y47.777 E216.50607
G0 F3600 X50.322 Y47.494
G1 F3000 X77.505 Y74.676 E217.78465
G0 F3600 X77.788 Y74.393
G1 F3000 X50.605 Y47.211 E219.06323
G0 F3600 X50.888 Y46.928
G1 F3000 X78.07 Y74.111 E220.34181
G0 F3600 X78.353 Y73.828
G1 F3000 X51.171 Y46.645 E221.62039
G0 F3600 X51.454 Y46.362
G1 F3000 X78.636 Y73.545 E222.89898
G0 F3600 X78.919 Y73.262
G1 F3000 X51.736 Y46.08 E224.17756
G0 F3600 X52.019 Y45.797
G1 F3000 X79.202 Y72.979 E225.45614
G0 F3600 X79.485 Y72.696
G1 F3000 X52.302 Y45.514 E226.73472
G0 F3600 X52.585 Y45.231
G1 F3000 X79.768 Y72.414 E228.01333
G0 F3600 X80.05 Y72.131
G1 F3000 X52.868 Y44.948 E229.29191
G0 F3600 X53.151 Y44.665
G1 F3000 X80.333 Y71.848 E230.57049
G0 F3600 X80.616 Y71.565
G1 F3000 X53.433 Y44.382 E231.84909
G0 F3600 X53.716 Y44.1
G1 F3000 X80.899 Y71.282 E233.12767
G0 F3600 X81.182 Y70.999
G1 F3000 X53.999 Y43.817 E234.40626
G0 F3600 X54.282 Y43.534
G1 F3000 X81.465 Y70.717 E235.68486
G0 F3600 X81.747 Y70.434
G1 F3000 X54.565 Y43.251 E236.96344
G0 F3600 X54.848 Y42.968
G1 F3000 X82.03 Y70.151 E238.24202
G0 F3600 X82.313 Y69.868
G1 F3000 X55.13 Y42.685 E239.52063
G0 F3600 X55.413 Y42.403
G1 F3000 X82.596 Y69.585 E240.79921
G0 F3600 X82.879 Y69.302
G1 F3000 X55.696 Y42.12 E242.07779
G0 F3600 X55.979 Y41.837
G1 F3000 X83.162 Y69.019 E243.35637
G0 F3600 X83.444 Y68.737
G1 F3000 X56.262 Y41.554 E244.63495
G0 F3600 X56.545 Y41.271
G1 F3000 X83.727 Y68.454 E245.91354
G0 F3600 X84.01 Y68.171
G1 F3000 X56.828 Y40.988 E247.19212
G0 F3600 X57.11 Y40.706
G1 F3000 X84.293 Y67.888 E248.4707
G0 F3600 X84.576 Y67.605
G1 F3000 X57.393 Y40.423 E249.74928
G0 F3600 X57.676 Y40.14
G1 F3000 X84.859 Y67.322 E251.02786
G0 F3600 X85.142 Y67.04
G1 F3000 X57.959 Y39.857 E252.30647
G0 F3600 X58.242 Y39.574
G1 F3000 X85.424 Y66.757 E253.58505
G0 F3600 X85.707 Y66.474
G1 F3000 X58.525 Y39.291 E254.86363
G0 F3600 X58.807 Y39.008
G1 F3000 X85.99 Y66.191 E256.14224
G0 F3600 X86.273 Y65.908
G1 F3000 X59.09 Y38.726 E257.42082
G0 F3600 X59.373 Y38.443
G1 F3000 X86.556 Y65.625 E258.6994
G0 F3600 X86.839 Y65.343
G1 F3000 X59.656 Y38.16 E259.978
G0 F3600 X59.939 Y37.877
G1 F3000 X87.121 Y65.06 E261.25658
G0 F3600 X87.404 Y64.777
G1 F3000 X60.222 Y37.594 E262.53517
G0 F3600 X60.505 Y37.311
G1 F3000 X87.687 Y64.494 E263.81375
G0 F3600 X87.97 Y64.211
G1 F3000 X60.787 Y37.029 E265.09233
G0 F3600 X61.07 Y36.746
G1 F3000 X88.253 Y63.928 E266.37091
G0 F3600 X88.536 Y63.645
G1 F3000 X61.353 Y36.463 E267.64949
G0 F3600 X61.636 Y36.18
G1 F3000 X88.818 Y63.363 E268.92807
G0 F3600 X89.101 Y63.08
G1 F3000 X61.919 Y35.897 E270.20665
G0 F3600 X62.202 Y35.614
G1 F3000 X89.384 Y62.797 E271.48524
G0 F3600 X89.667 Y62.514
G1 F3000 X62.484 Y35.332 E272.76382
G0 F3600 X62.767 Y35.049
G1 F3000 X89.95 Y62.231 E274.0424
G0 F3600 X90.233 Y61.948
G1 F3000 X63.05 Y34.766 E275.32098
G0 F3600 X63.333 Y34.483
G1 F3000 X90.516 Y61.666 E276.59959
G0 F3600 X90.798 Y61.383
G1 F3000 X63.616 Y34.2 E277.87817
G0 F3600 X63.899 Y33.917
G1 F3000 X91.081 Y61.1 E279.15675
G0 F3600 X91.364 Y60.817
G1 F3000 X64.181 Y33.634 E280.43535
G0 F3600 X64.464 Y33.352
G1 F3000 X91.647 Y60.534 E281.71393
G0 F3600 X91.93 Y60.251
G1 F3000 X64.747 Y33.069 E282.99252
G0 F3600 X65.03 Y32.786
G1 F3000 X92.213 Y59.969 E284.27112
G0 F3600 X92.495 Y59.686
G1 F3000 X65.313 Y32.503 E285.5497
G0 F3600 X65.596 Y32.22
G1 F3000 X92.778 Y59.403 E286.82828
G0 F3600 X93.061 Y59.12
G1 F3000 X65.879 Y31.937 E288.10687
G0 F3600 X66.161 Y31.655
G1 F3000 X93.344 Y58.837 E289.38545
G0 F3600 X93.627 Y58.554
G1 F3000 X66.444 Y31.372 E290.66403
G0 F3600 X66.727 Y31.089
G1 F3000 X93.91 Y58.271 E291.94261
G0 F3600 X94.192 Y57.989
G1 F3000 X67.01 Y30.806 E293.22119
G0 F3600 X67.293 Y30.523
G1 F3000 X94.475 Y57.706 E294.49977
G0 F3600 X94.758 Y57.423
G1 F3000 X67.576 Y30.24 E295.77835
G0 F3600 X67.858 Y29.957
G1 F3000 X95.041 Y57.14 E297.05696
G0 F3600 X95.324 Y56.857
G1 F3000 X68.141 Y29.675 E298.33554
G0 F3600 X68.424 Y29.392
G1 F3000 X95.607 Y56.574 E299.61412
G0 F3600 X95.89 Y56.292
G1 F3000 X68.707 Y29.109 E300.89273
G0 F3600 X68.99 Y28.826
G1 F3000 X96.172 Y56.009 E302.17131
G0 F3600 X96.455 Y55.726
G1 F3000 X69.273 Y28.543 E303.44989
G0 F3600 X69.555 Y28.26
G1 F3000 X96.738 Y55.443 E304.7285
G0 F3600 X97.021 Y55.16
G1 F3000 X69.838 Y27.978 E306.00708
G0 F3600 X70.121 Y27.695
G1 F3000 X97.304 Y54.877 E307.28566
G0 F3600 X97.587 Y54.595
G1 F3000 X70.404 Y27.412 E308.56426
G0 F3600 X70.687 Y27.129
G1 F3000 X97.869 Y54.312 E309.84284
G0 F3600 X98.152 Y54.029
G1 F3000 X70.97 Y26.846 E311.12143
G0 F3600 X71.253 Y26.563
G1 F3000 X98.435 Y53.746 E312.40001
G0 F3600 X98.718 Y53.463
G1 F3000 X71.535 Y26.281 E313.67859
