;FLAVOR:Marlin
;TIME:1820
;Filament used: 1.87676m
;Layer height: 0.16
;MINX:47.7
;MINY:47.7
;MINZ:0.2
;MAXX:77.3
;MAXY:77.3
;MAXZ:21.96
;Generated with Cura_SteamEngine 4.12.1
M82 ;absolute extrusion mode
M104 S208.0 ;Set Hotend Temperature
M140 S58.0 ;Set Bed Temperature
G28 ;home
G90 ;absolute positioning
G1 X-10 Y-10 F3000 ;Move to corner 
G1 Z0 F1800 ;Go to zero offset
M109 S208.0 ;Wait for Hotend Temperature
M190 S58.0 ;Wait for Bed Temperature
G92 E0 ;Zero set extruder position
G1 E20 F200 ;Feed filament to clear nozzle
G92 E0 ;Zero set extruder position
G92 E0
G92 E0
G1 F1500 E-6.5
;LAYER_COUNT:137
;LAYER:0
M107
;MESH:sub-ballast-v3.stl
G0 F3600 X64.898 Y55.268 Z0.2
;TYPE:WALL-INNER
G1 F1500 E0
G1 F3150 X64.898 Y70.032 E0.49105
G1 X67.798 Y70.032 E0.58751
G1 X67.798 Y55.268 E1.07856
G1 X64.898 Y55.268 E1.17501
G0 F3600 X64.828 Y55.198
G0 X67.826 Y55.24
G0 X76.83 Y76.83
G0 X76.9 Y76.9
G1 F3150 X48.1 Y76.9 E2.13291
G1 X48.1 Y48.1 E3.0908
G1 X76.9 Y48.1 E4.04869
G1 X76.9 Y76.9 E5.00658
G0 F3600 X77.3 Y77.3
;TYPE:WALL-OUTER
G1 F3150 X47.7 Y77.3 E5.99108
G1 X47.7 Y47.7 E6.97558
G1 X77.3 Y47.7 E7.96008
G1 X77.3 Y77.3 E8.94458
G0 F3600 X77.1 Y77.3
G0 X76.83 Y76.83
G0 X67.826 Y55.24
G0 X64.87 Y55.24
G0 X65.298 Y55.668
G1 F3150 X65.298 Y69.632 E9.40903
G1 X67.398 Y69.632 E9.47887
G1 X67.398 Y55.668 E9.94332
G1 X65.298 Y55.668 E10.01316
G0 F3600 X65.298 Y55.868
G0 X64.798 Y55.868
G0 X64.87 Y55.24
G0 X76.719 Y48.435
;TYPE:SKIN
G1 F3150 X76.564 Y48.279 E10.02048
G0 F3600 X75.998 Y48.279
G1 F3150 X76.719 Y49.001 E10.05441
G0 F3600 X76.719 Y49.566
G1 F3150 X75.432 Y48.279 E10.11495
G0 F3600 X74.867 Y48.279
G1 F3150 X76.719 Y50.132 E10.20209
G0 F3600 X76.719 Y50.698
G1 F3150 X74.301 Y48.279 E10.31585
G0 F3600 X73.735 Y48.279
G1 F3150 X76.719 Y51.263 E10.4562
G0 F3600 X76.719 Y51.829
G1 F3150 X73.169 Y48.279 E10.62319
G0 F3600 X72.604 Y48.279
G1 F3150 X76.719 Y52.395 E10.81677
G0 F3600 X76.719 Y52.96
G1 F3150 X72.038 Y48.279 E11.03695
G0 F3600 X71.472 Y48.279
G1 F3150 X76.719 Y53.526 E11.28375
G0 F3600 X76.719 Y54.092
G1 F3150 X70.907 Y48.279 E11.55715
G0 F3600 X70.341 Y48.279
G1 F3150 X76.719 Y54.657 E11.85715
G0 F3600 X76.719 Y55.223
G1 F3150 X69.775 Y48.279 E12.18378
G0 F3600 X69.21 Y48.279
G1 F3150 X76.719 Y55.789 E12.537
G0 F3600 X76.719 Y56.354
G1 F3150 X68.644 Y48.279 E12.91682
G0 F3600 X68.078 Y48.279
G1 F3150 X76.719 Y56.92 E13.32327
G0 F3600 X76.719 Y57.486
G1 F3150 X67.513 Y48.279 E13.75632
G0 F3600 X66.947 Y48.279
G1 F3150 X76.719 Y58.052 E14.21598
G0 F3600 X76.719 Y58.617
G1 F3150 X66.381 Y48.279 E14.70225
G0 F3600 X65.816 Y48.279
G1 F3150 X76.719 Y59.183 E15.21512
G0 F3600 X76.719 Y59.749
G1 F3150 X65.25 Y48.279 E15.75461
G0 F3600 X64.684 Y48.279
G1 F3150 X76.719 Y60.314 E16.3207
G0 F3600 X76.719 Y60.88
G1 F3150 X64.119 Y48.279 E16.91339
G0 F3600 X63.553 Y48.279
G1 F3150 X76.719 Y61.446 E17.5327
G0 F3600 X76.719 Y62.011
G1 F3150 X62.987 Y48.279 E18.17861
G0 F3600 X62.421 Y48.279
G1 F3150 X76.719 Y62.577 E18.85114
G0 F3600 X76.719 Y63.143
G1 F3150 X61.856 Y48.279 E19.55028
G0 F3600 X61.29 Y48.279
G1 F3150 X76.719 Y63.708 E20.27601
G0 F3600 X76.719 Y64.274
G1 F3150 X67.977 Y55.531 E20.68723
G0 F3600 X67.977 Y56.097
G1 F3150 X76.719 Y64.84 E21.09845
G0 F3600 X76.719 Y65.405
G1 F3150 X67.977 Y56.663 E21.50965
G0 F3600 X67.977 Y57.228
G1 F3150 X76.719 Y65.971 E21.92087
G0 F3600 X76.719 Y66.537
G1 F3150 X67.977 Y57.794 E22.33209
G0 F3600 X67.977 Y58.36
G1 F3150 X76.719 Y67.103 E22.74331
G0 F3600 X76.719 Y67.668
G1 F3150 X67.977 Y58.926 E23.15451
G0 F3600 X67.977 Y59.491
G1 F3150 X76.719 Y68.234 E23.56573
G0 F3600 X76.719 Y68.8
G1 F3150 X67.977 Y60.057 E23.97695
G0 F3600 X67.977 Y60.623
G1 F3150 X76.719 Y69.365 E24.38814
G0 F3600 X76.719 Y69.931
G1 F3150 X67.977 Y61.188 E24.79936
G0 F3600 X67.977 Y61.754
G1 F3150 X76.719 Y70.497 E25.21059
G0 F3600 X76.719 Y71.062
G1 F3150 X67.977 Y62.32 E25.62178
G0 F3600 X67.977 Y62.886
G1 F3150 X76.719 Y71.628 E26.03298
G0 F3600 X76.719 Y72.194
G1 F3150 X67.977 Y63.452 E26.44418
G0 F3600 X67.977 Y64.017
G1 F3150 X76.719 Y72.759 E26.85537
G0 F3600 X76.719 Y73.325
G1 F3150 X67.977 Y64.583 E27.26657
G0 F3600 X67.977 Y65.149
G1 F3150 X76.719 Y73.891 E27.67777
G0 F3600 X76.719 Y74.456
G1 F3150 X67.977 Y65.714 E28.08896
G0 F3600 X67.977 Y66.28
G1 F3150 X76.719 Y75.022 E28.50016
G0 F3600 X76.719 Y75.588
G1 F3150 X67.977 Y66.846 E28.91136
G0 F3600 X67.977 Y67.412
G1 F3150 X76.719 Y76.153 E29.32253
G0 F3600 X76.719 Y76.719
G1 F3150 X67.977 Y67.977 E29.73373
G0 F3600 X67.977 Y68.543
G1 F3150 X76.153 Y76.719 E30.1183
G0 F3600 X75.588 Y76.719
G1 F3150 X67.977 Y69.109 E30.47628
G0 F3600 X67.977 Y69.674
G1 F3150 X75.022 Y76.719 E30.80765
G0 F3600 X74.456 Y76.719
G1 F3150 X67.948 Y70.211 E31.11377
G0 F3600 X67.383 Y70.211
G1 F3150 X73.891 Y76.719 E31.41988
G0 F3600 X73.325 Y76.719
G1 F3150 X66.817 Y70.211 E31.726
G0 F3600 X66.251 Y70.211
G1 F3150 X72.759 Y76.719 E32.03212
G0 F3600 X72.194 Y76.719
G1 F3150 X65.685 Y70.211 E32.33826
G0 F3600 X65.12 Y70.211
G1 F3150 X71.628 Y76.719 E32.64437
G0 F3600 X71.062 Y76.719
G1 F3150 X48.279 Y53.936 E33.71602
G0 F3600 X48.279 Y53.371
G1 F3150 X64.717 Y69.809 E34.48921
G0 F3600 X64.717 Y69.243
G1 F3150 X48.279 Y52.805 E35.2624
G0 F3600 X48.279 Y52.239
G1 F3150 X64.717 Y68.677 E36.03559
G0 F3600 X64.717 Y68.112
G1 F3150 X48.279 Y51.673 E36.80881
G0 F3600 X48.279 Y51.108
G1 F3150 X64.717 Y67.546 E37.582
G0 F3600 X64.717 Y66.98
G1 F3150 X48.279 Y50.542 E38.3552
G0 F3600 X48.279 Y49.976
G1 F3150 X64.717 Y66.415 E39.12841
G0 F3600 X64.717 Y65.849
G1 F3150 X48.279 Y49.411 E39.90161
G0 F3600 X48.279 Y48.845
G1 F3150 X64.717 Y65.283 E40.6748
G0 F3600 X64.717 Y64.717
G1 F3150 X48.279 Y48.279 E41.44799
G0 F3600 X48.845 Y48.279
G1 F3150 X64.717 Y64.152 E42.19459
G0 F3600 X64.717 Y63.586
G1 F3150 X49.411 Y48.279 E42.91456
G0 F3600 X49.976 Y48.279
G1 F3150 X64.717 Y63.02 E43.60793
G0 F3600 X64.717 Y62.455
G1 F3150 X50.542 Y48.279 E44.2747
G0 F3600 X51.108 Y48.279
G1 F3150 X64.717 Y61.889 E44.91485
G0 F3600 X64.717 Y61.323
G1 F3150 X51.673 Y48.279 E45.5284
G0 F3600 X52.239 Y48.279
G1 F3150 X64.717 Y60.758 E46.11535
G0 F3600 X64.717 Y60.192
G1 F3150 X52.805 Y48.279 E46.67568
G0 F3600 X53.371 Y48.279
G1 F3150 X64.717 Y59.626 E47.20938
G0 F3600 X64.717 Y59.061
G1 F3150 X53.936 Y48.279 E47.71651
G0 F3600 X54.502 Y48.279
G1 F3150 X64.717 Y58.495 E48.19702
G0 F3600 X64.717 Y57.929
G1 F3150 X55.068 Y48.279 E48.6509
G0 F3600 X55.633 Y48.279
G1 F3150 X64.717 Y57.364 E49.07821
G0 F3600 X64.717 Y56.798
G1 F3150 X56.199 Y48.279 E49.47889
G0 F3600 X56.765 Y48.279
G1 F3150 X64.717 Y56.232 E49.85295
G0 F3600 X64.717 Y55.666
G1 F3150 X57.33 Y48.279 E50.20041
G0 F3600 X57.896 Y48.279
G1 F3150 X64.717 Y55.101 E50.52128
G0 F3600 X65.27 Y55.087
G1 F3150 X58.462 Y48.279 E50.8415
G0 F3600 X59.027 Y48.279
G1 F3150 X65.835 Y55.087 E51.16173
G0 F3600 X66.401 Y55.087
G1 F3150 X59.593 Y48.279 E51.48196
G0 F3600 X60.159 Y48.279
G1 F3150 X66.967 Y55.087 E51.80219
G0 F3600 X67.532 Y55.087
G1 F3150 X60.724 Y48.279 E52.12241
G1 X60.654 Y48.209
G0 F3600 X48.279 Y54.502
G1 F3150 X70.497 Y76.719 E53.16746
G0 F3600 X69.931 Y76.719
G1 F3150 X48.279 Y55.068 E54.18588
G0 F3600 X48.279 Y55.633
G1 F3150 X69.365 Y76.719 E55.1777
G0 F3600 X68.8 Y76.719
G1 F3150 X48.279 Y56.199 E56.14292
G0 F3600 X48.279 Y56.765
G1 F3150 X68.234 Y76.719 E57.08152
G0 F3600 X67.668 Y76.719
G1 F3150 X48.279 Y57.33 E57.99352
G0 F3600 X48.279 Y57.896
G1 F3150 X67.103 Y76.719 E58.87892
G0 F3600 X66.537 Y76.719
G1 F3150 X48.279 Y58.462 E59.73769
G0 F3600 X48.279 Y59.027
G1 F3150 X65.971 Y76.719 E60.56987
G0 F3600 X65.405 Y76.719
G1 F3150 X48.279 Y59.593 E61.37543
G0 F3600 X48.279 Y60.159
G1 F3150 X64.84 Y76.719 E62.15438
G0 F3600 X64.274 Y76.719
G1 F3150 X48.279 Y60.724 E62.90674
G0 F3600 X48.279 Y61.29
G1 F3150 X63.708 Y76.719 E63.63247
G0 F3600 X63.143 Y76.719
G1 F3150 X48.279 Y61.856 E64.3316
G0 F3600 X48.279 Y62.421
G1 F3150 X62.577 Y76.719 E65.00414
G0 F3600 X62.011 Y76.719
G1 F3150 X48.279 Y62.987 E65.65005
G0 F3600 X48.279 Y63.553
G1 F3150 X61.446 Y76.719 E66.26936
G0 F3600 X60.88 Y76.719
G1 F3150 X48.279 Y64.119 E66.86205
G0 F3600 X48.279 Y64.684
G1 F3150 X60.314 Y76.719 E67.42814
G0 F3600 X59.749 Y76.719
G1 F3150 X48.279 Y65.25 E67.96763
G0 F3600 X48.279 Y65.816
G1 F3150 X59.183 Y76.719 E68.4805
G0 F3600 X58.617 Y76.719
G1 F3150 X48.279 Y66.381 E68.96676
G0 F3600 X48.279 Y66.947
G1 F3150 X58.052 Y76.719 E69.42643
G0 F3600 X57.486 Y76.719
G1 F3150 X48.279 Y67.513 E69.85948
G0 F3600 X48.279 Y68.078
G1 F3150 X56.92 Y76.719 E70.26592
G0 F3600 X56.354 Y76.719
G1 F3150 X48.279 Y68.644 E70.64575
G0 F3600 X48.279 Y69.21
G1 F3150 X55.789 Y76.719 E70.99897
G0 F3600 X55.223 Y76.719
G1 F3150 X48.279 Y69.775 E71.3256
G0 F3600 X48.279 Y70.341
G1 F3150 X54.657 Y76.719 E71.6256
G0 F3600 X54.092 Y76.719
G1 F3150 X48.279 Y70.907 E71.899
G0 F3600 X48.279 Y71.472
G1 F3150 X53.526 Y76.719 E72.1458
G0 F3600 X52.96 Y76.719
G1 F3150 X48.279 Y72.038 E72.36598
G0 F3600 X48.279 Y72.604
G1 F3150 X52.395 Y76.719 E72.55956
G0 F3600 X51.829 Y76.719
G1 F3150 X48.279 Y73.169 E72.72654
G0 F3600 X48.279 Y73.735
G1 F3150 X51.263 Y76.719 E72.8669
G0 F3600 X50.698 Y76.719
G1 F3150 X48.279 Y74.301 E72.98066
G0 F3600 X48.279 Y74.867
G1 F3150 X50.132 Y76.719 E73.0678
G0 F3600 X49.566 Y76.719
G1 F3150 X48.279 Y75.432 E73.12833
G0 F3600 X48.279 Y75.998
G1 F3150 X49.001 Y76.719 E73.16227
G0 F3600 X48.435 Y76.719
G1 F3150 X48.279 Y76.564 E73.16958
M104 S208
G0 F3600 X48.5 Y76.5
;MESH:NONMESH
G0 F600 X48.5 Y76.5 Z0.36
G0 F3600 X64.898 Y54.915
;TIME_ELAPSED:53.593799
;LAYER:1
M106 S255
;TYPE:WALL-INNER
;MESH:sub-ballast-v3.stl
G1 F4725 X64.898 Y70.385 E73.58121
G1 X67.798 Y70.385 E73.65838
G1 X67.798 Y54.915 E74.07
G1 X64.898 Y54.915 E74.14717
G0 F5400 X64.828 Y54.845
G0 X67.826 Y54.887
G0 X76.83 Y76.83
G0 X76.9 Y76.9
G1 F4725 X48.1 Y76.9 E74.91348
G1 X48.1 Y48.1 E75.67979
G1 X76.9 Y48.1 E76.44611
G1 X76.9 Y76.9 E77.21242
G0 F5400 X77.3 Y77.3
;TYPE:WALL-OUTER
G1 F3150 X47.7 Y77.3 E78.00002
G1 X47.7 Y47.7 E78.78762
G1 X77.3 Y47.7 E79.57522
G1 X77.3 Y77.3 E80.36282
G0 F5400 X77.1 Y77.3
G0 X76.83 Y76.83
G0 X67.826 Y54.887
G0 X64.87 Y54.887
G0 X65.298 Y55.315
G1 F3150 X65.298 Y69.985 E80.75316
G1 X67.398 Y69.985 E80.80904
G1 X67.398 Y55.315 E81.19938
G1 X65.298 Y55.315 E81.25526
G0 F5400 X65.298 Y55.515
G0 X64.798 Y55.515
G0 X48.279 Y48.452
;TYPE:SKIN
G1 F3150 X48.452 Y48.279 E81.26177
G0 F5400 X49.018 Y48.279
G1 F3150 X48.279 Y49.018 E81.28957
G0 F5400 X48.279 Y49.583
G1 F3150 X49.583 Y48.279 E81.33864
G0 F5400 X50.149 Y48.279
G1 F3150 X48.279 Y50.149 E81.40901
G0 F5400 X48.279 Y50.715
G1 F3150 X50.715 Y48.279 E81.50068
G0 F5400 X51.28 Y48.279
G1 F3150 X48.279 Y51.28 E81.6136
G0 F5400 X48.279 Y51.846
G1 F3150 X51.846 Y48.279 E81.74783
G0 F5400 X52.412 Y48.279
G1 F3150 X48.279 Y52.412 E81.90335
G0 F5400 X48.279 Y52.977
G1 F3150 X52.977 Y48.279 E82.08013
G0 F5400 X53.543 Y48.279
G1 F3150 X48.279 Y53.543 E82.27822
G0 F5400 X48.279 Y54.109
G1 F3150 X54.109 Y48.279 E82.4976
G0 F5400 X54.674 Y48.279
G1 F3150 X48.279 Y54.674 E82.73824
G0 F5400 X48.279 Y55.24
G1 F3150 X55.24 Y48.279 E83.00018
G0 F5400 X55.806 Y48.279
G1 F3150 X48.279 Y55.806 E83.28341
G0 F5400 X48.279 Y56.371
G1 F3150 X56.371 Y48.279 E83.58791
G0 F5400 X56.937 Y48.279
G1 F3150 X48.279 Y56.937 E83.91371
G0 F5400 X48.279 Y57.503
G1 F3150 X57.503 Y48.279 E84.2608
G0 F5400 X58.069 Y48.279
G1 F3150 X48.279 Y58.069 E84.6292
G0 F5400 X48.279 Y58.634
G1 F3150 X58.634 Y48.279 E85.01885
G0 F5400 X59.2 Y48.279
G1 F3150 X48.279 Y59.2 E85.4298
G0 F5400 X48.279 Y59.766
G1 F3150 X59.766 Y48.279 E85.86205
G0 F5400 X60.331 Y48.279
G1 F3150 X48.279 Y60.331 E86.31556
G0 F5400 X48.279 Y60.897
G1 F3150 X60.897 Y48.279 E86.79037
G0 F5400 X61.463 Y48.279
G1 F3150 X48.279 Y61.463 E87.28648
G0 F5400 X48.279 Y62.028
G1 F3150 X62.028 Y48.279 E87.80385
G0 F5400 X62.594 Y48.279
G1 F3150 X48.279 Y62.594 E88.34252
G0 F5400 X48.279 Y63.16
G1 F3150 X63.16 Y48.279 E88.90248
G0 F5400 X63.725 Y48.279
G1 F3150 X48.279 Y63.725 E89.48371
G0 F5400 X48.279 Y64.291
G1 F3150 X64.291 Y48.279 E90.08623
G0 F5400 X64.857 Y48.279
G1 F3150 X48.279 Y64.857 E90.71006
G0 F5400 X48.279 Y65.422
G1 F3150 X65.422 Y48.279 E91.35514
G0 F5400 X65.988 Y48.279
G1 F3150 X48.279 Y65.988 E92.02152
G0 F5400 X48.279 Y66.554
G1 F3150 X66.554 Y48.279 E92.7092
G0 F5400 X67.119 Y48.279
G1 F3150 X48.279 Y67.119 E93.41814
G0 F5400 X48.279 Y67.685
G1 F3150 X67.685 Y48.279 E94.14838
G0 F5400 X68.251 Y48.279
G1 F3150 X48.279 Y68.251 E94.89992
G0 F5400 X48.279 Y68.817
G1 F3150 X68.817 Y48.279 E95.67275
G0 F5400 X69.382 Y48.279
G1 F3150 X48.279 Y69.382 E96.46685
G0 F5400 X48.279 Y69.948
G1 F3150 X69.948 Y48.279 E97.28224
G0 F5400 X70.514 Y48.279
G1 F3150 X48.279 Y70.514 E98.11894
G0 F5400 X48.279 Y71.079
G1 F3150 X71.079 Y48.279 E98.97689
G0 F5400 X71.645 Y48.279
G1 F3150 X65.19 Y54.735 E99.21981
G0 F5400 X65.755 Y54.735
G1 F3150 X72.211 Y48.279 E99.46275
G0 F5400 X72.776 Y48.279
G1 F3150 X66.321 Y54.735 E99.70566
G0 F5400 X66.887 Y54.735
G1 F3150 X73.342 Y48.279 E99.94858
G0 F5400 X73.908 Y48.279
G1 F3150 X67.453 Y54.735 E100.1915
G0 F5400 X67.977 Y54.776
G1 F3150 X74.473 Y48.279 E100.43596
G0 F5400 X75.039 Y48.279
G1 F3150 X67.977 Y55.341 E100.7017
G0 F5400 X67.977 Y55.907
G1 F3150 X75.605 Y48.279 E100.98874
G0 F5400 X76.17 Y48.279
G1 F3150 X67.977 Y56.473 E101.29705
G0 F5400 X67.977 Y57.038
G1 F3150 X76.719 Y48.296 E101.62601
G0 F5400 X76.719 Y48.862
G1 F3150 X67.977 Y57.604 E101.95497
G0 F5400 X67.977 Y58.17
G1 F3150 X76.719 Y49.428 E102.28393
G0 F5400 X76.719 Y49.993
G1 F3150 X67.977 Y58.735 E102.61288
G0 F5400 X67.977 Y59.301
G1 F3150 X76.719 Y50.559 E102.94184
G0 F5400 X76.719 Y51.125
G1 F3150 X67.977 Y59.867 E103.2708
G0 F5400 X67.977 Y60.432
G1 F3150 X76.719 Y51.69 E103.59976
G0 F5400 X76.719 Y52.256
G1 F3150 X67.977 Y60.998 E103.92871
G0 F5400 X67.977 Y61.564
G1 F3150 X76.719 Y52.822 E104.25767
G0 F5400 X76.719 Y53.387
G1 F3150 X67.977 Y62.129 E104.58663
G0 F5400 X67.977 Y62.695
G1 F3150 X76.719 Y53.953 E104.91559
G0 F5400 X76.719 Y54.519
G1 F3150 X67.977 Y63.261 E105.24454
G0 F5400 X67.977 Y63.826
G1 F3150 X76.719 Y55.085 E105.57348
G0 F5400 X76.719 Y55.65
G1 F3150 X67.977 Y64.392 E105.90244
G0 F5400 X67.977 Y64.958
G1 F3150 X76.719 Y56.216 E106.2314
G0 F5400 X76.719 Y56.782
G1 F3150 X67.977 Y65.524 E106.56036
G0 F5400 X67.977 Y66.089
G1 F3150 X76.719 Y57.347 E106.88931
G0 F5400 X76.719 Y57.913
G1 F3150 X67.977 Y66.655 E107.21827
G0 F5400 X67.977 Y67.221
G1 F3150 X76.719 Y58.479 E107.54723
G0 F5400 X76.719 Y59.044
G1 F3150 X67.977 Y67.786 E107.87619
G0 F5400 X67.977 Y68.352
G1 F3150 X76.719 Y59.61 E108.20514
G0 F5400 X76.719 Y60.176
G1 F3150 X67.977 Y68.918 E108.5341
G0 F5400 X67.977 Y69.483
G1 F3150 X76.719 Y60.741 E108.86306
G0 F5400 X76.719 Y61.307
G1 F3150 X67.977 Y70.049 E109.19202
G0 F5400 X67.462 Y70.564
G1 F3150 X61.307 Y76.719 E109.42363
G0 F5400 X60.741 Y76.719
G1 F3150 X66.897 Y70.564 E109.65525
G0 F5400 X66.331 Y70.564
G1 F3150 X60.176 Y76.719 E109.88686
G0 F5400 X59.61 Y76.719
G1 F3150 X65.765 Y70.564 E110.11847
G0 F5400 X65.2 Y70.564
G1 F3150 X59.044 Y76.719 E110.3501
G0 F5400 X58.479 Y76.719
G1 F3150 X64.717 Y70.48 E110.58485
G0 F5400 X64.717 Y69.915
G1 F3150 X57.913 Y76.719 E110.84089
G0 F5400 X57.347 Y76.719
G1 F3150 X64.717 Y69.349 E111.11822
G0 F5400 X64.717 Y68.783
G1 F3150 X56.782 Y76.719 E111.41682
G0 F5400 X56.216 Y76.719
G1 F3150 X64.717 Y68.218 E111.73671
G0 F5400 X64.717 Y67.652
G1 F3150 X55.65 Y76.719 E112.0779
G0 F5400 X55.085 Y76.719
G1 F3150 X64.717 Y67.086 E112.44037
G0 F5400 X64.717 Y66.521
G1 F3150 X54.519 Y76.719 E112.82411
G0 F5400 X53.953 Y76.719
G1 F3150 X64.717 Y65.955 E113.22916
G0 F5400 X64.717 Y65.389
G1 F3150 X53.387 Y76.719 E113.6555
G0 F5400 X52.822 Y76.719
G1 F3150 X64.717 Y64.824 E114.1031
G0 F5400 X64.717 Y64.258
G1 F3150 X52.256 Y76.719 E114.57201
G0 F5400 X51.69 Y76.719
G1 F3150 X64.717 Y63.692 E115.06221
G0 F5400 X64.717 Y63.126
G1 F3150 X51.125 Y76.719 E115.57369
G0 F5400 X50.559 Y76.719
G1 F3150 X64.717 Y62.561 E116.10644
G0 F5400 X64.717 Y61.995
G1 F3150 X49.993 Y76.719 E116.6605
G0 F5400 X49.428 Y76.719
