;FLAVOR:Marlin
;TIME:1873
;Filament used: 1.52773m
;Layer height: 0.16
;MINX:20.2
;MINY:43.597
;MINZ:0.2
;MAXX:104.8
;MAXY:81.403
;MAXZ:3.24
;Generated with Cura_SteamEngine 4.12.1
M82 ;absolute extrusion mode
M104 S208.0 ;Set Hotend Temperature
M140 S58.0 ;Set Bed Temperature
G28 ;home
G90 ;absolute positioning
G1 X-10 Y-10 F3000 ;Move to corner 
G1 Z0 F1800 ;Go to zero offset
M109 S208.0 ;Wait for Hotend Temperature
M190 S58.0 ;Wait for Bed Temperature
G92 E0 ;Zero set extruder position
G1 E20 F200 ;Feed filament to clear nozzle
G92 E0 ;Zero set extruder position
G92 E0
G92 E0
G1 F1500 E-6.5
;LAYER_COUNT:20
;LAYER:0
M107
M205 X30 Y30
;MESH:bracket-left-top-v3.stl
G0 F3600 X23.498 Y57.141 Z0.2
M205 X20 Y20
;TYPE:WALL-INNER
G1 F1500 E0
G1 F2400 X24.104 Y57.257 E0.02052
G1 X24.723 Y57.219 E0.04115
G1 X25.31 Y57.028 E0.06168
G1 X25.832 Y56.697 E0.08224
G1 X26.255 Y56.245 E0.10283
G1 X26.551 Y55.704 E0.12334
G1 X26.705 Y55.107 E0.14384
G1 X26.705 Y54.488 E0.16443
G1 X26.551 Y53.891 E0.18494
G1 X26.254 Y53.349 E0.2055
G1 X25.831 Y52.898 E0.22606
G1 X25.31 Y52.568 E0.24657
G1 X24.723 Y52.376 E0.26711
G1 X24.104 Y52.338 E0.28774
G1 X23.498 Y52.454 E0.30826
G1 X22.939 Y52.717 E0.32881
G1 X22.463 Y53.11 E0.34934
G1 X22.1 Y53.61 E0.36989
G1 X21.872 Y54.185 E0.39046
G1 X21.795 Y54.798 E0.41101
G1 X21.873 Y55.41 E0.43153
G1 X22.1 Y55.985 E0.45209
G1 X22.463 Y56.485 E0.47264
G1 X22.939 Y56.878 E0.49318
G1 X23.498 Y57.141 E0.51372
M205 X30 Y30
G0 F3600 X21.956 Y68.817
G0 X22.241 Y69.926
G0 X23.498 Y71.161
M205 X20 Y20
G1 F2400 X24.104 Y71.277 E0.53424
G1 X24.723 Y71.239 E0.55487
G1 X25.31 Y71.048 E0.5754
G1 X25.832 Y70.717 E0.59596
G1 X26.255 Y70.265 E0.61655
G1 X26.551 Y69.724 E0.63706
G1 X26.705 Y69.127 E0.65757
G1 X26.705 Y68.508 E0.67816
G1 X26.551 Y67.911 E0.69866
G1 X26.254 Y67.369 E0.71922
G1 X25.831 Y66.918 E0.73978
G1 X25.31 Y66.588 E0.7603
G1 X24.723 Y66.396 E0.78084
G1 X24.104 Y66.358 E0.80146
G1 X23.498 Y66.474 E0.82199
G1 X22.939 Y66.737 E0.84253
G1 X22.463 Y67.13 E0.86306
G1 X22.1 Y67.63 E0.88361
G1 X21.872 Y68.205 E0.90419
G1 X21.795 Y68.818 E0.92474
G1 X21.873 Y69.43 E0.94526
G1 X22.1 Y70.005 E0.96582
G1 X22.463 Y70.505 E0.98637
G1 X22.939 Y70.898 E1.0069
G1 X23.498 Y71.161 E1.02745
M205 X30 Y30
G0 F3600 X41.127 Y76.317
M205 X20 Y20
G1 F2400 X42.227 Y76.379 E1.06409
G1 X67.068 Y76.379 E1.8903
G1 X68.168 Y76.317 E1.92695
G1 X69.271 Y76.13 E1.96416
G1 X70.346 Y75.82 E2.00137
G1 X71.38 Y75.391 E2.0386
G1 X72.359 Y74.851 E2.07579
G1 X73.271 Y74.204 E2.11298
G1 X74.105 Y73.458 E2.1502
G1 X74.851 Y72.624 E2.18741
G1 X75.498 Y71.712 E2.22461
G1 X76.039 Y70.733 E2.26181
G1 X76.467 Y69.699 E2.29903
G1 X76.777 Y68.624 E2.33624
G1 X76.964 Y67.521 E2.37345
G1 X77.027 Y66.404 E2.41066
G1 X76.964 Y65.288 E2.44784
G1 X76.777 Y64.184 E2.48508
G1 X76.467 Y63.11 E2.52226
G1 X76.039 Y62.076 E2.55948
G1 X75.498 Y61.097 E2.59668
G1 X74.851 Y60.185 E2.63387
G1 X74.105 Y59.351 E2.67109
G1 X73.271 Y58.605 E2.70831
G1 X72.359 Y57.958 E2.7455
G1 X71.38 Y57.417 E2.7827
G1 X70.346 Y56.989 E2.81992
G1 X69.271 Y56.679 E2.85713
G1 X68.168 Y56.492 E2.89434
G1 X67.068 Y56.43 E2.93099
G1 X42.227 Y56.43 E3.7572
G1 X41.127 Y56.492 E3.79385
G1 X40.024 Y56.679 E3.83106
G1 X38.95 Y56.989 E3.86824
G1 X37.915 Y57.417 E3.90549
G1 X36.936 Y57.958 E3.94269
G1 X36.024 Y58.605 E3.97988
G1 X35.19 Y59.351 E4.0171
G1 X34.445 Y60.185 E4.05429
G1 X33.797 Y61.097 E4.0915
G1 X33.256 Y62.076 E4.12871
G1 X32.829 Y63.11 E4.16591
G1 X32.519 Y64.184 E4.20309
G1 X32.331 Y65.287 E4.24031
G1 X32.268 Y66.404 E4.27752
G1 X32.331 Y67.522 E4.31476
G1 X32.519 Y68.624 E4.35195
G1 X32.829 Y69.699 E4.38916
G1 X33.256 Y70.733 E4.42637
G1 X33.797 Y71.712 E4.46357
G1 X34.445 Y72.624 E4.50078
G1 X35.19 Y73.458 E4.53797
G1 X36.024 Y74.204 E4.57519
G1 X36.936 Y74.851 E4.61238
G1 X37.915 Y75.391 E4.64957
G1 X38.95 Y75.82 E4.68683
G1 X40.024 Y76.13 E4.72401
G1 X41.127 Y76.317 E4.76122
M205 X30 Y30
G0 F3600 X67.07 Y76.218
G0 X68.149 Y76.157
G0 X69.233 Y75.974
G0 X83.498 Y71.161
M205 X20 Y20
G1 F2400 X84.104 Y71.277 E4.78174
G1 X84.723 Y71.239 E4.80237
G1 X85.31 Y71.048 E4.8229
G1 X85.832 Y70.717 E4.84346
G1 X86.255 Y70.265 E4.86405
G1 X86.551 Y69.724 E4.88456
G1 X86.705 Y69.127 E4.90507
G1 X86.705 Y68.508 E4.92565
G1 X86.551 Y67.911 E4.94616
G1 X86.254 Y67.369 E4.96672
G1 X85.831 Y66.918 E4.98728
G1 X85.31 Y66.588 E5.00779
G1 X84.723 Y66.396 E5.02834
G1 X84.104 Y66.358 E5.04896
G1 X83.498 Y66.474 E5.06948
G1 X82.939 Y66.737 E5.09003
G1 X82.463 Y67.13 E5.11056
G1 X82.1 Y67.63 E5.13111
G1 X81.872 Y68.205 E5.15169
G1 X81.795 Y68.818 E5.17223
G1 X81.873 Y69.43 E5.19275
G1 X82.1 Y70.005 E5.21332
G1 X82.463 Y70.505 E5.23387
G1 X82.939 Y70.898 E5.2544
G1 X83.498 Y71.161 E5.27494
M205 X30 Y30
G0 F3600 X91.871 Y70.928
M205 X20 Y20
G1 F2400 X92.433 Y71.001 E5.29379
G1 X92.994 Y70.928 E5.31261
G1 X93.519 Y70.71 E5.33152
G1 X93.969 Y70.365 E5.35038
G1 X94.314 Y69.916 E5.36921
G1 X94.532 Y69.391 E5.38812
G1 X94.6 Y68.868 E5.40566
G1 X94.6 Y56.749 E5.80874
G1 X94.532 Y56.227 E5.82625
G1 X94.314 Y55.702 E5.84515
G1 X93.969 Y55.252 E5.86401
G1 X93.519 Y54.907 E5.88287
G1 X92.994 Y54.689 E5.90178
G1 X92.433 Y54.616 E5.9206
G1 X91.871 Y54.689 E5.93944
G1 X91.346 Y54.907 E5.95835
G1 X90.896 Y55.252 E5.97721
G1 X90.55 Y55.703 E5.99612
G1 X90.334 Y56.227 E6.01497
G1 X90.265 Y56.749 E6.03248
G1 X90.265 Y68.868 E6.43556
G1 X90.334 Y69.391 E6.45311
G1 X90.55 Y69.915 E6.47196
G1 X90.896 Y70.365 E6.49084
G1 X91.346 Y70.71 E6.5097
G1 X91.871 Y70.928 E6.5286
M205 X30 Y30
G0 F3600 X96.69 Y72.856
M205 X20 Y20
G1 F2400 X96.368 Y73.121 E6.54247
G1 X88.819 Y80.668 E6.89751
G1 X88.444 Y80.919 E6.91252
G1 X88.019 Y81.002 E6.92692
G1 X36.982 Y81.003 E8.62442
G1 X36.546 Y80.917 E8.6392
G1 X36.177 Y80.666 E8.65404
G1 X28.624 Y73.116 E9.00924
G1 X28.311 Y72.857 E9.02275
G1 X27.905 Y72.64 E9.03806
G1 X27.479 Y72.513 E9.05285
G1 X27.079 Y72.473 E9.06622
G1 X21.621 Y72.471 E9.24775
G1 X21.346 Y72.434 E9.25698
G1 X21.106 Y72.334 E9.26563
G1 X20.901 Y72.174 E9.27428
G1 X20.74 Y71.961 E9.28316
G1 X20.64 Y71.716 E9.29196
G1 X20.6 Y71.409 E9.30226
G1 X20.601 Y45.043 E10.1792
G1 X20.639 Y44.759 E10.18873
G1 X20.74 Y44.51 E10.19766
G1 X20.901 Y44.297 E10.20654
G1 X21.106 Y44.137 E10.21519
G1 X21.346 Y44.037 E10.22384
G1 X21.643 Y43.997 E10.23381
G1 X27.009 Y43.997 E10.41228
G1 X27.33 Y44.061 E10.42317
G1 X27.619 Y44.257 E10.43478
G1 X35.151 Y51.787 E10.78902
G1 X35.514 Y52.087 E10.80468
G1 X35.964 Y52.329 E10.82167
G1 X36.452 Y52.479 E10.83866
G1 X36.931 Y52.527 E10.85467
G1 X82.939 Y52.527 E12.3849
G1 X83.341 Y52.528 E12.39827
G1 X82.939 Y52.717 E12.40258
G1 X82.463 Y53.11 E12.42311
G1 X82.1 Y53.61 E12.44366
G1 X81.872 Y54.185 E12.46423
G1 X81.795 Y54.798 E12.48478
G1 X81.873 Y55.41 E12.5053
G1 X82.1 Y55.985 E12.52586
G1 X82.463 Y56.485 E12.54641
G1 X82.939 Y56.878 E12.56694
G1 X83.498 Y57.141 E12.58749
G1 X84.104 Y57.257 E12.60801
G1 X84.723 Y57.219 E12.62864
G1 X85.31 Y57.028 E12.64917
G1 X85.832 Y56.697 E12.66973
G1 X86.255 Y56.245 E12.69032
G1 X86.551 Y55.704 E12.71083
G1 X86.705 Y55.107 E12.73133
G1 X86.705 Y54.488 E12.75192
G1 X86.551 Y53.891 E12.77243
G1 X86.254 Y53.349 E12.79299
G1 X85.831 Y52.898 E12.81355
G1 X85.31 Y52.568 E12.83406
G1 X85.188 Y52.528 E12.83833
G1 X85.831 Y52.528 E12.84992
G1 X88.067 Y52.528 E12.92429
G1 X88.536 Y52.483 E12.93996
G1 X89.036 Y52.33 E12.95735
G1 X89.492 Y52.082 E12.97461
G1 X89.858 Y51.781 E12.99038
G1 X97.392 Y44.247 E13.34475
G1 X97.674 Y44.06 E13.35601
G1 X97.992 Y43.998 E13.36678
G1 X103.361 Y43.998 E13.54536
G1 X103.662 Y44.04 E13.55546
G1 X103.891 Y44.136 E13.56372
G1 X104.101 Y44.299 E13.57256
G1 X104.259 Y44.51 E13.58133
G1 X104.361 Y44.761 E13.59034
G1 X104.4 Y45.062 E13.60044
G1 X104.4 Y71.408 E14.47671
G1 X104.36 Y71.712 E14.48691
G1 X104.259 Y71.963 E14.49591
G1 X104.108 Y72.166 E14.50432
G1 X103.891 Y72.334 E14.51345
G1 X103.654 Y72.433 E14.52199
G1 X103.376 Y72.472 E14.53133
G1 X97.922 Y72.472 E14.71273
G1 X97.508 Y72.514 E14.72657
G1 X97.083 Y72.645 E14.74136
G1 X96.69 Y72.856 E14.7562
M205 X30 Y30
G0 F3600 X99.708 Y71.164
M205 X20 Y20
G1 F2400 X100.313 Y71.277 E14.77667
G1 X100.913 Y71.241 E14.79666
G1 X101.49 Y71.056 E14.81681
G1 X102.023 Y70.724 E14.8377
G1 X102.419 Y70.305 E14.85687
G1 X102.475 Y70.23 E14.85999
G1 X102.755 Y69.714 E14.87951
G1 X102.905 Y69.103 E14.90044
G1 X102.901 Y68.483 E14.92106
G1 X102.739 Y67.885 E14.94167
G1 X102.438 Y67.351 E14.96205
G1 X102.038 Y66.924 E14.98151
G1 X101.532 Y66.602 E15.00146
G1 X100.947 Y66.403 E15.02202
G1 X100.315 Y66.356 E15.04309
G1 X99.706 Y66.471 E15.06371
G1 X99.187 Y66.713 E15.08275
G1 X99.108 Y66.761 E15.08583
G1 X98.656 Y67.138 E15.1054
G1 X98.29 Y67.653 E15.12642
G1 X98.069 Y68.227 E15.14688
G1 X97.995 Y68.827 E15.16698
G1 X98.07 Y69.422 E15.18693
G1 X98.295 Y69.997 E15.20747
G1 X98.641 Y70.475 E15.22709
G1 X98.706 Y70.541 E15.23017
G1 X99.148 Y70.904 E15.2492
G1 X99.708 Y71.164 E15.26973
M205 X30 Y30
G0 F3600 X98.764 Y70.37
G0 X98.228 Y69.384
G0 X99.698 Y57.141
M205 X20 Y20
G1 F2400 X100.304 Y57.257 E15.29025
G1 X100.923 Y57.219 E15.31088
G1 X101.51 Y57.028 E15.33141
G1 X102.032 Y56.697 E15.35197
G1 X102.455 Y56.245 E15.37256
G1 X102.751 Y55.704 E15.39307
G1 X102.905 Y55.107 E15.41358
G1 X102.905 Y54.488 E15.43417
G1 X102.751 Y53.891 E15.45467
G1 X102.454 Y53.349 E15.47523
G1 X102.031 Y52.898 E15.49579
G1 X101.51 Y52.568 E15.51631
G1 X100.923 Y52.376 E15.53685
G1 X100.304 Y52.338 E15.55747
G1 X99.698 Y52.454 E15.578
G1 X99.139 Y52.717 E15.59854
G1 X98.663 Y53.11 E15.61907
G1 X98.3 Y53.61 E15.63962
G1 X98.072 Y54.185 E15.6602
G1 X97.995 Y54.798 E15.68075
G1 X98.073 Y55.41 E15.70127
G1 X98.3 Y55.985 E15.72183
G1 X98.663 Y56.485 E15.74238
G1 X99.139 Y56.878 E15.76291
G1 X99.698 Y57.141 E15.78345
M205 X30 Y30
G0 F3600 X99.823 Y56.758
M205 X20 Y20
;TYPE:WALL-OUTER
G1 F2400 X100.33 Y56.855 E15.80062
G1 X100.847 Y56.823 E15.81785
G1 X101.338 Y56.663 E15.83503
G1 X101.775 Y56.386 E15.85224
G1 X102.128 Y56.009 E15.86941
G1 X102.376 Y55.556 E15.88659
G1 X102.505 Y55.056 E15.90377
G1 X102.505 Y54.539 E15.92096
G1 X102.376 Y54.039 E15.93814
G1 X102.128 Y53.586 E15.95531
G1 X101.774 Y53.209 E15.97251
G1 X101.338 Y52.933 E15.98968
G1 X100.847 Y52.772 E16.00686
G1 X100.33 Y52.74 E16.02409
G1 X99.823 Y52.837 E16.04126
G1 X99.355 Y53.057 E16.05846
G1 X98.957 Y53.386 E16.07563
G1 X98.653 Y53.804 E16.09282
G1 X98.463 Y54.285 E16.11003
G1 X98.398 Y54.798 E16.12722
G1 X98.463 Y55.31 E16.14439
G1 X98.653 Y55.791 E16.16159
G1 X98.957 Y56.209 E16.17878
G1 X99.355 Y56.538 E16.19596
G1 X99.823 Y56.758 E16.21316
M205 X30 Y30
G0 F3600 X100.019 Y56.795
G0 X99.963 Y57.089
G0 X98.156 Y68.826
G0 X98.436 Y69.918
G0 X99.053 Y70.617
G0 X99.776 Y71.074
G0 X99.831 Y70.78
M205 X20 Y20
G1 F2400 X100.338 Y70.875 E16.23031
G1 X100.839 Y70.845 E16.24701
G1 X101.321 Y70.69 E16.26385
G1 X101.768 Y70.412 E16.28135
G1 X102.113 Y70.046 E16.29808
G1 X102.138 Y70.013 E16.29946
G1 X102.379 Y69.569 E16.31626
G1 X102.505 Y69.056 E16.33383
G1 X102.501 Y68.538 E16.35106
G1 X102.366 Y68.038 E16.36829
G1 X102.113 Y67.589 E16.38543
G1 X101.781 Y67.234 E16.4016
G1 X101.358 Y66.965 E16.41827
G1 X100.867 Y66.798 E16.43552
G1 X100.338 Y66.759 E16.45316
G1 X99.83 Y66.855 E16.47036
G1 X99.375 Y67.067 E16.48705
G1 X99.34 Y67.088 E16.48841
G1 X98.952 Y67.412 E16.50522
G1 X98.645 Y67.844 E16.52285
G1 X98.46 Y68.325 E16.53999
G1 X98.398 Y68.826 E16.55678
G1 X98.461 Y69.323 E16.57344
G1 X98.649 Y69.804 E16.59062
G1 X98.946 Y70.215 E16.60748
G1 X98.975 Y70.244 E16.60885
G1 X99.363 Y70.563 E16.62555
G1 X99.831 Y70.78 E16.64271
M205 X30 Y30
G0 F3600 X100.027 Y70.816
G0 X99.971 Y71.111
G0 X96.724 Y72.958
G0 X96.914 Y73.19
M205 X20 Y20
G1 F2400 X96.637 Y73.418 E16.65464
G1 X89.092 Y80.961 E17.00949
G1 X88.864 Y81.15 E17.01934
G1 X88.599 Y81.29 E17.02931
G1 X88.32 Y81.374 E17.039
G1 X88.039 Y81.402 E17.04839
G1 X36.962 Y81.403 E18.74722
G1 X36.667 Y81.373 E18.75708
G1 X36.391 Y81.288 E18.76669
G1 X36.138 Y81.153 E18.77623
G1 X35.905 Y80.96 E18.78629
G1 X28.355 Y73.412 E19.14137
G1 X28.087 Y73.191 E19.15292
G1 X27.752 Y73.012 E19.16556
G1 X27.401 Y72.907 E19.17774
G1 X27.059 Y72.873 E19.18917
G1 X21.598 Y72.871 E19.37081
G1 X21.238 Y72.823 E19.38289
G1 X20.904 Y72.683 E19.39493
G1 X20.612 Y72.455 E19.40725
G1 X20.389 Y72.161 E19.41953
G1 X20.25 Y71.818 E19.43184
G1 X20.2 Y71.438 E19.44458
G1 X20.201 Y45.02 E20.32325
G1 X20.25 Y44.653 E20.33557
G1 X20.389 Y44.31 E20.34788
G1 X20.612 Y44.016 E20.36015
G1 X20.904 Y43.788 E20.37247
G1 X21.238 Y43.648 E20.38452
G1 X21.62 Y43.597 E20.39733
G1 X27.047 Y43.597 E20.57784
G1 X27.489 Y43.685 E20.59283
G1 X27.875 Y43.947 E20.60834
G1 X35.42 Y51.491 E20.96321
G1 X35.738 Y51.753 E20.97692
G1 X36.119 Y51.958 E20.99131
G1 X36.532 Y52.085 E21.00568
G1 X36.951 Y52.127 E21.01968
G1 X88.048 Y52.128 E22.71918
G1 X88.457 Y52.089 E22.73284
G1 X88.88 Y51.959 E22.74756
G1 X89.267 Y51.749 E22.76221
G1 X89.589 Y51.484 E22.77608
G1 X97.135 Y43.938 E23.13102
G1 X97.521 Y43.682 E23.14642
G1 X97.951 Y43.598 E23.16099
G1 X103.387 Y43.598 E23.3418
G1 X103.77 Y43.651 E23.35466
G1 X104.096 Y43.788 E23.36642
G1 X104.388 Y44.015 E23.37872
G1 X104.611 Y44.312 E23.39107
G1 X104.751 Y44.659 E23.40352
G1 X104.8 Y45.033 E23.41606
G1 X104.8 Y71.437 E24.29426
G1 X104.751 Y71.814 E24.30691
G1 X104.612 Y72.158 E24.31925
G1 X104.393 Y72.451 E24.33141
G1 X104.096 Y72.682 E24.34393
G1 X103.762 Y72.822 E24.35597
G1 X103.402 Y72.872 E24.36806
G1 X97.942 Y72.872 E24.54966
G1 X97.588 Y72.908 E24.5615
G1 X97.238 Y73.016 E24.57368
G1 X96.914 Y73.19 E24.58591
M205 X30 Y30
G0 F3600 X96.76 Y73.317
G0 X96.57 Y73.085
G0 X91.937 Y70.834
G0 X91.975 Y70.538
M205 X20 Y20
G1 F2400 X92.433 Y70.598 E24.60128
G1 X92.89 Y70.538 E24.61661
G1 X93.317 Y70.361 E24.63198
G1 X93.684 Y70.08 E24.64735
G1 X93.965 Y69.714 E24.6627
G1 X94.142 Y69.287 E24.67807
G1 X94.2 Y68.842 E24.693
G1 X94.2 Y56.775 E25.09435
G1 X94.142 Y56.331 E25.10924
G1 X93.965 Y55.904 E25.12462
G1 X93.684 Y55.537 E25.13999
G1 X93.317 Y55.256 E25.15536
G1 X92.89 Y55.079 E25.17074
G1 X92.433 Y55.019 E25.18607
G1 X91.975 Y55.079 E25.20143
G1 X91.548 Y55.256 E25.21681
G1 X91.181 Y55.537 E25.23218
G1 X90.9 Y55.904 E25.24755
G1 X90.724 Y56.331 E25.26291
G1 X90.665 Y56.775 E25.27781
G1 X90.665 Y68.842 E25.67916
G1 X90.724 Y69.287 E25.69409
G1 X90.9 Y69.714 E25.70945
G1 X91.181 Y70.08 E25.7248
G1 X91.548 Y70.361 E25.74017
G1 X91.975 Y70.538 E25.75555
M205 X30 Y30
G0 F3600 X92.173 Y70.564
G0 X92.135 Y70.86
G0 X84.918 Y71.089
G0 X83.567 Y71.071
G0 X83.623 Y70.778
M205 X20 Y20
G1 F2400 X84.13 Y70.875 E25.77272
G1 X84.647 Y70.843 E25.78994
G1 X85.138 Y70.683 E25.80712
G1 X85.575 Y70.406 E25.82433
G1 X85.928 Y70.029 E25.84151
G1 X86.176 Y69.576 E25.85868
G1 X86.305 Y69.076 E25.87586
G1 X86.305 Y68.559 E25.89305
G1 X86.176 Y68.059 E25.91023
G1 X85.928 Y67.606 E25.92741
G1 X85.574 Y67.229 E25.94461
G1 X85.138 Y66.953 E25.96177
G1 X84.647 Y66.792 E25.97896
G1 X84.13 Y66.76 E25.99618
G1 X83.623 Y66.857 E26.01335
G1 X83.155 Y67.077 E26.03055
G1 X82.757 Y67.406 E26.04773
G1 X82.453 Y67.824 E26.06492
G1 X82.263 Y68.305 E26.08212
G1 X82.198 Y68.818 E26.09932
G1 X82.263 Y69.33 E26.11648
G1 X82.453 Y69.811 E26.13368
G1 X82.757 Y70.229 E26.15088
G1 X83.155 Y70.558 E26.16805
G1 X83.623 Y70.778 E26.18525
M205 X30 Y30
G0 F3600 X83.819 Y70.815
G0 X83.763 Y71.109
G0 X83.026 Y70.76
G0 X82.241 Y69.926
G0 X81.971 Y68.927
G0 X83.567 Y57.051
G0 X83.623 Y56.758
M205 X20 Y20
G1 F2400 X84.13 Y56.855 E26.20242
G1 X84.647 Y56.823 E26.21965
G1 X85.138 Y56.663 E26.23682
G1 X85.575 Y56.386 E26.25403
G1 X85.928 Y56.009 E26.27121
G1 X86.176 Y55.556 E26.28839
G1 X86.305 Y55.056 E26.30556
G1 X86.305 Y54.539 E26.32276
G1 X86.176 Y54.039 E26.33993
G1 X85.928 Y53.586 E26.35711
G1 X85.574 Y53.209 E26.37431
G1 X85.138 Y52.933 E26.39147
G1 X84.647 Y52.772 E26.40866
G1 X84.13 Y52.74 E26.42589
G1 X83.623 Y52.837 E26.44305
G1 X83.155 Y53.057 E26.46025
G1 X82.757 Y53.386 E26.47743
G1 X82.453 Y53.804 E26.49462
G1 X82.263 Y54.285 E26.51182
G1 X82.198 Y54.798 E26.52902
G1 X82.263 Y55.31 E26.54619
G1 X82.453 Y55.791 E26.56339
G1 X82.757 Y56.209 E26.58058
G1 X83.155 Y56.538 E26.59775
