;FLAVOR:Marlin
;TIME:4923
;Filament used: 5.74964m
;Layer height: 0.16
;MINX:6.213
;MINY:6.213
;MINZ:0.2
;MAXX:118.787
;MAXY:118.787
;MAXZ:27.08
;Generated with Cura_SteamEngine 4.12.1
M82 ;absolute extrusion mode
M104 S208.0 ;Set Hotend Temperature
M140 S58.0 ;Set Bed Temperature
G28 ;home
G90 ;absolute positioning
G1 X-10 Y-10 F3000 ;Move to corner 
G1 Z0 F1800 ;Go to zero offset
M109 S208.0 ;Wait for Hotend Temperature
M190 S58.0 ;Wait for Bed Temperature
G92 E0 ;Zero set extruder position
G1 E20 F200 ;Feed filament to clear nozzle
G92 E0 ;Zero set extruder position
G92 E0
G92 E0
G1 F1500 E-6.5
;LAYER_COUNT:169
;LAYER:0
M107
;MESH:ballast-tray-v2.stl
G0 F3600 X118.221 Y90.784 Z0.2
;TYPE:WALL-INNER
G1 F1500 E0
G1 F3150 X90.784 Y118.221 E1.29055
G1 X6.779 Y34.216 E5.24189
G1 X34.216 Y6.779 E6.53244
G1 X118.221 Y90.784 E10.48378
G0 F3600 X118.787 Y90.784
;TYPE:WALL-OUTER
G1 F3150 X90.784 Y118.787 E11.80096
G1 X6.213 Y34.216 E15.77892
G1 X34.216 Y6.213 E17.09609
G1 X118.787 Y90.784 E21.07405
G0 F3600 X118.646 Y90.925
G0 X117.951 Y90.798
;TYPE:SKIN
G1 F3150 X34.2 Y7.047 E25.01344
G0 F3600 X33.917 Y7.33
G1 F3150 X117.668 Y91.081 E28.95283
G0 F3600 X117.386 Y91.364
G1 F3150 X33.634 Y7.613 E32.89225
G0 F3600 X33.352 Y7.896
G1 F3150 X117.103 Y91.647 E36.83164
G0 F3600 X116.82 Y91.93
G1 F3150 X33.069 Y8.179 E40.77103
G0 F3600 X32.786 Y8.461
G1 F3150 X116.537 Y92.213 E44.71044
G0 F3600 X116.254 Y92.495
G1 F3150 X32.503 Y8.744 E48.64983
G0 F3600 X32.22 Y9.027
G1 F3150 X115.971 Y92.778 E52.58922
G0 F3600 X115.689 Y93.061
G1 F3150 X31.937 Y9.31 E56.52863
G0 F3600 X31.655 Y9.593
G1 F3150 X115.406 Y93.344 E60.46802
G0 F3600 X115.123 Y93.627
G1 F3150 X31.372 Y9.876 E64.40742
G0 F3600 X31.089 Y10.159
G1 F3150 X114.84 Y93.91 E68.34681
G0 F3600 X114.557 Y94.192
G1 F3150 X30.806 Y10.441 E72.2862
G0 F3600 X30.523 Y10.724
G1 F3150 X114.274 Y94.475 E76.22559
G0 F3600 X113.991 Y94.758
G1 F3150 X30.24 Y11.007 E80.16498
G0 F3600 X29.957 Y11.29
G1 F3150 X113.709 Y95.041 E84.10439
G0 F3600 X113.426 Y95.324
G1 F3150 X29.675 Y11.573 E88.04378
G0 F3600 X29.392 Y11.856
G1 F3150 X113.143 Y95.607 E91.98317
G0 F3600 X112.86 Y95.89
G1 F3150 X29.109 Y12.138 E95.92258
G0 F3600 X28.826 Y12.421
G1 F3150 X112.577 Y96.172 E99.86197
G0 F3600 X112.294 Y96.455
G1 F3150 X28.543 Y12.704 E103.80136
G0 F3600 X28.26 Y12.987
G1 F3150 X112.012 Y96.738 E107.74078
G0 F3600 X111.729 Y97.021
G1 F3150 X27.978 Y13.27 E111.68017
G0 F3600 X27.695 Y13.553
G1 F3150 X111.446 Y97.304 E115.61956
G0 F3600 X111.163 Y97.587
G1 F3150 X27.412 Y13.835 E119.55897
G0 F3600 X27.129 Y14.118
G1 F3150 X110.88 Y97.869 E123.49836
G0 F3600 X110.597 Y98.152
G1 F3150 X26.846 Y14.401 E127.43775
G0 F3600 X26.563 Y14.684
G1 F3150 X110.315 Y98.435 E131.37717
G0 F3600 X110.032 Y98.718
G1 F3150 X26.281 Y14.967 E135.31656
G0 F3600 X25.998 Y15.25
G1 F3150 X109.749 Y99.001 E139.25595
G0 F3600 X109.466 Y99.284
G1 F3150 X25.715 Y15.533 E143.19534
G0 F3600 X25.432 Y15.815
G1 F3150 X109.183 Y99.566 E147.13473
G0 F3600 X108.9 Y99.849
G1 F3150 X25.149 Y16.098 E151.07412
G0 F3600 X24.866 Y16.381
G1 F3150 X108.617 Y100.132 E155.01351
G0 F3600 X108.335 Y100.415
G1 F3150 X24.583 Y16.664 E158.95292
G0 F3600 X24.301 Y16.947
G1 F3150 X108.052 Y100.698 E162.89231
G0 F3600 X107.769 Y100.981
G1 F3150 X24.018 Y17.23 E166.8317
G0 F3600 X23.735 Y17.512
G1 F3150 X107.486 Y101.264 E170.77112
G0 F3600 X107.203 Y101.546
G1 F3150 X23.452 Y17.795 E174.71051
G0 F3600 X23.169 Y18.078
G1 F3150 X106.92 Y101.829 E178.6499
G0 F3600 X106.638 Y102.112
G1 F3150 X22.886 Y18.361 E182.58931
G0 F3600 X22.604 Y18.644
G1 F3150 X106.355 Y102.395 E186.5287
G0 F3600 X106.072 Y102.678
G1 F3150 X22.321 Y18.927 E190.46809
G0 F3600 X22.038 Y19.209
G1 F3150 X105.789 Y102.961 E194.40751
G0 F3600 X105.506 Y103.243
G1 F3150 X21.755 Y19.492 E198.3469
G0 F3600 X21.472 Y19.775
G1 F3150 X105.223 Y103.526 E202.28629
G0 F3600 X104.941 Y103.809
G1 F3150 X21.189 Y20.058 E206.2257
G0 F3600 X20.907 Y20.341
G1 F3150 X104.658 Y104.092 E210.16509
G0 F3600 X104.375 Y104.375
G1 F3150 X20.624 Y20.624 E214.10448
G0 F3600 X20.341 Y20.907
G1 F3150 X104.092 Y104.658 E218.04387
G0 F3600 X103.809 Y104.941
G1 F3150 X20.058 Y21.189 E221.98328
G0 F3600 X19.775 Y21.472
G1 F3150 X103.526 Y105.223 E225.92267
G0 F3600 X103.243 Y105.506
G1 F3150 X19.492 Y21.755 E229.86206
G0 F3600 X19.209 Y22.038
G1 F3150 X102.961 Y105.789 E233.80148
G0 F3600 X102.678 Y106.072
G1 F3150 X18.927 Y22.321 E237.74087
G0 F3600 X18.644 Y22.604
G1 F3150 X102.395 Y106.355 E241.68026
G0 F3600 X102.112 Y106.638
G1 F3150 X18.361 Y22.886 E245.61967
G0 F3600 X18.078 Y23.169
G1 F3150 X101.829 Y106.92 E249.55906
G0 F3600 X101.546 Y107.203
G1 F3150 X17.795 Y23.452 E253.49845
G0 F3600 X17.512 Y23.735
G1 F3150 X101.264 Y107.486 E257.43787
G0 F3600 X100.981 Y107.769
G1 F3150 X17.23 Y24.018 E261.37726
G0 F3600 X16.947 Y24.301
G1 F3150 X100.698 Y108.052 E265.31665
G0 F3600 X100.415 Y108.335
G1 F3150 X16.664 Y24.583 E269.25606
G0 F3600 X16.381 Y24.866
G1 F3150 X100.132 Y108.617 E273.19545
G0 F3600 X99.849 Y108.9
G1 F3150 X16.098 Y25.149 E277.13484
G0 F3600 X15.815 Y25.432
G1 F3150 X99.566 Y109.183 E281.07423
G0 F3600 X99.284 Y109.466
G1 F3150 X15.533 Y25.715 E285.01362
G0 F3600 X15.25 Y25.998
G1 F3150 X99.001 Y109.749 E288.95301
G0 F3600 X98.718 Y110.032
G1 F3150 X14.967 Y26.281 E292.8924
G0 F3600 X14.684 Y26.563
G1 F3150 X98.435 Y110.315 E296.83182
G0 F3600 X98.152 Y110.597
G1 F3150 X14.401 Y26.846 E300.77121
G0 F3600 X14.118 Y27.129
G1 F3150 X97.869 Y110.88 E304.7106
G0 F3600 X97.587 Y111.163
G1 F3150 X13.835 Y27.412 E308.65001
G0 F3600 X13.553 Y27.695
G1 F3150 X97.304 Y111.446 E312.5894
G0 F3600 X97.021 Y111.729
G1 F3150 X13.27 Y27.978 E316.52879
G0 F3600 X12.987 Y28.26
G1 F3150 X96.738 Y112.012 E320.46821
G0 F3600 X96.455 Y112.294
G1 F3150 X12.704 Y28.543 E324.4076
G0 F3600 X12.421 Y28.826
G1 F3150 X96.172 Y112.577 E328.34699
G0 F3600 X95.89 Y112.86
G1 F3150 X12.138 Y29.109 E332.2864
G0 F3600 X11.856 Y29.392
G1 F3150 X95.607 Y113.143 E336.22579
G0 F3600 X95.324 Y113.426
G1 F3150 X11.573 Y29.675 E340.16518
G0 F3600 X11.29 Y29.957
G1 F3150 X95.041 Y113.709 E344.10459
G0 F3600 X94.758 Y113.991
G1 F3150 X11.007 Y30.24 E348.04398
G0 F3600 X10.724 Y30.523
G1 F3150 X94.475 Y114.274 E351.98337
G0 F3600 X94.192 Y114.557
G1 F3150 X10.441 Y30.806 E355.92277
G0 F3600 X10.159 Y31.089
G1 F3150 X93.91 Y114.84 E359.86216
G0 F3600 X93.627 Y115.123
G1 F3150 X9.876 Y31.372 E363.80155
G0 F3600 X9.593 Y31.655
G1 F3150 X93.344 Y115.406 E367.74094
G0 F3600 X93.061 Y115.689
G1 F3150 X9.31 Y31.937 E371.68035
G0 F3600 X9.027 Y32.22
G1 F3150 X92.778 Y115.971 E375.61974
G0 F3600 X92.495 Y116.254
G1 F3150 X8.744 Y32.503 E379.55913
G0 F3600 X8.461 Y32.786
G1 F3150 X92.213 Y116.537 E383.49854
G0 F3600 X91.93 Y116.82
G1 F3150 X8.179 Y33.069 E387.43793
G0 F3600 X7.896 Y33.352
G1 F3150 X91.647 Y117.103 E391.37732
G0 F3600 X91.364 Y117.386
G1 F3150 X7.613 Y33.634 E395.31674
G0 F3600 X7.33 Y33.917
G1 F3150 X91.081 Y117.668 E399.25613
G0 F3600 X90.798 Y117.951
G1 F3150 X7.047 Y34.2 E403.19552
G1 X6.977 Y34.13
M104 S208
G0 F3600 X7.343 Y34.216
;MESH:NONMESH
G0 F600 X7.343 Y34.216 Z0.36
G0 F3600 X118.121 Y90.784
G0 X118.221 Y90.784
;TIME_ELAPSED:241.746108
;LAYER:1
M106 S255
;TYPE:WALL-INNER
;MESH:ballast-tray-v2.stl
G1 F4725 X90.784 Y118.221 E404.22796
G1 X6.779 Y34.216 E407.38903
G1 X34.216 Y6.779 E408.42147
G1 X118.221 Y90.784 E411.58254
G0 F5400 X118.787 Y90.784
;TYPE:WALL-OUTER
G1 F3150 X90.784 Y118.787 E412.63628
G1 X6.213 Y34.216 E415.81865
G1 X34.216 Y6.213 E416.87239
G1 X118.787 Y90.784 E420.05476
G0 F5400 X118.646 Y90.925
G0 X117.96 Y90.777
;TYPE:SKIN
G1 F3150 X90.777 Y117.96 E421.07764
G0 F5400 X90.494 Y117.677
G1 F3150 X117.677 Y90.494 E422.10053
G0 F5400 X117.394 Y90.211
G1 F3150 X90.211 Y117.394 E423.12341
G0 F5400 X89.929 Y117.111
G1 F3150 X117.111 Y89.929 E424.14626
G0 F5400 X116.828 Y89.646
G1 F3150 X89.646 Y116.828 E425.1691
G0 F5400 X89.363 Y116.546
G1 F3150 X116.546 Y89.363 E426.19199
G0 F5400 X116.263 Y89.08
G1 F3150 X89.08 Y116.263 E427.21487
G0 F5400 X88.797 Y115.98
G1 F3150 X115.98 Y88.797 E428.23776
G0 F5400 X115.697 Y88.514
G1 F3150 X88.514 Y115.697 E429.26064
G0 F5400 X88.232 Y115.414
G1 F3150 X115.414 Y88.232 E430.28349
G0 F5400 X115.131 Y87.949
G1 F3150 X87.949 Y115.131 E431.30633
G0 F5400 X87.666 Y114.848
G1 F3150 X114.848 Y87.666 E432.32918
G0 F5400 X114.566 Y87.383
G1 F3150 X87.383 Y114.566 E433.35206
G0 F5400 X87.1 Y114.283
G1 F3150 X114.283 Y87.1 E434.37495
G0 F5400 X114 Y86.817
G1 F3150 X86.817 Y114 E435.39783
G0 F5400 X86.535 Y113.717
G1 F3150 X113.717 Y86.535 E436.42068
G0 F5400 X113.434 Y86.252
G1 F3150 X86.252 Y113.434 E437.44352
G0 F5400 X85.969 Y113.151
G1 F3150 X113.151 Y85.969 E438.46637
G0 F5400 X112.869 Y85.686
G1 F3150 X85.686 Y112.869 E439.48925
G0 F5400 X85.403 Y112.586
G1 F3150 X112.586 Y85.403 E440.51214
G0 F5400 X112.303 Y85.12
G1 F3150 X85.12 Y112.303 E441.53502
G0 F5400 X84.837 Y112.02
G1 F3150 X112.02 Y84.837 E442.55791
G0 F5400 X111.737 Y84.555
G1 F3150 X84.555 Y111.737 E443.58075
G0 F5400 X84.272 Y111.454
G1 F3150 X111.454 Y84.272 E444.6036
G0 F5400 X111.172 Y83.989
G1 F3150 X83.989 Y111.172 E445.62648
G0 F5400 X83.706 Y110.889
G1 F3150 X110.889 Y83.706 E446.64937
G0 F5400 X110.606 Y83.423
G1 F3150 X83.423 Y110.606 E447.67225
G0 F5400 X83.14 Y110.323
G1 F3150 X110.323 Y83.14 E448.69514
G0 F5400 X110.04 Y82.858
G1 F3150 X82.858 Y110.04 E449.71798
G0 F5400 X82.575 Y109.757
G1 F3150 X109.757 Y82.575 E450.74083
G0 F5400 X109.474 Y82.292
G1 F3150 X82.292 Y109.474 E451.76367
G0 F5400 X82.009 Y109.192
G1 F3150 X109.192 Y82.009 E452.78656
G0 F5400 X108.909 Y81.726
G1 F3150 X81.726 Y108.909 E453.80944
G0 F5400 X81.443 Y108.626
G1 F3150 X108.626 Y81.443 E454.83233
G0 F5400 X108.343 Y81.161
G1 F3150 X81.161 Y108.343 E455.85517
G0 F5400 X80.878 Y108.06
G1 F3150 X108.06 Y80.878 E456.87802
G0 F5400 X107.777 Y80.595
G1 F3150 X80.595 Y107.777 E457.90087
G0 F5400 X80.312 Y107.495
G1 F3150 X107.495 Y80.312 E458.92375
G0 F5400 X107.212 Y80.029
G1 F3150 X80.029 Y107.212 E459.94663
G0 F5400 X79.746 Y106.929
G1 F3150 X106.929 Y79.746 E460.96952
G0 F5400 X106.646 Y79.463
G1 F3150 X79.463 Y106.646 E461.9924
G0 F5400 X79.181 Y106.363
G1 F3150 X106.363 Y79.181 E463.01525
G0 F5400 X106.08 Y78.898
G1 F3150 X78.898 Y106.08 E464.03809
G0 F5400 X78.615 Y105.798
G1 F3150 X105.798 Y78.615 E465.06098
G0 F5400 X105.515 Y78.332
G1 F3150 X78.332 Y105.515 E466.08386
G0 F5400 X78.049 Y105.232
G1 F3150 X105.232 Y78.049 E467.10675
G0 F5400 X104.949 Y77.766
G1 F3150 X77.766 Y104.949 E468.12963
G0 F5400 X77.484 Y104.666
G1 F3150 X104.666 Y77.484 E469.15248
G0 F5400 X104.383 Y77.201
G1 F3150 X77.201 Y104.383 E470.17532
G0 F5400 X76.918 Y104.1
G1 F3150 X104.1 Y76.918 E471.19817
G0 F5400 X103.818 Y76.635
G1 F3150 X76.635 Y103.818 E472.22105
G0 F5400 X76.352 Y103.535
G1 F3150 X103.535 Y76.352 E473.24394
G0 F5400 X103.252 Y76.069
G1 F3150 X76.069 Y103.252 E474.26682
G0 F5400 X75.786 Y102.969
G1 F3150 X102.969 Y75.786 E475.28971
G0 F5400 X102.686 Y75.504
G1 F3150 X75.504 Y102.686 E476.31255
G0 F5400 X75.221 Y102.403
G1 F3150 X102.403 Y75.221 E477.3354
G0 F5400 X102.121 Y74.938
G1 F3150 X74.938 Y102.121 E478.35828
G0 F5400 X74.655 Y101.838
G1 F3150 X101.838 Y74.655 E479.38117
G0 F5400 X101.555 Y74.372
G1 F3150 X74.372 Y101.555 E480.40405
G0 F5400 X74.089 Y101.272
G1 F3150 X101.272 Y74.089 E481.42693
G0 F5400 X100.989 Y73.807
G1 F3150 X73.807 Y100.989 E482.44978
G0 F5400 X73.524 Y100.706
G1 F3150 X100.706 Y73.524 E483.47263
G0 F5400 X100.424 Y73.241
G1 F3150 X73.241 Y100.424 E484.49551
G0 F5400 X72.958 Y100.141
G1 F3150 X100.141 Y72.958 E485.51839
G0 F5400 X99.858 Y72.675
G1 F3150 X72.675 Y99.858 E486.54128
G0 F5400 X72.392 Y99.575
G1 F3150 X99.575 Y72.392 E487.56416
G0 F5400 X99.292 Y72.11
G1 F3150 X72.11 Y99.292 E488.58701
G0 F5400 X71.827 Y99.009
G1 F3150 X99.009 Y71.827 E489.60986
G0 F5400 X98.726 Y71.544
G1 F3150 X71.544 Y98.726 E490.6327
G0 F5400 X71.261 Y98.444
G1 F3150 X98.444 Y71.261 E491.65559
G0 F5400 X98.161 Y70.978
G1 F3150 X70.978 Y98.161 E492.67847
G0 F5400 X70.695 Y97.878
G1 F3150 X97.878 Y70.695 E493.70135
G0 F5400 X97.595 Y70.412
G1 F3150 X70.412 Y97.595 E494.72424
G0 F5400 X70.13 Y97.312
G1 F3150 X97.312 Y70.13 E495.74708
G0 F5400 X97.029 Y69.847
G1 F3150 X69.847 Y97.029 E496.76993
G0 F5400 X69.564 Y96.747
G1 F3150 X96.747 Y69.564 E497.79281
G0 F5400 X96.464 Y69.281
G1 F3150 X69.281 Y96.464 E498.8157
G0 F5400 X68.998 Y96.181
G1 F3150 X96.181 Y68.998 E499.83858
G0 F5400 X95.898 Y68.715
G1 F3150 X68.715 Y95.898 E500.86147
G0 F5400 X68.433 Y95.615
G1 F3150 X95.615 Y68.433 E501.88431
G0 F5400 X95.332 Y68.15
G1 F3150 X68.15 Y95.332 E502.90716
G0 F5400 X67.867 Y95.05
G1 F3150 X95.05 Y67.867 E503.93004
G0 F5400 X94.767 Y67.584
G1 F3150 X67.584 Y94.767 E504.95293
G0 F5400 X67.301 Y94.484
G1 F3150 X94.484 Y67.301 E505.97581
G0 F5400 X94.201 Y67.018
G1 F3150 X67.018 Y94.201 E506.99869
G0 F5400 X66.736 Y93.918
G1 F3150 X93.918 Y66.736 E508.02154
G0 F5400 X93.635 Y66.453
G1 F3150 X66.453 Y93.635 E509.04439
G0 F5400 X66.17 Y93.352
G1 F3150 X93.352 Y66.17 E510.06723
G0 F5400 X93.07 Y65.887
G1 F3150 X65.887 Y93.07 E511.09012
G0 F5400 X65.604 Y92.787
G1 F3150 X92.787 Y65.604 E512.113
G0 F5400 X92.504 Y65.321
G1 F3150 X65.321 Y92.504 E513.13589
G0 F5400 X65.038 Y92.221
G1 F3150 X92.221 Y65.038 E514.15877
G0 F5400 X91.938 Y64.756
G1 F3150 X64.756 Y91.938 E515.18162
G0 F5400 X64.473 Y91.655
G1 F3150 X91.655 Y64.473 E516.20446
G0 F5400 X91.373 Y64.19
G1 F3150 X64.19 Y91.373 E517.22735
G0 F5400 X63.907 Y91.09
G1 F3150 X91.09 Y63.907 E518.25023
G0 F5400 X90.807 Y63.624
G1 F3150 X63.624 Y90.807 E519.27311
G0 F5400 X63.341 Y90.524
G1 F3150 X90.524 Y63.341 E520.296
G0 F5400 X90.241 Y63.059
G1 F3150 X63.059 Y90.241 E521.31884
G0 F5400 X62.776 Y89.958
G1 F3150 X89.958 Y62.776 E522.34169
G0 F5400 X89.675 Y62.493
G1 F3150 X62.493 Y89.675 E523.36454
G0 F5400 X62.21 Y89.393
G1 F3150 X89.393 Y62.21 E524.38742
G0 F5400 X89.11 Y61.927
G1 F3150 X61.927 Y89.11 E525.41031
G0 F5400 X61.644 Y88.827
G1 F3150 X88.827 Y61.644 E526.43319
G0 F5400 X88.544 Y61.362
G1 F3150 X61.362 Y88.544 E527.45604
G0 F5400 X61.079 Y88.261
G1 F3150 X88.261 Y61.079 E528.47888
G0 F5400 X87.978 Y60.796
G1 F3150 X60.796 Y87.978 E529.50173
G0 F5400 X60.513 Y87.696
G1 F3150 X87.696 Y60.513 E530.52461
G0 F5400 X87.413 Y60.23
G1 F3150 X60.23 Y87.413 E531.5475
G0 F5400 X59.947 Y87.13
G1 F3150 X87.13 Y59.947 E532.57038
G0 F5400 X86.847 Y59.664
G1 F3150 X59.664 Y86.847 E533.59326
G0 F5400 X59.382 Y86.564
G1 F3150 X86.564 Y59.382 E534.61611
G0 F5400 X86.281 Y59.099
G1 F3150 X59.099 Y86.281 E535.63896
G0 F5400 X58.816 Y85.999
G1 F3150 X85.999 Y58.816 E536.66184
G0 F5400 X85.716 Y58.533
G1 F3150 X58.533 Y85.716 E537.68472
G0 F5400 X58.25 Y85.433
G1 F3150 X85.433 Y58.25 E538.70761
G0 F5400 X85.15 Y57.967
G1 F3150 X57.967 Y85.15 E539.73049
G0 F5400 X57.685 Y84.867
G1 F3150 X84.867 Y57.685 E540.75334
G0 F5400 X84.584 Y57.402
G1 F3150 X57.402 Y84.584 E541.77619
G0 F5400 X57.119 Y84.301
G1 F3150 X84.301 Y57.119 E542.79903
G0 F5400 X84.019 Y56.836
G1 F3150 X56.836 Y84.019 E543.82192
G0 F5400 X56.553 Y83.736
G1 F3150 X83.736 Y56.553 E544.8448
G0 F5400 X83.453 Y56.27
G1 F3150 X56.27 Y83.453 E545.86768
G0 F5400 X55.988 Y83.17
G1 F3150 X83.17 Y55.988 E546.89053
G0 F5400 X82.887 Y55.705
G1 F3150 X55.705 Y82.887 E547.91338
G0 F5400 X55.422 Y82.604
G1 F3150 X82.604 Y55.422 E548.93622
G0 F5400 X82.322 Y55.139
G1 F3150 X55.139 Y82.322 E549.95911
G0 F5400 X54.856 Y82.039
G1 F3150 X82.039 Y54.856 E550.98199
G0 F5400 X81.756 Y54.573
G1 F3150 X54.573 Y81.756 E552.00487
G0 F5400 X54.29 Y81.473
G1 F3150 X81.473 Y54.29 E553.02776
G0 F5400 X81.19 Y54.008
G1 F3150 X54.008 Y81.19 E554.05061
G0 F5400 X53.725 Y80.907
G1 F3150 X80.907 Y53.725 E555.07345
G0 F5400 X80.625 Y53.442
G1 F3150 X53.442 Y80.625 E556.09634
G0 F5400 X53.159 Y80.342
G1 F3150 X80.342 Y53.159 E557.11922
G0 F5400 X80.059 Y52.876
G1 F3150 X52.876 Y80.059 E558.1421
G0 F5400 X52.593 Y79.776
G1 F3150 X79.776 Y52.593 E559.16499
G0 F5400 X79.493 Y52.311
G1 F3150 X52.311 Y79.493 E560.18783
G0 F5400 X52.028 Y79.21
