;FLAVOR:Marlin
;TIME:2059
;Filament used: 1.14035m
;Layer height: 0.16
;MINX:37.3
;MINY:43.65
;MINZ:0.2
;MAXX:87.7
;MAXY:81.35
;MAXZ:5.96
;Generated with Cura_SteamEngine 4.12.1
M82 ;absolute extrusion mode
M104 S208.0 ;Set Hotend Temperature
M140 S58.0 ;Set Bed Temperature
G28 ;home
G90 ;absolute positioning
G1 X-10 Y-10 F3000 ;Move to corner 
G1 Z0 F1800 ;Go to zero offset
M109 S208.0 ;Wait for Hotend Temperature
M190 S58.0 ;Wait for Bed Temperature
G92 E0 ;Zero set extruder position
G1 E20 F200 ;Feed filament to clear nozzle
G92 E0 ;Zero set extruder position
G92 E0
G92 E0
G1 F1500 E-6.5
;LAYER_COUNT:37
;LAYER:0
M107
;MESH:firesim-v1.stl
G0 F1440 X69.332 Y80.944 Z0.2
;TYPE:WALL-INNER
G1 F1500 E0
G1 F1080 X68.474 Y80.947 E0.02854
G1 X67.71 Y80.923 E0.05396
G1 X66.982 Y80.877 E0.07822
G1 X66.281 Y80.81 E0.10164
G1 X65.579 Y80.719 E0.12519
G1 X64.905 Y80.61 E0.1479
G1 X64.259 Y80.483 E0.16979
G1 X63.944 Y80.412 E0.18053
G1 X63.314 Y80.255 E0.20213
G1 X62.706 Y80.081 E0.22316
G1 X62.101 Y79.885 E0.24431
G1 X61.541 Y79.684 E0.2641
G1 X60.975 Y79.459 E0.28436
G1 X60.422 Y79.218 E0.30443
G1 X59.883 Y78.963 E0.32426
G1 X59.375 Y78.703 E0.34324
G1 X58.87 Y78.426 E0.3624
G1 X58.365 Y78.131 E0.38185
G1 X57.889 Y77.831 E0.40056
G1 X57.422 Y77.52 E0.41922
G1 X56.953 Y77.192 E0.43826
G1 X56.504 Y76.861 E0.45681
G1 X56.069 Y76.523 E0.47513
G1 X55.641 Y76.177 E0.49344
G1 X55.216 Y75.819 E0.51192
G1 X54.798 Y75.455 E0.53036
G1 X54.397 Y75.09 E0.54839
G1 X53.996 Y74.715 E0.56665
G1 X53.608 Y74.341 E0.58458
G1 X53.219 Y73.957 E0.60276
G1 X52.838 Y73.573 E0.62075
G1 X52.092 Y72.799 E0.6565
G1 X51.366 Y72.024 E0.69182
G1 X49.944 Y70.49 E0.76139
G1 X49.241 Y69.742 E0.79553
G1 X48.889 Y69.375 E0.81245
G1 X48.536 Y69.013 E0.82926
G1 X47.828 Y68.314 E0.86236
G1 X47.11 Y67.647 E0.89495
G1 X46.378 Y67.021 E0.92699
G1 X45.627 Y66.439 E0.95859
G1 X44.851 Y65.912 E0.98979
G1 X44.047 Y65.444 E1.02073
G1 X43.209 Y65.044 E1.05161
G1 X42.335 Y64.72 E1.08261
G1 X41.421 Y64.48 E1.11405
G1 X40.469 Y64.332 E1.14609
G1 X39.735 Y64.285 E1.17055
G1 X39.142 Y64.253 E1.1903
G1 X38.719 Y64.126 E1.20499
G1 X38.36 Y63.907 E1.21898
G1 X38.085 Y63.627 E1.23203
G1 X37.872 Y63.274 E1.24575
G1 X37.743 Y62.881 E1.2595
G1 X37.703 Y62.487 E1.27268
G1 X37.753 Y62.069 E1.28668
G1 X37.896 Y61.687 E1.30024
G1 X38.15 Y61.316 E1.3152
G1 X38.536 Y60.981 E1.3322
G1 X39.325 Y60.452 E1.36379
G1 X40.12 Y59.948 E1.3951
G1 X40.896 Y59.48 E1.42524
G1 X41.632 Y59.062 E1.45339
G1 X42.359 Y58.675 E1.48078
G1 X43.047 Y58.334 E1.50632
G1 X43.721 Y58.027 E1.53096
G1 X44.384 Y57.749 E1.55487
G1 X45.005 Y57.515 E1.57694
G1 X45.606 Y57.314 E1.59802
G1 X46.202 Y57.141 E1.61866
G1 X46.764 Y57.001 E1.63792
G1 X47.322 Y56.887 E1.65687
G1 X47.826 Y56.81 E1.67382
G1 X48.36 Y56.753 E1.69169
G1 X48.834 Y56.725 E1.70748
G1 X49.541 Y56.729 E1.73099
G1 X50.222 Y56.784 E1.75372
G1 X51.06 Y56.93 E1.78201
G1 X51.859 Y57.156 E1.80963
G1 X52.616 Y57.451 E1.83665
G1 X53.341 Y57.814 E1.86362
G1 X54.018 Y58.224 E1.88994
G1 X54.683 Y58.695 E1.91704
G1 X55.337 Y59.217 E1.94488
G1 X55.944 Y59.75 E1.97174
G1 X56.246 Y60.031 E1.98546
G1 X56.854 Y60.623 E2.01369
G1 X57.443 Y61.217 E2.04151
G1 X58.619 Y62.423 E2.09754
G1 X59.212 Y63.011 E2.12531
G1 X59.816 Y63.582 E2.15296
G1 X60.437 Y64.124 E2.18037
G1 X61.08 Y64.628 E2.20754
G1 X61.749 Y65.086 E2.23451
G1 X62.452 Y65.485 E2.2614
G1 X63.194 Y65.814 E2.28839
G1 X63.978 Y66.064 E2.31576
G1 X64.799 Y66.22 E2.34356
G1 X65.452 Y66.272 E2.36534
G1 X66.036 Y66.267 E2.38477
G1 X66.741 Y66.195 E2.40834
G1 X67.424 Y66.054 E2.43154
G1 X68.083 Y65.848 E2.4545
G1 X68.71 Y65.579 E2.47719
G1 X69.305 Y65.254 E2.49974
G1 X69.863 Y64.872 E2.52223
G1 X70.378 Y64.443 E2.54453
G1 X70.85 Y63.965 E2.56687
G1 X71.275 Y63.443 E2.58926
G1 X71.648 Y62.881 E2.61169
G1 X71.966 Y62.283 E2.63422
G1 X72.227 Y61.651 E2.65696
G1 X72.425 Y60.989 E2.67994
G1 X72.558 Y60.303 E2.70319
G1 X72.62 Y59.593 E2.72689
G1 X72.612 Y58.877 E2.75071
G1 X72.53 Y58.18 E2.77405
G1 X72.381 Y57.506 E2.79701
G1 X72.168 Y56.859 E2.81966
G1 X71.894 Y56.242 E2.84212
G1 X71.562 Y55.658 E2.86446
G1 X71.178 Y55.111 E2.88669
G1 X70.746 Y54.604 E2.90884
G1 X70.266 Y54.142 E2.931
G1 X69.745 Y53.725 E2.9532
G1 X69.186 Y53.358 E2.97544
G1 X68.591 Y53.044 E2.99781
G1 X67.965 Y52.787 E3.02032
G1 X67.312 Y52.588 E3.04303
G1 X66.634 Y52.453 E3.06602
G1 X65.941 Y52.383 E3.08919
G1 X65.587 Y52.375 E3.10096
G1 X57.122 Y52.375 E3.38251
G1 X56.662 Y52.323 E3.39791
G1 X56.286 Y52.185 E3.41123
G1 X55.966 Y51.977 E3.42392
G1 X55.693 Y51.694 E3.437
G1 X55.494 Y51.367 E3.44973
G1 X55.366 Y51.01 E3.46235
G1 X55.314 Y50.627 E3.4752
G1 X55.348 Y50.238 E3.48819
G1 X55.462 Y49.876 E3.50081
G1 X55.677 Y49.519 E3.51467
G1 X56.138 Y49.051 E3.53652
G1 X56.685 Y48.573 E3.56068
G1 X57.268 Y48.104 E3.58557
G1 X57.918 Y47.623 E3.61246
G1 X58.586 Y47.17 E3.63931
G1 X59.303 Y46.725 E3.66738
G1 X60.069 Y46.294 E3.69661
G1 X60.849 Y45.902 E3.72564
G1 X61.683 Y45.526 E3.75607
G1 X62.531 Y45.192 E3.78639
G1 X63.43 Y44.887 E3.81796
G1 X64.361 Y44.621 E3.85016
G1 X65.31 Y44.404 E3.88254
G1 X66.286 Y44.235 E3.91549
G1 X66.79 Y44.17 E3.93239
G1 X67.301 Y44.117 E3.94948
G1 X67.798 Y44.082 E3.96605
G1 X68.334 Y44.058 E3.98389
G1 X68.847 Y44.05 E4.00096
G1 X69.796 Y44.075 E4.03253
G1 X70.732 Y44.146 E4.06375
G1 X71.658 Y44.264 E4.0948
G1 X72.559 Y44.425 E4.12524
G1 X73.45 Y44.631 E4.15566
G1 X74.334 Y44.883 E4.18623
G1 X75.198 Y45.176 E4.21658
G1 X76.035 Y45.506 E4.2465
G1 X76.83 Y45.866 E4.27553
G1 X77.642 Y46.284 E4.3059
G1 X78.399 Y46.719 E4.33494
G1 X79.162 Y47.208 E4.36509
G1 X79.887 Y47.725 E4.3947
G1 X80.573 Y48.264 E4.42372
G1 X81.24 Y48.842 E4.45307
G1 X81.888 Y49.459 E4.48283
G1 X82.508 Y50.11 E4.51273
G1 X83.086 Y50.777 E4.54209
G1 X83.622 Y51.459 E4.57094
G1 X84.138 Y52.182 E4.60048
G1 X84.629 Y52.947 E4.63072
G1 X85.064 Y53.704 E4.65976
G1 X85.482 Y54.516 E4.69013
G1 X85.844 Y55.314 E4.71928
G1 X86.174 Y56.152 E4.74923
G1 X86.465 Y57.008 E4.7793
G1 X86.72 Y57.903 E4.81026
G1 X86.922 Y58.775 E4.84003
G1 X87.088 Y59.702 E4.87135
G1 X87.205 Y60.624 E4.90226
G1 X87.276 Y61.559 E4.93345
G1 X87.3 Y62.498 E4.96469
G1 X87.275 Y63.443 E4.99613
G1 X87.205 Y64.373 E5.02715
G1 X87.089 Y65.293 E5.05799
G1 X86.924 Y66.212 E5.08905
G1 X86.721 Y67.093 E5.11912
G1 X86.466 Y67.99 E5.15013
G1 X86.179 Y68.835 E5.17982
G1 X85.847 Y69.678 E5.20995
G1 X85.484 Y70.48 E5.23923
G1 X85.068 Y71.289 E5.26949
G1 X84.631 Y72.049 E5.29864
G1 X84.151 Y72.799 E5.32826
G1 X83.625 Y73.537 E5.3584
G1 X83.086 Y74.223 E5.38742
G1 X82.505 Y74.894 E5.41694
G1 X82.208 Y75.214 E5.43146
G1 X81.571 Y75.851 E5.46143
G1 X80.917 Y76.445 E5.49081
G1 X80.242 Y77.003 E5.51994
G1 X79.514 Y77.547 E5.55017
G1 X78.796 Y78.033 E5.579
G1 X78.019 Y78.505 E5.60924
G1 X77.247 Y78.926 E5.63849
G1 X76.43 Y79.321 E5.66867
G1 X75.62 Y79.664 E5.69793
G1 X74.757 Y79.979 E5.72848
G1 X73.885 Y80.251 E5.75886
G1 X73.018 Y80.475 E5.78865
G1 X72.103 Y80.663 E5.81972
G1 X71.21 Y80.8 E5.84976
G1 X70.26 Y80.897 E5.88153
G1 X69.332 Y80.944 E5.91243
G0 F1440 X69.333 Y81.344
;TYPE:WALL-OUTER
G1 F1080 X68.462 Y81.347 E5.9414
G1 X67.697 Y81.323 E5.96686
G1 X66.95 Y81.276 E5.99175
G1 X66.23 Y81.207 E6.01581
G1 X65.525 Y81.116 E6.03945
G1 X64.841 Y81.005 E6.0625
G1 X64.171 Y80.873 E6.08521
G1 X63.846 Y80.8 E6.09629
G1 X63.204 Y80.64 E6.1183
G1 X62.59 Y80.464 E6.13954
G1 X61.978 Y80.266 E6.16093
G1 X61.395 Y80.056 E6.18155
G1 X60.815 Y79.826 E6.2023
G1 X60.262 Y79.585 E6.22236
G1 X59.712 Y79.325 E6.2426
G1 X59.183 Y79.054 E6.26236
G1 X58.666 Y78.771 E6.28197
G1 X58.162 Y78.475 E6.30141
G1 X57.676 Y78.169 E6.32051
G1 X57.193 Y77.848 E6.3398
G1 X56.724 Y77.52 E6.35883
G1 X56.267 Y77.183 E6.37772
G1 X55.824 Y76.839 E6.39637
G1 X55.383 Y76.483 E6.41522
G1 X54.958 Y76.125 E6.43371
G1 X54.535 Y75.757 E6.45235
G1 X54.128 Y75.386 E6.47067
G1 X53.723 Y75.007 E6.48912
G1 X53.327 Y74.626 E6.5074
G1 X52.938 Y74.242 E6.52558
G1 X52.554 Y73.855 E6.54371
G1 X51.804 Y73.077 E6.57965
G1 X51.074 Y72.298 E6.61516
G1 X49.651 Y70.763 E6.68478
G1 X48.951 Y70.017 E6.7188
G1 X48.602 Y69.653 E6.73558
G1 X48.252 Y69.295 E6.75223
G1 X47.551 Y68.603 E6.78499
G1 X46.844 Y67.946 E6.81709
G1 X46.125 Y67.331 E6.84856
G1 X45.392 Y66.763 E6.8794
G1 X44.638 Y66.251 E6.90972
G1 X43.86 Y65.798 E6.93966
G1 X43.053 Y65.413 E6.9694
G1 X42.214 Y65.102 E6.99916
G1 X41.339 Y64.872 E7.02925
G1 X40.425 Y64.73 E7.06001
G1 X39.711 Y64.684 E7.08381
G1 X39.072 Y64.649 E7.1051
G1 X38.554 Y64.494 E7.12308
G1 X38.111 Y64.223 E7.14035
G1 X37.767 Y63.873 E7.15667
G1 X37.506 Y63.441 E7.17346
G1 X37.35 Y62.967 E7.19006
G1 X37.3 Y62.484 E7.20621
G1 X37.362 Y61.974 E7.2233
G1 X37.538 Y61.501 E7.24008
G1 X37.849 Y61.048 E7.25836
G1 X38.293 Y60.662 E7.27793
G1 X39.111 Y60.114 E7.31067
G1 X39.913 Y59.605 E7.34227
G1 X40.689 Y59.137 E7.37241
G1 X41.444 Y58.709 E7.40127
G1 X42.171 Y58.322 E7.42867
G1 X42.881 Y57.97 E7.45502
G1 X43.566 Y57.658 E7.48006
G1 X44.229 Y57.38 E7.50397
G1 X44.872 Y57.138 E7.52682
G1 X45.494 Y56.93 E7.54864
G1 X46.096 Y56.755 E7.56949
G1 X46.679 Y56.61 E7.58947
G1 X47.244 Y56.495 E7.60865
G1 X47.784 Y56.412 E7.62682
G1 X48.318 Y56.355 E7.64468
G1 X48.829 Y56.325 E7.6617
G1 X49.562 Y56.329 E7.68608
G1 X50.27 Y56.386 E7.70971
G1 X51.15 Y56.54 E7.73942
G1 X51.987 Y56.776 E7.76835
G1 X52.779 Y57.085 E7.79662
G1 X53.529 Y57.461 E7.82453
G1 X54.244 Y57.894 E7.85233
G1 X54.927 Y58.377 E7.88015
G1 X55.587 Y58.904 E7.90824
G1 X56.217 Y59.457 E7.93612
G1 X56.525 Y59.744 E7.95013
G1 X57.133 Y60.336 E7.97835
G1 X57.729 Y60.938 E8.00653
G1 X58.903 Y62.141 E8.06243
G1 X59.49 Y62.724 E8.08995
G1 X60.085 Y63.286 E8.11717
G1 X60.692 Y63.816 E8.14397
G1 X61.316 Y64.305 E8.17034
G1 X61.961 Y64.746 E8.19633
G1 X62.632 Y65.127 E8.22199
G1 X63.336 Y65.44 E8.24762
G1 X64.076 Y65.676 E8.27345
G1 X64.852 Y65.823 E8.29972
G1 X65.466 Y65.872 E8.32021
G1 X66.014 Y65.867 E8.33844
G1 X66.68 Y65.799 E8.3607
G1 X67.324 Y65.666 E8.38257
G1 X67.944 Y65.472 E8.40418
G1 X68.535 Y65.219 E8.42556
G1 X69.096 Y64.913 E8.44682
G1 X69.621 Y64.553 E8.46799
G1 X70.107 Y64.148 E8.48903
G1 X70.552 Y63.698 E8.51008
G1 X70.952 Y63.206 E8.53117
G1 X71.304 Y62.676 E8.55233
G1 X71.604 Y62.112 E8.57358
G1 X71.85 Y61.517 E8.59499
G1 X72.036 Y60.894 E8.61662
G1 X72.161 Y60.247 E8.63854
G1 X72.22 Y59.578 E8.66087
G1 X72.212 Y58.903 E8.68333
G1 X72.135 Y58.247 E8.70529
G1 X71.995 Y57.612 E8.72692
G1 X71.794 Y57.003 E8.74825
G1 X71.536 Y56.422 E8.76939
G1 X71.224 Y55.872 E8.79043
G1 X70.862 Y55.356 E8.81139
G1 X70.454 Y54.879 E8.83227
G1 X70.002 Y54.443 E8.85316
G1 X69.51 Y54.049 E8.87412
G1 X68.983 Y53.703 E8.89509
G1 X68.421 Y53.407 E8.91621
G1 X67.83 Y53.164 E8.93747
G1 X67.214 Y52.976 E8.95889
G1 X66.575 Y52.849 E8.98056
G1 X65.916 Y52.783 E9.00259
G1 X65.582 Y52.775 E9.0137
G1 X57.104 Y52.775 E9.29568
G1 X56.565 Y52.714 E9.31372
G1 X56.109 Y52.547 E9.32987
G1 X55.71 Y52.287 E9.34571
G1 X55.374 Y51.938 E9.36182
G1 X55.13 Y51.539 E9.37738
G1 X54.976 Y51.109 E9.39257
G1 X54.912 Y50.633 E9.40855
G1 X54.952 Y50.164 E9.4242
G1 X55.096 Y49.708 E9.44011
G1 X55.359 Y49.271 E9.45707
G1 X55.859 Y48.764 E9.48075
G1 X56.422 Y48.272 E9.50562
G1 X57.03 Y47.782 E9.53159
G1 X57.68 Y47.301 E9.55849
G1 X58.375 Y46.83 E9.58641
G1 X59.107 Y46.376 E9.61506
G1 X59.873 Y45.945 E9.64429
G1 X60.685 Y45.537 E9.67452
G1 X61.524 Y45.159 E9.70513
G1 X62.402 Y44.813 E9.73651
G1 X63.312 Y44.504 E9.76848
G1 X64.259 Y44.234 E9.80123
G1 X64.736 Y44.118 E9.81756
G1 X65.226 Y44.013 E9.83423
G1 X65.729 Y43.919 E9.85124
G1 X66.232 Y43.838 E9.86819
G1 X66.739 Y43.773 E9.88519
G1 X67.262 Y43.719 E9.90268
G1 X67.78 Y43.682 E9.91995
G1 X68.316 Y43.658 E9.9378
G1 X68.851 Y43.65 E9.95559
G1 X69.816 Y43.675 E9.9877
G1 X70.773 Y43.748 E10.01962
G1 X71.719 Y43.868 E10.05134
G1 X72.641 Y44.033 E10.08249
G1 X73.553 Y44.244 E10.11363
G1 X74.452 Y44.5 E10.14472
G1 X75.327 Y44.797 E10.17545
G1 X76.182 Y45.134 E10.20602
G1 X77.013 Y45.51 E10.23635
G1 X77.825 Y45.928 E10.26673
G1 X78.615 Y46.382 E10.29703
G1 X79.384 Y46.875 E10.32741
G1 X80.119 Y47.399 E10.35744
G1 X80.835 Y47.962 E10.38773
G1 X81.516 Y48.552 E10.4177
G1 X82.171 Y49.176 E10.44779
G1 X82.798 Y49.834 E10.47802
G1 X83.388 Y50.515 E10.50799
G1 X83.948 Y51.227 E10.53812
G1 X84.475 Y51.966 E10.56831
G1 X84.966 Y52.731 E10.59854
G1 X85.42 Y53.521 E10.62884
G1 X85.838 Y54.333 E10.65922
G1 X86.216 Y55.167 E10.68968
G1 X86.553 Y56.023 E10.72027
G1 X86.85 Y56.898 E10.75101
G1 X87.105 Y57.793 E10.78196
G1 X87.316 Y58.704 E10.81306
G1 X87.482 Y59.631 E10.84438
G1 X87.602 Y60.573 E10.87597
G1 X87.675 Y61.529 E10.90786
G1 X87.7 Y62.498 E10.9401
G1 X87.675 Y63.466 E10.9723
G1 X87.602 Y64.423 E11.00423
G1 X87.483 Y65.364 E11.03577
G1 X87.317 Y66.291 E11.0671
G1 X87.106 Y67.203 E11.09823
G1 X86.85 Y68.102 E11.12932
G1 X86.555 Y68.972 E11.15987
G1 X86.218 Y69.828 E11.19047
G1 X85.84 Y70.663 E11.22096
G1 X85.422 Y71.475 E11.25133
G1 X84.968 Y72.265 E11.28164
G1 X84.478 Y73.03 E11.31185
G1 X83.951 Y73.769 E11.34204
G1 X83.388 Y74.485 E11.37234
G1 X82.798 Y75.166 E11.40231
G1 X82.491 Y75.497 E11.41732
G1 X81.851 Y76.137 E11.44742
G1 X81.181 Y76.746 E11.47754
G1 X80.482 Y77.323 E11.50769
G1 X79.752 Y77.869 E11.53801
G1 X79.004 Y78.375 E11.56804
G1 X78.227 Y78.847 E11.59828
G1 X77.421 Y79.286 E11.62881
G1 X76.598 Y79.684 E11.65921
G1 X75.757 Y80.04 E11.68959
G1 X74.887 Y80.358 E11.7204
G1 X74.002 Y80.634 E11.75123
G1 X73.099 Y80.867 E11.78225
G1 X72.185 Y81.055 E11.81328
G1 X71.251 Y81.198 E11.84471
G1 X70.301 Y81.295 E11.87647
G1 X69.333 Y81.344 E11.90871
G0 F1440 X69.133 Y81.344
G0 X69.132 Y80.844
G0 X78.99 Y47.311
;TYPE:SKIN
G1 F1080 X84.036 Y52.357 E12.14606
G1 X84.106 Y52.427
G0 F1440 X84.907 Y53.794
G1 F1080 X77.555 Y46.442 E12.49187
G1 X77.485 Y46.372
G0 F1440 X76.429 Y45.882
G1 F1080 X85.466 Y54.919 E12.91694
G1 X85.536 Y54.989
G0 F1440 X85.88 Y55.899
G1 F1080 X75.449 Y45.468 E13.40759
G1 X75.379 Y45.398
G0 F1440 X74.568 Y45.153
G1 F1080 X86.199 Y56.783 E13.95465
G1 X86.269 Y56.853
G0 F1440 X86.444 Y57.594
G1 F1080 X73.756 Y44.906 E14.55145
G0 F1440 X72.995 Y44.711
G1 F1080 X86.639 Y58.355 E15.19323
G0 F1440 X86.793 Y59.074
G1 F1080 X72.275 Y44.556 E15.87611
G0 F1440 X71.589 Y44.436
G1 F1080 X86.914 Y59.761 E16.59695
G0 F1440 X86.996 Y60.409
G1 F1080 X70.941 Y44.354 E17.35213
G0 F1440 X70.316 Y44.295
G1 F1080 X87.055 Y61.033 E18.13946
G0 F1440 X87.097 Y61.642
G1 F1080 X69.708 Y44.252 E18.9574
G0 F1440 X69.128 Y44.238
G1 F1080 X87.112 Y62.222 E19.80332
G0 F1440 X87.112 Y62.787
G1 F1080 X68.559 Y44.235 E20.67597
G0 F1440 X68.012 Y44.253
G1 F1080 X87.097 Y63.338 E21.57367
G0 F1440 X87.062 Y63.869
G1 F1080 X67.479 Y44.286 E22.49479
G0 F1440 X66.96 Y44.333
G1 F1080 X87.021 Y64.394 E23.4384
G0 F1440 X86.957 Y64.896
G1 F1080 X66.456 Y44.394 E24.40273
G0 F1440 X65.968 Y44.472
G1 F1080 X86.887 Y65.391 E25.38669
G0 F1440 X86.802 Y65.871
G1 F1080 X65.485 Y44.555 E26.38936
G0 F1440 X65.019 Y44.654
G1 F1080 X86.708 Y66.343 E27.40954
G0 F1440 X86.602 Y66.803
G1 F1080 X64.559 Y44.76 E28.44638
G0 F1440 X64.112 Y44.879
G1 F1080 X86.488 Y67.255 E29.49887
G0 F1440 X86.363 Y67.695
G1 F1080 X63.672 Y45.004 E30.56619
G0 F1440 X63.242 Y45.14
G1 F1080 X86.229 Y68.127 E31.64743
G0 F1440 X86.086 Y68.549
G1 F1080 X62.82 Y45.283 E32.74179
G0 F1440 X62.405 Y45.434
G1 F1080 X85.934 Y68.964 E33.84854
G0 F1440 X85.774 Y69.37
G1 F1080 X61.999 Y45.594 E34.96687
G0 F1440 X61.599 Y45.76
G1 F1080 X68.779 Y52.94 E35.3046
G1 X68.849 Y53.01
G0 F1440 X67.831 Y52.557
G1 F1080 X61.209 Y45.936 E35.61605
G0 F1440 X60.824 Y46.116
G1 F1080 X67.062 Y52.354 E35.90947
G0 F1440 X66.389 Y52.247
G1 F1080 X60.447 Y46.305 E36.18896
G0 F1440 X60.074 Y46.497
G1 F1080 X65.775 Y52.198 E36.45712
G0 F1440 X65.205 Y52.195
G1 F1080 X59.712 Y46.701 E36.71552
G0 F1440 X59.351 Y46.905
G1 F1080 X64.64 Y52.195 E36.96432
G0 F1440 X64.074 Y52.195
G1 F1080 X59.002 Y47.123 E37.20289
G0 F1440 X58.654 Y47.34
G1 F1080 X63.508 Y52.195 E37.43123
G0 F1440 X62.943 Y52.195
G1 F1080 X58.317 Y47.569 E37.64882
G0 F1440 X57.982 Y47.799
G1 F1080 X62.377 Y52.195 E37.85557
G0 F1440 X61.811 Y52.195
G1 F1080 X57.656 Y48.04 E38.05101
G0 F1440 X57.332 Y48.281
