;Header Start

;FLAVOR:Marlin
;TIME:6666
;Filament used: 0m
;Layer height: 0.15


;header_type: 3dp
;thumbnail: data:image/png;base64,iVBORw0KGgoAAAANSUhEUgAAASwAAACWCAYAAABkW7XSAAAWhklEQVR4Xu2dB4hlxdPFe1UMKIg5B8yYc0BXMKGYc8LsqiiKIqwKJgQFxYAJc8LsomIOa8Qsrlkxu+aMKKZ1Dfvn1/vV+3p6b373zdpzT8MwM+/27a4+Xfe8qurqvqMmT548xakIASEgBBJAYJQIK4FZkohCQAh4BERYUgQhIASSQUCElcxUSVAhIAREWNIBISAEkkFAhJXMVElQISAERFjSASEgBJJBQISVzFRJUCEgBERY0gEhIASSQUCElcxUSVAhIAREWNIBISAEkkFAhJXMVElQISAERFjSASEgBJJBQISVzFRJUCEgBERY0gEhIASSQUCElcxUSVAhIAREWNIBISAEkkFAhJXMVElQISAERFjSASEgBJJBQISVzFRJUCEgBERY0gEhIASSQUCElcxUSVAhIAREWNIBISAEkkFAhJXMVElQISAERFjSASEgBJJBQISVzFRJUCEgBERY0gEhIASSQUCElcxUSVAhIAREWNIBISAEkkFAhJXMVElQISAERFjSASEgBJJBQISVzFRJUCEgBERY0gEhIASSQUCElcxUSVAhIAREWNIBISAEkkFAhJXMVElQISAERFjSASEgBJJBQISVzFRJUCEgBERY0gEhIASSQUCElcxUSVAhIAREWNIBISAEkkFAhJXMVElQISAERFjSASEgBJJBQISVzFRJUCEgBERY0gEhIASSQUCElcxUSVAhIAREWNIBISAEkkFAhJXMVElQISAERFjSASEgBJJBQISVzFRJUCEgBERY0gEhIASSQUCElcxUSVAhIAREWNIBISAEkkFAhJXMVElQISAERFjSASEgBJJBQISVzFRJUCEgBERY0gEhIASSQUCElcxUSVAhIAREWNIBISAEkkFAhJXMVElQISAERFjSASEgBJJBQISVzFRJUCEgBERY0oFMBE4++WS31FJLuQMPPLBvhD766CN33XXXuS222MJtvPHGfbenBrqLgAiru3M/ZORnnHFG7//Ro0e7e++9133++edulVVW8Z+feOKJtZF66qmn3NNPP+3mmGMO9+WXX7pDDjnEjRs3bkg/IrDasHb6BhHWf2z6jTgWWWSRgUkGeVCsj1tuucVBLmE58sgj3aRJk9xVV13lPz766KPdCiusUEumxx57zN1+++1u6623dksvvbT/++uvvx7SxqWXXjrkf2Qb5NirDgA5IG4RalXEhqeeCGt4cK7UC2R1xRVXuC233NL9/vvv/p7555/fzTzzzJXuDyu98MILbq655nKzzz67W3TRRXuXvvjiC3fHHXe4gw8+2Fs+lAsuuMBtt912vp/PPvvMvfTSS/6ef/75xxMMVtZGG22UKQdtQTDrr7/+NDJiXb3yyituoYUWcjPOOKP7999/3XrrredGjRrlnn/+ed/2LrvsMkQ+SA6Zs9qrCwJjDcde5/53333Xvfrqq+7QQw9tZF3W6Ut1qyMgwqqO1UBrQlZ33XWXW2mllRwPy+uvvz5Nf+G3/XzzzeduvPFGbxlBDGE5/fTTh/zPg2fW0WyzzeZWXnll757ZZ2PHjnUbbLCBm3XWWd3EiRPdPffc07t/1VVX9fUhkOWXX34amSBXCC/L+oI0IbQ33njD37fGGmt44qNgbTGGMWPGDGl33333dd999537448/GuGNPOAEEW677bbessOdrWspMQdnnnmme/vtt93cc8/tHn744Uby6KZ2ERBhtYtn7dYgHMjqxx9/9A/Zjjvu6MaPH+8+/vhj99VXX/n2Xn75Zf/b/sfqgth4kCCEokLdvfbayxMKrh8PIgQDEVnB3cOqWXLJJb1ld+WVV/pLm2++uVtwwQW9ZZQVw0L2ww8/3OHWZRHCm2++6e677z732muvubfeesutueaabsMNN3RTpkzxcm+66aZ+zCERQm7Iu/fee3uXrG5BHspJJ53kMQJb+kY+rK06bYLV5MmT/RcCWDchvrryq34xAiKs6aghPExYQ5tssol3PSArKx9++KH/86GHHvK/+d8Ia8KECdPEgvKGceqpp7oTTjjBW2JYH/T1wAMPDKm+6667evcRVw3X7dNPP3V//vmnJ7AZZpjBWyo77LDDNF1Ym1gfWYT13nvvuXPOOcd9//33/sGnsPJI2wT0IRCLkYWNr7POOo2tGixIK5AW44EcIS0Kcta1lrC0GOsTTzzhibDJAsR0VLMR1bUIazpNp8WrIBCIKiSrLJFCAsPiwVrCcikqWDDnnnuut64gK6y40BW0e3/44Qf3/vvv+xgV1s9ff/3l/ybwnEVUdh9j4EHOcwmpR7sQ1zzzzOOttyWWWMITGIXPstxMazePCPPGjEWE2xkW2rjmmms82eBqWqnbNu46P7SjuNZ0emiccyKs6YC9kQcuSxWyyhKRNuKVvbAecScsAdo3ciTgnRXAx/oxEiGuZH+XrdYR1KaUBbZtVZK6kCfEQslrH3lIqyiyZhhTvIoHHvvss09PfsODGB5W0m233TYESqwts5bMQjRMsyxGIy2La8lFHP6HR4Q1jJibCwiZQFa4anVTBRDX2skTnVU9YkPHH3/8EFcwjHnFJBOTR3w9/p+A+uqrr+4D9Z988ombaaaZpiEuIzSTM/4/JDLq2HViaqwW4sblBd8hprL4nfVr8SxWYLGQqhQjs5i4wmA88tW11Kr0rTr5CIiwhkk7wngVDwFk1aRY3Ci+l+D4Agss4FZbbTXv1h177LE9V9AC7SuuuKK75JJL3DfffONvJyZmpGHxsaoy2QPNuOgbuazdqm0svPDCQ6ws0h/4OeKII9yTTz7pc7/yrCwjLNqATCG7ojHEQfg8GeP28vpXXKvqLLdbT4TVLp6ZrYUpC01dQGs4dgVZ7SNuY3lOJGmSUxVaYmGgnVgYW2X4gWR4QK3YA29EVpfEikggtODoM+yX+5ZZZhmfggDZbrXVVj5exGphXpDcrteZvqqkFbeZR1phXAtLuW4wv47sqjsVARHWADXBrCFzAdsmq80228w/+Ntvv73PawpdzLBvAu0EivMK5EWxB84C/DGRkVBqlhm/LekT1wwLJ7aYiogpJKk8uVgtLHK77HqdKbQgPHEoWzmscn8RcUJcimtVQbH/OiKs/jHMtapIWWiLrOK4Fe2SjkDCJ9dw+3CliFtRsMT4jLykJu6nkRgrbOQhrbXWWj7tISSx/fbbzwfxr776au/KhdewlLCaeNDNeqoLtVlRsYVj25fiBNkq7SOPBf3DVcMq91LHYlphsD6Oayn1oSqa9euJsOpjVnpHGK8icbNpcN06KiIriIkSpjBYfRI1mwT1rV+sNCOiZZdd1n8cWl8QUd5nH3zwgb/G9pu6WebWP0SA5WaZ72TBY0mGZaeddvJE+uKLL/bicaUT1LDCzjvv7OXJipdhbfIlAmZYW0p9aAhyyW0irJZxDVMWiC+xMtdPiTcmQ4CQE5YUQWkeEP7H7cPlNFeQejxEdfchmntnMoerg6RF5KUwsGoYrvqFK4Lc13RvoO1HxGqZZZZZ/F5Hgvv8kHxaN9Dfz1xk3YtbSl7ctdde6yB1gvEQLauRfFko9aFdxEVYLeEZpyz0G69CrKz0hT333NMnc7IdBnIy15AVQrsHsthjjz3cKaecUnl09HXzzTcX1ocg82JhpGkUFbbaNMkQt606WGkXXXSRz/wn+56tS+Rr2cIASbTxSRCVB9+wImkdkDGLBSwUmBUa5msp9aEhuDm3ibBawHMQZIXyx3lLZknhchC/MWuLb/eQ4MKk0SrDK8vrsjYuvPBCb8nFJSvDPKvfJttiePhtPyCkF+eLkej6zjvveLcQa4vTIYbD6mJldvfdd/e7B7IKZIocFtxXXKuKJpbXEWGVY1RYw7LIsTDaiFfRWVkWO3VC1xDXI3QFqwbaqxKVARCe+hCCkpcb1hZp2Wpg0UNPzOz+++/324AoWFuceFGFvHCdKdxbZeWQvLOLL77YbbPNNoW6YcF4YnAQl1If+nzYlNbQHMA4ZQFlbLIaF0pQh0DCuFVIcuRcnXfeeaXB9jp9GUGSEpAVxK9DWDbeOhniYc5V2bEz7F3khAh+UyCsMuLCrcN6e+6556bZc5ilIWBHYm6VAmkhv8W1IK86Y6/SR5fqyMJqMNuDcAHrEAhkhXtlKQwheWItFBGnHWdTtA8xCxJSJthInVWaEBbtVH1wedhZIcT6qepahcRFioUR17fffps5BksqhVziPYfhDVhXyL3ccsvV0pw4rlV1HLU66UBlEVbNSW6brOoQFaJakN3Iis84UgUXEeuKlz3klbp9he0MgrBov+qDSwY/K29N4mBspMbqgriwtuxAwRinKnsOd9ttN3f99dfX1Jqp1Y20sLKajqVRxyPoJhFWxck0y4Rve+JVdqIBq4GsWLFKF37rhkv8WD1ZrlRdAonjVohu8a6sM7XCodXtK4YlL35FvaYWlvVRhbR42Fml7Mel4mwuLC+I65FHHnFZ1hYuJ6kJ4RlaIRZVZC1SqZC0LK6l1IeKD6FiWNWAiq2qcFsHGeAoPqtC5DzxP/lBrFZRICuOMo5LlcB6eI+RFSkNdnZWlUB7v0SFDPSdF79qg7CqWlpVgu9lMwphcQQ0AXbmDeIKi1lwBxxwQG+Fr03Coq2suFa/RFg27pFyXRZWyUwWkRWZ5JzKiTXFD5uOCdzaeexZZIU1VpazlCVSHGSnjp2umRdob4Os6Ac31PYRZsnWVj9lDy2Wz2mnneZFKAu+lz2gkBauIiW2tpCDubMz3cOVwyYuaZ4slmSq1Iey2fr/6yKsAqzMCuKBJd8HxbL9Z3zbk8BIwcUgifDuu+/uuRl5ltVBBx3kTwutU+LkUO6FJMjT4locaMfyYp9fXoC5Tt/ULYpfmSxN9vVlyVFECGFOVhm5VRkjVhakxW++ZDiD3koYhI83SvdLlqFsWXGtohNcq4xrJNcRYWXMrlkMFsgOFda2poSERT1iHkZmeWTVxBKBkPghyG5xsNAVxLoK9yo26aNMwSHYoiOc2+4z7/A85DS3sE1LB2uLLxuC8aE1hRtMYqgdjWzz22bfjCmOa/UTpyuby9Svi7CiGSxyAalKzk5YIDA23lpWOkmb5EFllfAFCVUUJyvIzn1FgXayr+O37FTpK69OWfyqbQtr7bXX9qIQiGa7S1zCnKyqaRFVxk+7kBaEFZIW1hTX4tNK27DwQrksyZTP5CLmz5gIK8CmiKzYEkLMigxqDssjZsVrsHAlWEGjYMoXnTvFUTBlL44wcbKC7CE5cD0ro/2YY47pjYh9dv2SF/3wFp2i0q+FBUlxKkR4qB9vnrbTIMK+23YL47Yhrccff7xnLZs1lbVyOAjSsiRTI622rbkq5P1friPCipbl7fyq+C0rPEzErMySwhULY1plZIUSnH/++W7cuHE9gitSjDg5lLph+gCbm/OOreEIGDYJ21EwvMGZbSvx5mBzb+M9i6FcZfGr0OLLGo/hxrW4H06zgMStQFD8ZFlWYdvhwX1txpPowyytW2+9tddlURC+TSvPOrRgfJivpdSHqeh0nrDy4lXk/OSVX3/91QdrLaZRhaxoi/1ukEz8XsC4nyyyCokhK9CeJyukZXvsbIsKlhenlPLiCAoWlFli1g5EQ24Zsavjjjuu8EuX68Twso5U5n47vpmjYeiH1A8WKhgH51lRykgqtoQ4PpnStpVDm2eddZY/tJAXYVgZriC89ZcV1xrEWAsn9j94sdOElecC4qKwlQOLgJc68GYY4lRZpSpZ2b2czom7Y2XOOef0f/7888/+d1aQnc9jYq17KCAk+eCDD3qSMrc279A7ssoXW2wx/35CiLtsGwpbdsg9w5LLejEq7jSxP86NYmsLZPX33397kuIlrXVL6Ba26TLRLkfsQKzICmGzcmirrWEQPl45hISfeeaZukMprG+kRSXFtaZC1VnCClMWyItCIX766ScPir2Mk9gUr8yCsLBCIBd7TRSxHVyqrONWirSQb+68c6foC8LC+glX5UJXsCyjvahvLLzx48e7iRMnevf2zjvvnOaUTmSAsJGBhxbyKiskY9IuhHXTTTcNSQ/gXgiL0zpDorKTUsvazrtOYqft+WvTLTM3GnIn+B5v57EgfLhyiHtetCWq6Ri5LysYX7SK2k9fKdzbOcIKA8QWr+KBg5ziFUCbQILtWFuWaAhZYVkRg6lbCOgeddRRQ27jm5wfyILk0/htyyG5lm1urioPDxhB+7DQP2MaO3Zs5huZq7Q9ZswYT1ph4QHjwEFeU99WCbfqDMpVsqx4fmNxk/bAFxTxJIszQZqD6j/EKo5rca1Nom5rXgbdTqcIK3arLKi57rrr+lUqlJKjfCGn8ChgO6aXyTCyKnu1fN7Eofz7779/b7UQlxOSwO3AVct6NbwlZRYF2usqSrw1CMJk1RPLip+mhZwm5A2TMNt020yu8AQHPoM0BlVILMX6xp1FZ3BjIWbm45dffvFJxWVucxuycVAheWHooC0KDQdZtiF7W210hrDK8qsgrMUXX9zj+ttvv3nFjN+q0i9Z2aRh2eBu2BYdXC9cJguCWz1cwbPPPtv/iyvYzwtYY4W5/PLLh7zqnhyxfsnK+uBhDlfvkPuwww5rS2d77YRuIedZWSC+9Y7+r0FSUsxlvOyyy3oJn+xywFofjoKVZ6dNdDH1YcQTVhj/MRfQJjpOVcDS4qhdYjyDIiuUmgA4aQdsmObbOi/wbFaQZdzXDbQXPUAhYWFNzjvvvN4VbKNgZT377LM+sI7VOijCGlTwvQgDFhUmTJjgICwKMrADoZ+3E9XFPCuuhY7ccMMNjd9QVFeG6VV/RBNWHK/CdOdYGKwbJhj3D1cMgsI1w+xnky/Exud2hIy9gaapG5g1uaQaFB2xixtqriDyjB49unB7TF0FAhvcU8534hX2lDZjTI8++qibNGmSf3GEBYnrylhWnweXcdiXC+4ROHWh2IkPjNV0mr9Huos4YgmLoDLKrCIEuoYAiwK4yyOxjFjCYu8XR7moCIGuIYClXLRFLGU8Rixh4ZKIsFJWTcneFAEIixXfkVhGLGGNxMnSmIRA1xEQYXVdAzR+IZAQAiKshCZLogqBriMgwuq6Bmj8QiAhBERYCU2WRBUCXUdAhNV1DdD4hUBCCIiwEposiSoEuo6ACKvrGqDxC4GEEBBhJTRZElUIdB0BEVbXNUDjFwIJISDCSmiyJKoQ6DoCIqyua4DGLwQSQkCEldBkSVQh0HUERFhd1wCNXwgkhIAIK6HJkqhCoOsIiLC6rgEavxBICAERVkKTJVGFQNcREGF1XQM0fiGQEAIirIQmS6IKga4jIMLqugZo/EIgIQREWAlNlkQVAl1HQITVdQ3Q+IVAQgiIsBKaLIkqBLqOgAir6xqg8QuBhBAQYSU0WRJVCHQdARFW1zVA4xcCCSEgwkposiSqEOg6AiKsrmuAxi8EEkJAhJXQZElUIdB1BERYXdcAjV8IJISACCuhyZKoQqDrCIiwuq4BGr8QSAgBEVZCkyVRhUDXERBhdV0DNH4hkBACIqyEJkuiCoGuIyDC6roGaPxCICEERFgJTZZEFQJdR0CE1XUN0PiFQEIIiLASmiyJKgS6joAIq+saoPELgYQQEGElNFkSVQh0HQERVtc1QOMXAgkhIMJKaLIkqhDoOgIirK5rgMYvBBJCQISV0GRJVCHQdQREWF3XAI1fCCSEgAgrocmSqEKg6wj8D48WHkcyu8bPAAAAAElFTkSuQmCC
;file_total_lines: 49899
;estimated_time(s): 6691.780000000001
;nozzle_temperature(°C): 222
;build_plate_temperature(°C): 65
;work_speed(mm/minute): 1800
;max_x(mm): 46.4064587020874
;max_y(mm): 57.22766792297363
;max_z(mm): 6.5666280937194825
;min_x(mm): -46.4064587020874
;min_y(mm): -57.22766792297363
;min_z(mm): 0

;Header End

; G-code for 3dp engraving
; Generated by Snapmaker Luban 3.15.0
; Tue Jul 20 2021 14:49:15

M82 ;absolute extrusion mode
;Start GCode begin
M104 S222
M140 S65
G28 ;home
G90 ;absolute positioning
G1 X-10 Y-10 F3000
G1 Z0 F1800
M109 S222;Wait for Hotend Temperature
M190 S65;Wait for Bed Temperature
G92 E0
G1 E20 F200
G92 E0
;Start GCode end
G92 E0
G1 F1500 E-6.5
;LAYER_COUNT:43
;LAYER:0
M107
;MESH:/Users/x/Library/Application Support/snapmaker-luban/Tmp/B1card5122021_49299089.stl
G0 F1200 X63.844 Y18.745 Z0.3
;TYPE:WALL-INNER
G1 F1500 E0
G1 F1080 X63.933 Y18.784 E0.00485
G1 X64.169 Y18.887 E0.01769
G1 X63.903 Y18.959 E0.02167
G1 X63.852 Y18.973
G1 X63.504 Y19.16 E0.04138
G1 X63.206 Y19.419 E0.06108
G1 X62.972 Y19.738 E0.08082
G1 X62.817 Y20.101 E0.10051
G1 X62.745 Y20.489 E0.1202
G1 X62.762 Y20.883 E0.13987
G1 X62.866 Y21.264 E0.15957
G1 X63.053 Y21.612 E0.17928
G1 X63.312 Y21.91 E0.19898
G1 X63.631 Y22.144 E0.21872
G1 X63.994 Y22.299 E0.23841
G1 X64.382 Y22.371 E0.2581
G1 X64.776 Y22.354 E0.27777
G1 X65.158 Y22.25 E0.29753
G1 X65.505 Y22.063 E0.31719
G1 X65.802 Y21.805 E0.33682
G1 X66.037 Y21.486 E0.35659
G1 X66.191 Y21.124 E0.37621
G1 X66.192 Y21.122 E0.37632
G1 X66.264 Y20.734 E0.39601
G1 X66.249 Y20.396 E0.41289
G1 X66.394 Y20.663 E0.41531
G1 X66.541 Y20.931 E0.4253
G1 X66.542 Y20.933 E0.42541
G1 X67.091 Y21.94 E0.48263
G1 X67.522 Y23.577 E0.56709
G1 X71.338 Y27.975 E0.85758
G1 X64.142 Y61.127 E2.55006
G1 X64.097 Y61.338 E2.56082
G1 X63.891 Y61.276 E2.56761
G1 X61.521 Y60.56 E2.69113
G1 X60.922 Y60.336 E2.72303
G1 X60.658 Y60.139 E2.73947
G1 X60.474 Y59.87 E2.75573
G1 X60.353 Y59.472 E2.77648
G1 X60.271 Y59.142 E2.79345
G1 X60.54 Y21.423 E4.6753
G1 X60.797 Y20.55 E4.7207
G1 X61.837 Y19.32 E4.80106
G1 X62.924 Y11.815 E5.1794
G1 X62.957 Y11.587 E5.19089
G1 X63.178 Y11.653 E5.19805
G1 X63.867 Y11.86 E5.23394
G1 X63.844 Y18.745 E5.57743
G0 F1200 X64.245 Y18.483
;TYPE:WALL-OUTER
G1 F1080 X65.422 Y18.996 E5.64149
G1 X66.52 Y20.057 E5.71766
G1 X67.466 Y21.794 E5.81634
G1 X67.885 Y23.385 E5.89842
G1 X71.771 Y27.864 E6.19426
G1 X64.465 Y61.528 E7.91286
G1 X64.447 Y61.613 E7.9172
G1 X64.374 Y61.839 E7.92905
G1 X64.29 Y61.814 E7.93277
G1 X61.391 Y60.939 E8.08384
G1 X60.729 Y60.691 E8.11911
G1 X60.365 Y60.42 E8.14175
G1 X60.109 Y60.044 E8.16444
G1 X59.97 Y59.589 E8.18818
G1 X59.871 Y59.188 E8.20879
G1 X60.14 Y21.363 E10.09593
G1 X60.436 Y20.358 E10.1482
G1 X61.458 Y19.149 E10.22718
G1 X62.595 Y11.299 E10.62291
G1 X62.628 Y11.07 E10.63445
G1 X62.85 Y11.136 E10.64163
G1 X64.268 Y11.563 E10.71551
G1 X64.245 Y18.483 E11.06075
G0 F1200 X64.428 Y18.562
G0 X64.6 Y18.745
G0 X65.953 Y19.613
G0 X65.888 Y20.396
G0 X65.854 Y20.898
G0 X65.245 Y22.317
G0 X65.009 Y21.876
G1 F1080 X65.276 Y21.732 E11.07589
G1 X65.506 Y21.532 E11.09109
G1 X65.687 Y21.286 E11.10633
G1 X65.807 Y21.006 E11.12153
G1 X65.862 Y20.706 E11.13674
G1 X65.849 Y20.402 E11.15192
G1 X65.769 Y20.107 E11.16717
G1 X65.625 Y19.84 E11.18231
G1 X65.425 Y19.61 E11.19751
G1 X65.179 Y19.429 E11.21275
G1 X64.897 Y19.308 E11.22806
G1 X64.599 Y19.254 E11.24317
G1 X64.295 Y19.267 E11.25835
G1 X64.001 Y19.347 E11.27355
G1 X63.732 Y19.491 E11.28877
G1 X63.502 Y19.691 E11.30398
G1 X63.322 Y19.937 E11.31919
G1 X63.202 Y20.217 E11.33439
G1 X63.147 Y20.517 E11.3496
G1 X63.16 Y20.821 E11.36478
G1 X63.24 Y21.115 E11.37998
G1 X63.384 Y21.384 E11.39521
G1 X63.584 Y21.614 E11.41041
G1 X63.83 Y21.794 E11.42562
G1 X64.11 Y21.914 E11.44082
G1 X64.41 Y21.969 E11.45603
G1 X64.714 Y21.956 E11.47122
G1 X65.009 Y21.876 E11.48646
G0 F1200 X65.185 Y21.781
G0 X65.728 Y22.386
;TYPE:SKIN
G1 F1080 X66.09 Y22.071 E11.5104
G1 X66.378 Y21.681 E11.53459
G1 X66.434 Y21.55 E11.5417
G1 X66.727 Y22.089 E11.57231
G1 X67.167 Y23.764 E11.65871
G1 X70.916 Y28.083 E11.94404
G1 X63.806 Y60.842 E13.61644
G1 X61.648 Y60.191 E13.7289
G1 X61.112 Y59.99 E13.75746
G1 X60.943 Y59.865 E13.76794
G1 X60.83 Y59.698 E13.778
G1 X60.729 Y59.368 E13.79522
G1 X60.661 Y59.098 E13.80911
G1 X60.93 Y21.48 E15.68593
G1 X61.148 Y20.74 E15.72442
G1 X62.207 Y19.486 E15.8063
G1 X63.278 Y12.091 E16.17909
G1 X63.477 Y12.15 E16.18945
G1 X63.454 Y18.744 E16.51843
G1 X63.281 Y18.837 E16.52822
G1 X62.917 Y19.154 E16.55231
G1 X62.631 Y19.543 E16.57639
G1 X62.441 Y19.988 E16.60053
G1 X62.353 Y20.462 E16.62459
G1 X62.374 Y20.943 E16.64861
G1 X62.501 Y21.41 E16.67275
G1 X62.73 Y21.835 E16.69684
G1 X63.047 Y22.199 E16.72092
G1 X63.436 Y22.485 E16.74501
G1 X63.881 Y22.675 E16.76915
G1 X64.355 Y22.763 E16.7932
G1 X64.836 Y22.742 E16.81722
G1 X65.304 Y22.615 E16.84141
G1 X65.728 Y22.386 E16.86545
G0 F1200 X64.38 Y22.41
G0 X63.983 Y22.337
G0 X63.609 Y22.177
G0 X63.286 Y21.94
G0 X63.021 Y21.634
G0 X62.829 Y21.279
G0 X62.723 Y20.889
G0 X62.719 Y20.776
G0 X63.186 Y13.971
G0 X63.237 Y14.022
G1 F1080 X63.2 Y14.551 E16.89287
G1 X62.944 Y18.254 E17.08478
G1 X61.935 Y20.64 E17.21872
G0 F1200 X61.422 Y20.692
G1 F1080 X62.479 Y21.75 E17.29333
G1 X62.507 Y21.778
G0 F1200 X63.391 Y22.662
G1 F1080 X70.39 Y29.661 E17.78715
G0 F1200 X70.49 Y29.195
G1 F1080 X64.215 Y22.92 E18.22988
G0 F1200 X64.785 Y22.924
G1 F1080 X70.591 Y28.731 E18.63956
G0 F1200 X70.693 Y28.266
G1 F1080 X65.244 Y22.817 E19.02402
G0 F1200 X65.633 Y22.641
G1 F1080 X68.055 Y25.063 E19.1949
G1 X68.083 Y25.091
G0 F1200 X66.858 Y23.3
G1 F1080 X65.97 Y22.413 E19.25752
G0 F1200 X66.262 Y22.138
G1 F1080 X66.657 Y22.534 E19.28543
G0 F1200 X61.1 Y22.633
G1 F1080 X69.986 Y31.519 E19.91238
G0 F1200 X69.885 Y31.984
G1 F1080 X61.096 Y23.195 E20.53249
G0 F1200 X61.092 Y23.757
G1 F1080 X69.785 Y32.449 E21.1458
G0 F1200 X69.683 Y32.914
G1 F1080 X61.088 Y24.318 E21.75225
G0 F1200 X61.084 Y24.88
G1 F1080 X69.582 Y33.378 E22.35183
G0 F1200 X69.482 Y33.844
G1 F1080 X61.08 Y25.442 E22.94464
G0 F1200 X61.076 Y26.003
G1 F1080 X69.381 Y34.308 E23.5306
G0 F1200 X69.28 Y34.773
G1 F1080 X61.072 Y26.565 E24.10972
G0 F1200 X61.068 Y27.127
G1 F1080 X69.179 Y35.238 E24.682
G0 F1200 X69.078 Y35.703
G1 F1080 X61.064 Y27.688 E25.24746
G0 F1200 X61.06 Y28.25
G1 F1080 X68.977 Y36.167 E25.80605
G0 F1200 X68.877 Y36.633
G1 F1080 X61.056 Y28.812 E26.35786
G0 F1200 X61.052 Y29.373
G1 F1080 X68.776 Y37.097 E26.90283
G0 F1200 X68.674 Y37.562
G1 F1080 X61.048 Y29.935 E27.44092
G0 F1200 X61.044 Y30.497
G1 F1080 X68.574 Y38.027 E27.97221
G0 F1200 X68.473 Y38.492
G1 F1080 X61.04 Y31.058 E28.49668
G0 F1200 X61.036 Y31.62
G1 F1080 X68.372 Y38.956 E29.01427
G0 F1200 X68.271 Y39.421
G1 F1080 X61.032 Y32.182 E29.52503
G0 F1200 X61.028 Y32.743
G1 F1080 X68.17 Y39.886 E30.02897
G0 F1200 X68.069 Y40.351
G1 F1080 X61.024 Y33.305 E30.52607
G0 F1200 X61.02 Y33.867
G1 F1080 X67.969 Y40.816 E31.01635
G0 F1200 X67.868 Y41.28
G1 F1080 X61.016 Y34.429 E31.49977
G0 F1200 X61.012 Y34.99
G1 F1080 X67.766 Y41.745 E31.97633
G0 F1200 X67.666 Y42.21
G1 F1080 X61.008 Y35.552 E32.44609
G0 F1200 X61.004 Y36.114
G1 F1080 X67.565 Y42.675 E32.909
G0 F1200 X67.464 Y43.139
G1 F1080 X60.999 Y36.675 E33.36511
G0 F1200 X60.996 Y37.237
G1 F1080 X67.363 Y43.605 E33.81437
G0 F1200 X67.262 Y44.069
G1 F1080 X60.992 Y37.799 E34.25675
G0 F1200 X60.987 Y38.36
G1 F1080 X67.161 Y44.534 E34.69236
G0 F1200 X67.061 Y44.999
G1 F1080 X60.984 Y38.922 E35.12113
G0 F1200 X60.98 Y39.484
G1 F1080 X66.96 Y45.464 E35.54305
G0 F1200 X66.859 Y45.928
G1 F1080 X60.975 Y40.045 E35.95816
G0 F1200 X60.972 Y40.607
G1 F1080 X66.758 Y46.393 E36.36639
G0 F1200 X66.657 Y46.858
G1 F1080 X60.968 Y41.169 E36.76778
G0 F1200 X60.963 Y41.73
G1 F1080 X66.556 Y47.323 E37.1624
G0 F1200 X66.456 Y47.788
G1 F1080 X60.96 Y42.292 E37.55017
G0 F1200 X60.956 Y42.854
G1 F1080 X66.354 Y48.252 E37.93103
G0 F1200 X66.253 Y48.717
G1 F1080 X60.951 Y43.415 E38.30512
G0 F1200 X60.948 Y43.977
G1 F1080 X66.153 Y49.182 E38.67236
G0 F1200 X66.052 Y49.647
G1 F1080 X60.944 Y44.539 E39.03275
G0 F1200 X60.939 Y45.1
G1 F1080 X65.951 Y50.111 E39.38634
