;Header Start

;FLAVOR:Marlin
;TIME:6666
;Filament used: 0m
;Layer height: 0.15


;header_type: 3dp
;thumbnail: data:image/png;base64,iVBORw0KGgoAAAANSUhEUgAAASwAAACWCAYAAABkW7XSAAAIEUlEQVR4Xu3dzW0dSQyF0adUFIhXWjkQxeAQHINiUSwORBsP2vBgPLYhvf6r4mUfAV5NdxfrI3lB1a2BHt7e3r7f/CCAAAIBBB4IVkCWhIgAAj8IECyFgAACMQQIVkyqBIoAAgRLDSCAQAwBghWTKoEigADBUgMIIBBDgGDFpEqgCCBAsNQAAgjEECBYMakSKAIIECw1gAACMQQIVkyqBIoAAgRLDSCAQAwBghWTKoEigADBUgMIIBBDgGDFpEqgCCBAsNQAAgjEECBYMakSKAIIECw1gAACMQQIVkyqBIoAAgRLDSCAQAwBghWTKoEigEBZwXp5eZEdBBCYROD5+XnSyu8vW1awvnz5UhKYoBC4AoGvX7+W3GZZwVomrG/fvpWEJigEOhN4fHy8mbBWZvj19fW2/PODAAJjCRCsDbwJ1gZoXkHgAAJPT0+35V/Fn7K/Ei6/Djp4r1gyYupOYPl1cJmyKv6UFawFloP3iiUjpu4ECNbGDBOsjeC8hsAOAlUdwmVLpScsTuGOqvMqAhsIVD5wLy9YDt43VJxXENhBgGDtgEewdsDzKgIbCFR2CE1YGxLqFQQ6E6h84F5esFxt6Nwa9laRAMHamRVO4U6AXkdgBYHKDmH5CWsJkGCtqDaPIrCTAMHaCdDVhp0AvY7AnQSqO4QRExan8M5q8xgCOwkQrJ0Al9cJ1gEQfQKBOwhUv9IQMWFxCu+oNI8gcACB6g5hhGA5eD+gEn0CgTsIEKw7IN3zCKfwHkqeQWAfgeoOYcyExSncV4jeRuAjAgkH7jGC5eD9o3Lz3xHYR4Bg7eP3v7cJ1oEwfQqBvxBIcAhNWEoXAQR+EEg4cI8RLFcbdBUC5xIgWAfz5RQeDNTnEPiFQIJDGDNhLYESLP2FwHkECNbBbF1tOBiozyHwk0CKQxg1YXEK9RcC5xAgWCdwJVgnQPVJBG63H3/luepfev49QaX/zNevwXIK9RYC5xBIcQijfiV08H5OsfoqAgTrpBrgFJ4E1mcvTSDFIYybsDiFl+4rmz+BQNKBe5xgOXg/oWJ98tIECNaJ6SdYJ8L16UsSSHIITViXLFGbRuA/AkkH7nGC5WqDVkPgWAIE61ief3yNU3gyYJ+/FIEkhzBuwloCJliX6iebPZkAwToZsKsNJwP2+csQSHMIIycsTuFl+slGTyZAsE4GvHyeYA2AbIlLEEi70hA5YXEKL9FLNjmAQJpDGClYDt4HVLIlLkGAYA1KM6dwEGjLtCaQ5hDGTlicwtZ9ZHMDCCQeuMcKloP3ARVtidYECNbA9BKsgbAt1ZJAokNowmpZijaFwMcEEg/cYwXL1YaPC9ITCLxHgGANrg9O4WDglmtFINEhjJ2wlsAJVqv+sZnBBAjWYOCuNgwGbrk2BFIdwugJi1PYpn9sZDABgjUY+LIcwZoA3ZItCKReaYiesDiFLXrHJiYQSHUIowXLwfuESrdkCwIEa1IaOYWTwFs2mkCqQxg/YXEKo/tG8BMIJB+4xwuWg/cJFW/JaAIEa2L6CNZE+JaOJJDsEJqwIktO0AhsJ5B84B4vWK42bC9cb16TAMGanHdO4eQEWD6KQLJDGD9hLRsgWFH9ItjJBAjW5AS42jA5AZaPIZDuELaYsDiFMf0i0MkECNbkBCzLE6wCSRBCBIH0Kw0tJixOYUSvCLIAgXSHsIVgOXgv0AlCiCBAsIqkiVNYJBHCKE0g3SFsM2FxCkv3ieAKEOhw4N5GsBy8F+gIIZQmQLAKpYdgFUqGUEoS6OAQmrBKlpagEDieQIcD9zaC5WrD8QXui70IEKxi+eQUFkuIcEoR6OAQtpmwlo0QrFL9IZhiBAhWsYS42lAsIcIpQ6CLQ9hqwuIUlukPgRQjQLCKJWQJh2AVTIqQShDocqWh1YTFKSzRG4IoSKCLQ9hKsBy8F+wUIZUgQLBKpOHPIDiFRRMjrKkEujiE7SYsTuHUvrB4QQKdDtzbCZaD94IdI6SpBAjWVPzvL06wCidHaFMIdHIITVhTSsiiCIwj0OnAvZ1gudowrhGslEGAYBXPE6eweIKEN5RAJ4ew3YS1bIhgDe0HixUnQLCKJ8jVhuIJEt4wAt0cwpYTFqdwWD9YqDgBglU8QUt4BCsgSUIcQqDblYaWExancEgvWCSAQDeHsKVgOXgP6CQhDiFAsIZg3r8Ip3A/Q1/IJ9DNIWw7YXEK85vNDvYR6Hjg3lawHLzvK3Zv5xMgWEE5JFhByRLqKQQ6OoQmrFNKxUcRmE+g44F7W8FytWF+w4hgLgGCNZf/6tU5hauReaERgY4OYdsJa9kYwWrUfbaymgDBWo1s7guuNszlb/V5BLo6hK0nLE7hvIax8lwCBGsu/02rE6xN2LzUgEDXKw2tJyxOYYPOs4VNBLo6hK0Fy8H7plr3UgMCBCs0iZzC0MQJexeBrg5h+wmLU7ir7r0cSKDzgXt7wXLwHthxQt5FgGDtwjf3ZYI1l7/VxxPo7BCasMbXkxUROJVA5wP39oLlasOpveHjBQkQrIJJWRMSp3ANLc+mE+jsELafsJYNEqz0FhT/GgIEaw2tgs+62lAwKUI6hUB3h/ASExan8JTe8NGCBAhWwaSsDYlgrSXm+VQCnz59un3+/Dk1/Lvifnh7e/t+15OhD3EKQxMn7NUEujuEl/iV0MH76rr3QigBghWauN/D5hQ2SaRtvEugu0N4mQmLU6jTuxO4woH7ZQTLwXv3drU/gtWoBghWo2Tayl8JdP+fnv/d9D9CMNWxkevRrAAAAABJRU5ErkJggg==
;file_total_lines: 7756
;estimated_time(s): 6346.17
;nozzle_temperature(°C): 225
;build_plate_temperature(°C): 65
;work_speed(mm/minute): 4800
;max_x(mm): 44
;max_y(mm): 52
;max_z(mm): 85
;min_x(mm): -44
;min_y(mm): -52
;min_z(mm): 0

;Header End

; G-code for 3dp engraving
; Generated by Snapmaker Luban 3.15.0
; Tue Aug 03 2021 14:54:39

M82 ;absolute extrusion mode
;Start GCode begin
M104 S225
M140 S65
G28 ;home
G90 ;absolute positioning
G1 X-10 Y-10 F3000
G1 Z0 F1800
M109 S225;Wait for Hotend Temperature
M190 S65;Wait for Bed Temperature
G92 E0
G1 E20 F200
G92 E0
;Start GCode end
;LAYER_COUNT:566
;LAYER:0
M107
G0 F2100 X14.526 Y8.184 Z0.3
;TYPE:SKIRT
G1 F900 X14.865 Y7.681 E0.03026
G1 X15.267 Y7.228 E0.06048
G1 X15.725 Y6.831 E0.09072
G1 X16.232 Y6.498 E0.12098
G1 X16.778 Y6.234 E0.15124
G1 X17.354 Y6.045 E0.18148
G1 X17.95 Y5.933 E0.21174
G1 X18.5 Y5.9 E0.23922
G1 X106.5 Y5.9 E4.62956
G1 X107.105 Y5.94 E4.65981
G1 X107.699 Y6.059 E4.69004
G1 X108.273 Y6.255 E4.7203
G1 X108.816 Y6.526 E4.75057
G1 X109.319 Y6.865 E4.78084
G1 X109.772 Y7.267 E4.81105
G1 X110.169 Y7.725 E4.84129
G1 X110.502 Y8.232 E4.87155
G1 X110.766 Y8.778 E4.90181
G1 X110.955 Y9.354 E4.93205
G1 X111.067 Y9.95 E4.96231
G1 X111.1 Y10.5 E4.9898
G1 X111.1 Y114.5 E10.17838
G1 X111.06 Y115.105 E10.20863
G1 X110.941 Y115.699 E10.23885
G1 X110.745 Y116.273 E10.26911
G1 X110.474 Y116.816 E10.29939
G1 X110.135 Y117.319 E10.32965
G1 X109.733 Y117.772 E10.35987
G1 X109.275 Y118.169 E10.39011
G1 X108.768 Y118.502 E10.42037
G1 X108.222 Y118.766 E10.45063
G1 X107.646 Y118.955 E10.48087
G1 X107.05 Y119.067 E10.51113
G1 X106.5 Y119.1 E10.53861
G1 X18.5 Y119.1 E14.92895
G1 X17.895 Y119.06 E14.9592
G1 X17.301 Y118.941 E14.98943
G1 X16.727 Y118.745 E15.01969
G1 X16.184 Y118.474 E15.04996
G1 X15.681 Y118.135 E15.08022
G1 X15.228 Y117.733 E15.11044
G1 X14.831 Y117.275 E15.14068
G1 X14.498 Y116.768 E15.17094
G1 X14.234 Y116.222 E15.2012
G1 X14.045 Y115.646 E15.23144
G1 X13.933 Y115.05 E15.2617
G1 X13.9 Y114.5 E15.28919
G1 X13.9 Y10.5 E20.47777
G1 X13.94 Y9.895 E20.50802
G1 X14.059 Y9.301 E20.53824
G1 X14.255 Y8.727 E20.5685
G1 X14.526 Y8.184 E20.59878
G0 F2100 X14.924 Y8.297
G1 F900 X15.261 Y7.826 E20.62767
G1 X15.66 Y7.406 E20.65657
G1 X16.113 Y7.044 E20.6855
G1 X16.611 Y6.749 E20.71438
G1 X17.145 Y6.524 E20.74329
G1 X17.705 Y6.376 E20.77219
G1 X18.5 Y6.3 E20.81203
G1 X106.5 Y6.3 E25.20237
G1 X107.078 Y6.34 E25.23128
G1 X107.645 Y6.459 E25.26018
G1 X108.19 Y6.655 E25.28908
G1 X108.703 Y6.924 E25.31797
G1 X109.174 Y7.261 E25.34687
G1 X109.594 Y7.66 E25.37577
G1 X109.956 Y8.113 E25.4047
G1 X110.251 Y8.611 E25.43358
G1 X110.476 Y9.145 E25.46249
G1 X110.624 Y9.705 E25.49138
G1 X110.7 Y10.5 E25.53123
G1 X110.7 Y114.5 E30.71981
G1 X110.66 Y115.078 E30.74871
G1 X110.541 Y115.645 E30.77762
G1 X110.345 Y116.19 E30.80651
G1 X110.076 Y116.703 E30.83541
G1 X109.739 Y117.174 E30.86431
G1 X109.34 Y117.594 E30.89321
G1 X108.887 Y117.956 E30.92214
G1 X108.389 Y118.251 E30.95102
G1 X107.855 Y118.476 E30.97992
G1 X107.295 Y118.624 E31.00882
G1 X106.5 Y118.7 E31.04867
G1 X18.5 Y118.7 E35.439
G1 X17.922 Y118.66 E35.46791
G1 X17.355 Y118.541 E35.49681
G1 X16.81 Y118.345 E35.52571
G1 X16.297 Y118.076 E35.55461
G1 X15.826 Y117.739 E35.5835
G1 X15.406 Y117.34 E35.6124
G1 X15.044 Y116.887 E35.64133
G1 X14.749 Y116.389 E35.67021
G1 X14.524 Y115.855 E35.69912
G1 X14.376 Y115.295 E35.72802
G1 X14.3 Y114.5 E35.76786
G1 X14.3 Y10.5 E40.95644
G1 X14.34 Y9.922 E40.98535
G1 X14.459 Y9.355 E41.01425
G1 X14.655 Y8.81 E41.04315
G1 X14.924 Y8.297 E41.07205
G0 F2100 X15.323 Y8.416
G1 F900 X15.657 Y7.978 E41.09953
G1 X16.052 Y7.594 E41.12701
G1 X16.498 Y7.27 E41.15451
G1 X16.986 Y7.015 E41.18198
G1 X17.506 Y6.832 E41.20949
G1 X18.047 Y6.727 E41.23698
G1 X18.5 Y6.7 E41.25962
G1 X106.5 Y6.7 E45.64996
G1 X107.05 Y6.74 E45.67747
G1 X107.588 Y6.859 E45.70496
G1 X108.103 Y7.055 E45.73245
G1 X108.584 Y7.323 E45.75992
G1 X109.022 Y7.657 E45.7874
G1 X109.406 Y8.052 E45.81489
G1 X109.73 Y8.498 E45.84239
G1 X109.985 Y8.986 E45.86986
G1 X110.168 Y9.506 E45.89736
G1 X110.273 Y10.047 E45.92486
G1 X110.3 Y10.5 E45.9475
G1 X110.3 Y114.5 E51.13608
G1 X110.26 Y115.05 E51.16359
G1 X110.141 Y115.588 E51.19108
G1 X109.945 Y116.103 E51.21857
G1 X109.677 Y116.584 E51.24604
G1 X109.343 Y117.022 E51.27352
G1 X108.948 Y117.406 E51.30101
G1 X108.502 Y117.73 E51.32851
G1 X108.014 Y117.985 E51.35598
G1 X107.494 Y118.168 E51.38348
G1 X106.953 Y118.273 E51.41097
G1 X106.5 Y118.3 E51.43362
G1 X18.5 Y118.3 E55.82395
G1 X17.95 Y118.26 E55.85146
G1 X17.412 Y118.141 E55.87895
G1 X16.897 Y117.945 E55.90645
G1 X16.416 Y117.677 E55.93392
G1 X15.978 Y117.343 E55.9614
G1 X15.594 Y116.948 E55.98888
G1 X15.27 Y116.502 E56.01638
G1 X15.015 Y116.014 E56.04385
G1 X14.832 Y115.494 E56.07136
G1 X14.727 Y114.953 E56.09885
G1 X14.7 Y114.5 E56.12149
G1 X14.7 Y10.5 E61.31007
G1 X14.74 Y9.95 E61.33758
G1 X14.859 Y9.412 E61.36507
G1 X15.055 Y8.897 E61.39257
G1 X15.323 Y8.416 E61.42004
G0 F2100 X15.454 Y8.99
G1 F900 X15.72 Y8.542 E61.44603
G1 X16.052 Y8.14 E61.47204
G1 X16.442 Y7.794 E61.49805
G1 X16.88 Y7.511 E61.52407
G1 X17.355 Y7.298 E61.55004
G1 X17.858 Y7.161 E61.57605
G1 X18.5 Y7.1 E61.60822
G1 X106.5 Y7.1 E65.99856
G1 X107.02 Y7.14 E66.02458
G1 X107.527 Y7.259 E66.05056
G1 X108.01 Y7.454 E66.07655
G1 X108.458 Y7.72 E66.10254
G1 X108.86 Y8.052 E66.12855
G1 X109.206 Y8.442 E66.15456
G1 X109.489 Y8.88 E66.18058
G1 X109.702 Y9.355 E66.20655
G1 X109.839 Y9.858 E66.23256
G1 X109.9 Y10.5 E66.26473
G1 X109.9 Y114.5 E71.45331
G1 X109.86 Y115.02 E71.47933
G1 X109.741 Y115.527 E71.50532
G1 X109.546 Y116.01 E71.5313
G1 X109.28 Y116.458 E71.5573
G1 X108.948 Y116.86 E71.58331
G1 X108.558 Y117.206 E71.60932
G1 X108.12 Y117.489 E71.63534
G1 X107.645 Y117.702 E71.66131
G1 X107.142 Y117.839 E71.68732
G1 X106.5 Y117.9 E71.71949
G1 X18.5 Y117.9 E76.10983
G1 X17.98 Y117.86 E76.13585
G1 X17.473 Y117.741 E76.16183
G1 X16.99 Y117.546 E76.18781
G1 X16.542 Y117.28 E76.21381
G1 X16.14 Y116.948 E76.23982
G1 X15.794 Y116.558 E76.26583
G1 X15.511 Y116.12 E76.29185
G1 X15.298 Y115.645 E76.31782
G1 X15.161 Y115.142 E76.34383
G1 X15.1 Y114.5 E76.376
G1 X15.1 Y10.5 E81.56458
G1 X15.14 Y9.98 E81.5906
G1 X15.259 Y9.473 E81.61658
G1 X15.454 Y8.99 E81.64257
G0 F2100 X15.853 Y9.088
G1 F900 X16.118 Y8.676 E81.66701
G1 X16.446 Y8.313 E81.69142
G1 X16.829 Y8.008 E81.71584
G1 X17.257 Y7.77 E81.74028
G1 X17.717 Y7.604 E81.76467
G1 X18.198 Y7.515 E81.78908
G1 X18.5 Y7.5 E81.80416
G1 X106.5 Y7.5 E86.1945
G1 X106.988 Y7.54 E86.21893
G1 X107.463 Y7.659 E86.24336
G1 X107.912 Y7.853 E86.26776
G1 X108.324 Y8.118 E86.2922
G1 X108.687 Y8.446 E86.31661
G1 X108.992 Y8.829 E86.34104
G1 X109.23 Y9.257 E86.36547
G1 X109.396 Y9.717 E86.38987
G1 X109.485 Y10.198 E86.41427
G1 X109.5 Y10.5 E86.42936
G1 X109.5 Y114.5 E91.61794
G1 X109.46 Y114.988 E91.64237
G1 X109.341 Y115.463 E91.6668
G1 X109.147 Y115.912 E91.6912
G1 X108.882 Y116.324 E91.71564
G1 X108.554 Y116.687 E91.74005
G1 X108.171 Y116.992 E91.76447
G1 X107.743 Y117.23 E91.78891
G1 X107.283 Y117.396 E91.8133
G1 X106.802 Y117.485 E91.83771
G1 X106.5 Y117.5 E91.85279
G1 X18.5 Y117.5 E96.24313
G1 X18.012 Y117.46 E96.26756
G1 X17.537 Y117.341 E96.29199
G1 X17.088 Y117.147 E96.31639
G1 X16.676 Y116.882 E96.34083
G1 X16.313 Y116.554 E96.36524
G1 X16.008 Y116.171 E96.38967
G1 X15.77 Y115.743 E96.4141
G1 X15.604 Y115.283 E96.4385
G1 X15.515 Y114.802 E96.4629
G1 X15.5 Y114.5 E96.47799
G1 X15.5 Y10.5 E101.66657
G1 X15.54 Y10.012 E101.691
G1 X15.659 Y9.537 E101.71543
G1 X15.853 Y9.088 E101.73983
G0 F2100 X16.252 Y9.194
G1 F900 X16.515 Y8.821 E101.7626
G1 X16.838 Y8.5 E101.78532
G1 X17.213 Y8.241 E101.80805
G1 X17.627 Y8.051 E101.83078
G1 X18.068 Y7.936 E101.85352
G1 X18.5 Y7.9 E101.87514
G1 X106.5 Y7.9 E106.26548
G1 X106.954 Y7.94 E106.28822
G1 X107.394 Y8.058 E106.31095
G1 X107.806 Y8.252 E106.33367
G1 X108.179 Y8.515 E106.35644
G1 X108.5 Y8.838 E106.37916
G1 X108.759 Y9.213 E106.40189
G1 X108.949 Y9.627 E106.42462
G1 X109.064 Y10.068 E106.44736
G1 X109.1 Y10.5 E106.46898
G1 X109.1 Y114.5 E111.65756
G1 X109.06 Y114.954 E111.6803
G1 X108.942 Y115.394 E111.70303
G1 X108.748 Y115.806 E111.72575
G1 X108.485 Y116.179 E111.74852
G1 X108.162 Y116.5 E111.77124
G1 X107.787 Y116.759 E111.79398
G1 X107.373 Y116.949 E111.8167
G1 X106.932 Y117.064 E111.83944
G1 X106.5 Y117.1 E111.86107
G1 X18.5 Y117.1 E116.2514
G1 X18.046 Y117.06 E116.27414
G1 X17.606 Y116.942 E116.29687
G1 X17.194 Y116.748 E116.31959
G1 X16.821 Y116.485 E116.34236
G1 X16.5 Y116.162 E116.36508
G1 X16.241 Y115.787 E116.38781
G1 X16.051 Y115.373 E116.41054
G1 X15.936 Y114.932 E116.43328
G1 X15.9 Y114.5 E116.45491
G1 X15.9 Y10.5 E121.64349
G1 X15.94 Y10.046 E121.66622
G1 X16.058 Y9.606 E121.68895
G1 X16.252 Y9.194 E121.71167
G0 F2100 X16.651 Y9.309
G1 F900 X16.91 Y8.98 E121.73256
G1 X17.227 Y8.706 E121.75347
G1 X17.59 Y8.497 E121.77436
G1 X17.987 Y8.361 E121.7953
G1 X18.5 Y8.3 E121.82107
G1 X106.5 Y8.3 E126.21141
G1 X106.917 Y8.34 E126.23231
G1 X107.319 Y8.458 E126.25321
G1 X107.691 Y8.651 E126.27412
G1 X108.02 Y8.91 E126.29501
G1 X108.294 Y9.227 E126.31591
G1 X108.503 Y9.59 E126.33681
G1 X108.639 Y9.987 E126.35775
G1 X108.7 Y10.5 E126.38352
G1 X108.7 Y114.5 E131.5721
G1 X108.66 Y114.917 E131.593
G1 X108.542 Y115.319 E131.61391
G1 X108.349 Y115.691 E131.63481
G1 X108.09 Y116.02 E131.6557
G1 X107.773 Y116.294 E131.67661
G1 X107.41 Y116.503 E131.6975
G1 X107.013 Y116.639 E131.71844
G1 X106.5 Y116.7 E131.74422
G1 X18.5 Y116.7 E136.13455
G1 X18.083 Y116.66 E136.15545
G1 X17.681 Y116.542 E136.17635
G1 X17.309 Y116.349 E136.19726
G1 X16.98 Y116.09 E136.21815
G1 X16.706 Y115.773 E136.23906
G1 X16.497 Y115.41 E136.25995
G1 X16.361 Y115.013 E136.28089
G1 X16.3 Y114.5 E136.30666
G1 X16.3 Y10.5 E141.49525
G1 X16.34 Y10.083 E141.51615
G1 X16.458 Y9.681 E141.53705
G1 X16.651 Y9.309 E141.55796
G0 F2100 X17.048 Y9.436
G1 F900 X17.303 Y9.155 E141.57689
G1 X17.612 Y8.935 E141.59581
G1 X17.959 Y8.783 E141.61471
G1 X18.5 Y8.7 E141.64202
G1 X106.5 Y8.7 E146.03236
G1 X106.877 Y8.74 E146.05127
G1 X107.237 Y8.858 E146.07017
G1 X107.564 Y9.048 E146.08904
G1 X107.845 Y9.303 E146.10797
G1 X108.065 Y9.612 E146.12689
G1 X108.217 Y9.959 E146.14579
G1 X108.3 Y10.5 E146.1731
G1 X108.3 Y114.5 E151.36168
G1 X108.26 Y114.877 E151.3806
G1 X108.142 Y115.237 E151.3995
G1 X107.952 Y115.564 E151.41836
G1 X107.697 Y115.845 E151.43729
G1 X107.388 Y116.065 E151.45622
G1 X107.041 Y116.217 E151.47512
G1 X106.5 Y116.3 E151.50243
G1 X18.5 Y116.3 E155.89276
G1 X18.123 Y116.26 E155.91168
G1 X17.763 Y116.142 E155.93058
G1 X17.436 Y115.952 E155.94945
G1 X17.155 Y115.697 E155.96838
G1 X16.935 Y115.388 E155.9873
G1 X16.783 Y115.041 E156.0062
G1 X16.7 Y114.5 E156.03351
G1 X16.7 Y10.5 E161.22209
G1 X16.74 Y10.123 E161.241
G1 X16.858 Y9.763 E161.2599
G1 X17.048 Y9.436 E161.27877
G0 F2100 X17.257 Y9.856
G1 F900 X17.445 Y9.579 E161.29547
G1 X17.693 Y9.356 E161.31211
G1 X17.987 Y9.197 E161.32879
G1 X18.311 Y9.113 E161.34549
G1 X18.5 Y9.1 E161.35494
G1 X106.5 Y9.1 E165.74528
G1 X106.832 Y9.14 E165.76196
G1 X107.144 Y9.257 E165.77858
G1 X107.421 Y9.445 E165.79529
G1 X107.644 Y9.693 E165.81193
G1 X107.803 Y9.987 E165.8286
G1 X107.887 Y10.311 E165.8453
G1 X107.9 Y10.5 E165.85475
G1 X107.9 Y114.5 E171.04333
G1 X107.86 Y114.832 E171.06002
G1 X107.743 Y115.144 E171.07664
G1 X107.555 Y115.421 E171.09334
G1 X107.307 Y115.644 E171.10998
G1 X107.013 Y115.803 E171.12666
G1 X106.689 Y115.887 E171.14335
G1 X106.5 Y115.9 E171.15281
G1 X18.5 Y115.9 E175.54314
G1 X18.168 Y115.86 E175.55983
G1 X17.856 Y115.743 E175.57645
G1 X17.579 Y115.555 E175.59315
G1 X17.356 Y115.307 E175.60979
G1 X17.197 Y115.013 E175.62647
G1 X17.113 Y114.689 E175.64317
G1 X17.1 Y114.5 E175.65262
G1 X17.1 Y10.5 E180.8412
G1 X17.14 Y10.168 E180.85788
G1 X17.257 Y9.856 E180.87451
G0 F2100 X17.656 Y9.964
G1 F900 X17.839 Y9.749 E180.88859
G1 X18.075 Y9.595 E180.90265
G1 X18.345 Y9.512 E180.91674
G1 X18.5 Y9.5 E180.9245
G1 X106.5 Y9.5 E185.31484
G1 X106.779 Y9.54 E185.3289
G1 X107.036 Y9.656 E185.34297
G1 X107.251 Y9.839 E185.35705
G1 X107.405 Y10.075 E185.37111
G1 X107.488 Y10.345 E185.3852
G1 X107.5 Y10.5 E185.39296
G1 X107.5 Y114.5 E190.58154
G1 X107.46 Y114.779 E190.5956
G1 X107.344 Y115.036 E190.60967
G1 X107.161 Y115.251 E190.62376
G1 X106.925 Y115.405 E190.63782
G1 X106.655 Y115.488 E190.65191
G1 X106.5 Y115.5 E190.65966
G1 X18.5 Y115.5 E195.05
G1 X18.221 Y115.46 E195.06406
G1 X17.964 Y115.344 E195.07813
G1 X17.749 Y115.161 E195.09222
G1 X17.595 Y114.925 E195.10628
G1 X17.512 Y114.655 E195.12037
G1 X17.5 Y114.5 E195.12813
G1 X17.5 Y10.5 E200.31671
G1 X17.54 Y10.221 E200.33077
G1 X17.656 Y9.964 E200.34484
G0 F2100 X17.94 Y10.285
G1 F900 X18.053 Y10.099 E200.35569
G1 X18.226 Y9.966 E200.36658
G1 X18.5 Y9.9 E200.38064
G1 X106.5 Y9.9 E204.77098
G1 X106.715 Y9.94 E204.78189
G1 X106.901 Y10.053 E204.79275
G1 X107.034 Y10.226 E204.80363
G1 X107.1 Y10.5 E204.81769
G1 X107.1 Y114.5 E210.00628
G1 X107.06 Y114.715 E210.01719
G1 X106.947 Y114.901 E210.02804
G1 X106.774 Y115.034 E210.03893
G1 X106.5 Y115.1 E210.05299
G1 X18.5 Y115.1 E214.44333
G1 X18.285 Y115.06 E214.45424
