;Header Start

;FLAVOR:Marlin
;TIME:6666
;Filament used: 0m
;Layer height: 0.15


;header_type: 3dp
;thumbnail: data:image/png;base64,iVBORw0KGgoAAAANSUhEUgAAASwAAACWCAYAAABkW7XSAAAG2klEQVR4Xu3dMU4sRxSG0XnrYB8QEZMTwSJYATEZGfsgJyaCfbAJEluDHPnJnu6e+1f37XdGctZTVZxb+gS8Qf71/f3918GLAAECDQR+CVaDKTkiAQI/AoLlIhAg0EZAsNqMykEJEBAsd4AAgTYCgtVmVA5KgIBguQMECLQREKw2o3JQAgQEyx0gQKCNgGC1GZWDEiAgWO4AAQJtBASrzagclAABwXIHCBBoIyBYbUbloAQICJY7QIBAGwHBajMqByVAQLDcAQIE2ggIVptROSgBAoLlDhAg0EZAsNqMykEJEBAsd4AAgTYCgtVmVA5KgIBguQMECLQREKw2o3JQAgQEyx0gQKCNgGC1GZWDEiAgWO4AAQJtBASrzagclAABwXIHCBBoIyBYbUbloAQICJY7QIBAGwHBajMqByVAQLDcAQIE2ggIVptROSgBAoLlDhAg0EZAsNqMykEJEBAsd4AAgTYCgtVmVA5KgIBguQMECLQREKw2o3JQAgQEyx0gQKCNgGC1GZWDEiAgWO4AAQJtBASrzagclAABwXIHCBBoIyBYbUbloAQICJY7QIBAGwHBajMqByVAQLDcAQIE2ggIVptROSgBAoLlDhAg0EZAsNqMykEJEBAsd4AAgTYCgtVmVA5KgIBguQMECLQREKw2o3JQAgQEyx0gQKCNgGC1GZWDEiAgWO4AAQJtBASrzagclAABwdrpHXh/f9/pVzbty7q+vp72oKdaCQhWq3FNO+zT09Ph+N+f/Hp8fDwc//Pal4Bg7Wueh+N3Vjc3Nzv7qpZ9OaK1zG3L7xKsLU9n5tnE6newt7e3gx8PZ16kDT8uWBsezpyjidV/a4nWnJu07WcFa9vzmXQ6sTrNJFqnjTo8IVgdpnTijMffWf3p/yp4aozHHwuP0fLqLSBYvef38wt2sZo2RNGa5rTlpwRry9PxnVX5dESrnHTogoI1lLtuM99ZLbf0cYfldmu/U7DWnsCC/X0wdAHav94iWucbrrGCYK2hfsaeYnUGnmjV4a20kmCtBL9kW7Faovb/7/GdVr1pckXBSuoWri1WhZi+08phhlcWrDBwxfJiVaHoO628Yn4Hwcobn7WDT7GfxTfrzX48nMW1ysOCtQr7tE3FappT5VP+hKdSs34twao3LVlRrEoYFy0iWovYhrxJsIYwz9tErOZ5JZ4WrYTq+WsK1vmG5Sv4FHs56ewF/QnPbLIhbxCsIczTNxGr6VbpJ0UrLTx/fcGabxZ7h1jFaBcvLFqL6SJvFKwI6/xFxWq+2ah3+LjDKOnT+wjWaaP4Ez4YGic+ewPROpuwZAHBKmFcvohYLbcb/U7RGi3++36CteIMxGpF/IVbi9ZCuKK3CVYR5NxlxGqu2HaeF631ZiFYK9iL1QroxVuKVjHoxOUEayJU1WM+xV4luf46ojV+BoI10FysBmIP2sqf8AyC/mcbwRrkLVaDoFfYRrTGoQvWAGuxGoC88haiNWYAgjXA2afYByCvvIU/4RkzAMEKOz8/P/s/M4eNt7L83d3d4f7+fivH2eU5BCs81tfX18PX11d4F8tvQeDi4uJwe3u7haPs9gyCFR7tx8fH4fPzM7yL5bcgIFj5KQhW2FiwwsAbWv7y8vJwdXW1oRPt7yiCFZ6pYIWBN7S8YOWHIVhhY8EKA29o+ePvr44/FnrlBAQrZ/uz8vEX7sdfvHvtX0Cw8jMWrLCxYIWBN7S8YOWHIVh548PLy8uAXWyxtsDDw8PaR9j9/oI1YMTH32N57V/AvxDmZyxYeWM7ECBQJCBYRZCWIUAgLyBYeWM7ECBQJCBYRZCWIUAgLyBYeWM7ECBQJCBYRZCWIUAgLyBYeWM7ECBQJCBYRZCWIUAgLyBYeWM7ECBQJCBYRZCWIUAgLyBYeWM7ECBQJCBYRZCWIUAgLyBYeWM7ECBQJCBYRZCWIUAgLyBYeWM7ECBQJCBYRZCWIUAgLyBYeWM7ECBQJCBYRZCWIUAgLyBYeWM7ECBQJCBYRZCWIUAgLyBYeWM7ECBQJCBYRZCWIUAgLyBYeWM7ECBQJCBYRZCWIUAgLyBYeWM7ECBQJCBYRZCWIUAgLyBYeWM7ECBQJCBYRZCWIUAgLyBYeWM7ECBQJCBYRZCWIUAgLyBYeWM7ECBQJCBYRZCWIUAgLyBYeWM7ECBQJCBYRZCWIUAgLyBYeWM7ECBQJCBYRZCWIUAgLyBYeWM7ECBQJCBYRZCWIUAgLyBYeWM7ECBQJCBYRZCWIUAgLyBYeWM7ECBQJCBYRZCWIUAgLyBYeWM7ECBQJCBYRZCWIUAgLyBYeWM7ECBQJCBYRZCWIUAgLyBYeWM7ECBQJPA3ethGoogKnnwAAAAASUVORK5CYII=
;file_total_lines: 10371
;estimated_time(s): 9602.18
;nozzle_temperature(°C): 220
;build_plate_temperature(°C): 65
;work_speed(mm/minute): 1800
;max_x(mm): 18.75000762939453
;max_y(mm): 36.25001525878906
;max_z(mm): 4
;min_x(mm): -18.75000762939453
;min_y(mm): -36.25001525878906
;min_z(mm): 0

;Header End

; G-code for 3dp engraving
; Generated by Snapmaker Luban 3.15.0
; Thu Oct 07 2021 22:57:26

M82 ;absolute extrusion mode
;Start GCode begin
M104 S220
M140 S65
G28 ;home
G90 ;absolute positioning
G1 X-10 Y-10 F3000
G1 Z0 F1800
M109 S220;Wait for Hotend Temperature
M190 S65;Wait for Bed Temperature
G92 E0
G1 E20 F200
G92 E0
;Start GCode end
G92 E0
G1 F1500 E-6.5
;LAYER_COUNT:26
;LAYER:0
M107
;MESH:/Users/x/Library/Application Support/snapmaker-luban/Tmp/plate_57275047.stl
G0 F1200 X80.65 Y98.15 Z0.3
;TYPE:WALL-INNER
G1 F1500 E0
G1 F1080 X44.35 Y98.15 E1.81101
G1 X44.35 Y26.85 E5.36819
G1 X80.65 Y26.85 E7.1792
G1 X80.65 Y98.15 E10.73637
G0 F1200 X81.05 Y98.55
;TYPE:WALL-OUTER
G1 F1080 X43.95 Y98.55 E12.5873
G1 X43.95 Y26.45 E16.18438
G1 X81.05 Y26.45 E18.03531
G1 X81.05 Y98.55 E21.63239
G0 F1200 X80.85 Y98.55
G0 X80.26 Y97.76
;TYPE:SKIN
G1 F1080 X44.74 Y97.76 E23.40449
G1 X44.74 Y27.24 E26.92275
G1 X80.26 Y27.24 E28.69485
G1 X80.26 Y97.76 E32.21311
G0 F1200 X45.536 Y97.579
G1 F1080 X44.919 Y96.962 E32.25664
G0 F1200 X44.919 Y96.397
G1 F1080 X46.101 Y97.579 E32.34004
G0 F1200 X46.667 Y97.579
G1 F1080 X44.919 Y95.831 E32.46337
G0 F1200 X44.919 Y95.265
G1 F1080 X47.233 Y97.579 E32.62663
G0 F1200 X47.799 Y97.579
G1 F1080 X44.919 Y94.699 E32.82983
G0 F1200 X44.919 Y94.134
G1 F1080 X48.364 Y97.579 E33.07289
G0 F1200 X48.93 Y97.579
G1 F1080 X44.919 Y93.568 E33.35589
G0 F1200 X44.919 Y93.002
G1 F1080 X49.496 Y97.579 E33.67882
G0 F1200 X50.061 Y97.579
G1 F1080 X44.919 Y92.437 E34.04162
G0 F1200 X44.919 Y91.871
G1 F1080 X50.627 Y97.579 E34.44435
G0 F1200 X51.193 Y97.579
G1 F1080 X44.919 Y91.305 E34.88701
G0 F1200 X44.919 Y90.74
G1 F1080 X51.758 Y97.579 E35.36954
G0 F1200 X52.324 Y97.579
G1 F1080 X44.919 Y90.174 E35.89201
G0 F1200 X44.919 Y89.608
G1 F1080 X52.89 Y97.579 E36.4544
G0 F1200 X53.455 Y97.579
G1 F1080 X44.919 Y89.043 E37.05666
G0 F1200 X44.919 Y88.477
G1 F1080 X54.021 Y97.579 E37.69886
G0 F1200 X54.587 Y97.579
G1 F1080 X44.919 Y87.911 E38.38099
G0 F1200 X44.919 Y87.346
G1 F1080 X55.152 Y97.579 E39.10298
G0 F1200 X55.718 Y97.579
G1 F1080 X44.919 Y86.78 E39.86491
G0 F1200 X44.919 Y86.214
G1 F1080 X56.284 Y97.579 E40.66677
G0 F1200 X56.849 Y97.579
G1 F1080 X44.919 Y85.649 E41.5085
G0 F1200 X44.919 Y85.083
G1 F1080 X57.415 Y97.579 E42.39016
G0 F1200 X57.981 Y97.579
G1 F1080 X44.919 Y84.517 E43.31175
G0 F1200 X44.919 Y83.951
G1 F1080 X58.547 Y97.579 E44.27328
G0 F1200 X59.112 Y97.579
G1 F1080 X44.919 Y83.386 E45.27467
G0 F1200 X44.919 Y82.82
G1 F1080 X59.678 Y97.579 E46.316
G0 F1200 X60.244 Y97.579
G1 F1080 X44.919 Y82.254 E47.39726
G0 F1200 X44.919 Y81.689
G1 F1080 X60.809 Y97.579 E48.51839
G0 F1200 X61.375 Y97.579
G1 F1080 X44.919 Y81.123 E49.67945
G0 F1200 X44.919 Y80.557
G1 F1080 X61.941 Y97.579 E50.88044
G0 F1200 X62.506 Y97.579
G1 F1080 X44.919 Y79.992 E52.1213
G0 F1200 X44.919 Y79.426
G1 F1080 X63.072 Y97.579 E53.40209
G0 F1200 X63.638 Y97.579
G1 F1080 X44.919 Y78.86 E54.72282
G0 F1200 X44.919 Y78.295
G1 F1080 X64.203 Y97.579 E56.08341
G0 F1200 X64.769 Y97.579
G1 F1080 X44.919 Y77.729 E57.48393
G0 F1200 X44.919 Y77.163
G1 F1080 X65.335 Y97.579 E58.92439
G0 F1200 X65.9 Y97.579
G1 F1080 X44.919 Y76.598 E60.40472
G0 F1200 X44.919 Y76.032
G1 F1080 X66.466 Y97.579 E61.92497
G0 F1200 X67.032 Y97.579
G1 F1080 X44.919 Y75.466 E63.48516
G0 F1200 X44.919 Y74.9
G1 F1080 X67.597 Y97.579 E65.08526
G0 F1200 X68.163 Y97.579
G1 F1080 X44.919 Y74.335 E66.72525
G0 F1200 X44.919 Y73.769
G1 F1080 X68.729 Y97.579 E68.40517
G0 F1200 X69.295 Y97.579
G1 F1080 X44.919 Y73.203 E70.12503
G0 F1200 X44.919 Y72.638
G1 F1080 X69.86 Y97.579 E71.88475
G0 F1200 X70.426 Y97.579
G1 F1080 X44.919 Y72.072 E73.68441
G0 F1200 X44.919 Y71.506
G1 F1080 X70.992 Y97.579 E75.524
G0 F1200 X71.557 Y97.579
G1 F1080 X44.919 Y70.941 E77.40345
G0 F1200 X44.919 Y70.375
G1 F1080 X72.123 Y97.579 E79.32284
G0 F1200 X72.689 Y97.579
G1 F1080 X44.919 Y69.809 E81.28216
G0 F1200 X44.919 Y69.244
G1 F1080 X73.254 Y97.579 E83.28135
G0 F1200 X73.82 Y97.579
G1 F1080 X44.919 Y68.678 E85.32047
G0 F1200 X44.919 Y68.112
G1 F1080 X74.386 Y97.579 E87.39953
G0 F1200 X74.951 Y97.579
G1 F1080 X44.919 Y67.547 E89.51845
G0 F1200 X44.919 Y66.981
G1 F1080 X75.517 Y97.579 E91.6773
G0 F1200 X76.083 Y97.579
G1 F1080 X44.919 Y66.415 E93.87609
G0 F1200 X44.919 Y65.85
G1 F1080 X76.648 Y97.579 E96.11474
G0 F1200 X77.214 Y97.579
G1 F1080 X44.919 Y65.284 E98.39333
G0 F1200 X44.919 Y64.718
G1 F1080 X77.78 Y97.579 E100.71185
G0 F1200 X78.346 Y97.579
G1 F1080 X44.919 Y64.152 E103.07031
G0 F1200 X44.919 Y63.587
G1 F1080 X78.911 Y97.579 E105.46863
G0 F1200 X79.477 Y97.579
G1 F1080 X44.919 Y63.021 E107.90688
G0 F1200 X44.919 Y62.455
G1 F1080 X80.043 Y97.579 E110.38507
G0 F1200 X80.079 Y97.05
G1 F1080 X44.919 Y61.89 E112.8658
G0 F1200 X44.919 Y61.324
G1 F1080 X80.079 Y96.484 E115.34652
G0 F1200 X80.079 Y95.919
G1 F1080 X44.919 Y60.758 E117.82729
G0 F1200 X44.919 Y60.193
G1 F1080 X80.079 Y95.353 E120.30802
G0 F1200 X80.079 Y94.787
G1 F1080 X44.919 Y59.627 E122.78874
G0 F1200 X44.919 Y59.061
G1 F1080 X80.079 Y94.221 E125.26947
G0 F1200 X80.079 Y93.656
G1 F1080 X44.919 Y58.496 E127.7502
G0 F1200 X44.919 Y57.93
G1 F1080 X80.079 Y93.09 E130.23093
G0 F1200 X80.079 Y92.524
G1 F1080 X44.919 Y57.364 E132.71165
G0 F1200 X44.919 Y56.799
G1 F1080 X80.079 Y91.959 E135.19238
G0 F1200 X80.079 Y91.393
G1 F1080 X44.919 Y56.233 E137.67311
G0 F1200 X44.919 Y55.667
G1 F1080 X80.079 Y90.827 E140.15384
G0 F1200 X80.079 Y90.262
G1 F1080 X44.919 Y55.102 E142.63457
G0 F1200 X44.919 Y54.536
G1 F1080 X80.079 Y89.696 E145.11529
G0 F1200 X80.079 Y89.13
G1 F1080 X44.919 Y53.97 E147.59602
G0 F1200 X44.919 Y53.404
G1 F1080 X80.079 Y88.565 E150.07679
G0 F1200 X80.079 Y87.999
G1 F1080 X44.919 Y52.839 E152.55751
G0 F1200 X44.919 Y52.273
G1 F1080 X80.079 Y87.433 E155.03824
G0 F1200 X80.079 Y86.868
G1 F1080 X44.919 Y51.707 E157.519
G0 F1200 X44.919 Y51.142
G1 F1080 X80.079 Y86.302 E159.99973
G0 F1200 X80.079 Y85.736
G1 F1080 X44.919 Y50.576 E162.48046
G0 F1200 X44.919 Y50.01
G1 F1080 X80.079 Y85.171 E164.96122
G0 F1200 X80.079 Y84.605
G1 F1080 X44.919 Y49.445 E167.44195
G0 F1200 X44.919 Y48.879
G1 F1080 X80.079 Y84.039 E169.92268
G0 F1200 X80.079 Y83.473
G1 F1080 X44.919 Y48.313 E172.40341
G0 F1200 X44.919 Y47.748
G1 F1080 X80.079 Y82.908 E174.88414
G0 F1200 X80.079 Y82.342
G1 F1080 X44.919 Y47.182 E177.36486
G0 F1200 X44.919 Y46.616
G1 F1080 X80.079 Y81.776 E179.84559
G0 F1200 X80.079 Y81.211
G1 F1080 X44.919 Y46.051 E182.32632
G0 F1200 X44.919 Y45.485
G1 F1080 X80.079 Y80.645 E184.80705
G0 F1200 X80.079 Y80.079
G1 F1080 X44.919 Y44.919 E187.28777
G0 F1200 X44.919 Y44.353
G1 F1080 X80.079 Y79.514 E189.76854
G0 F1200 X80.079 Y78.948
G1 F1080 X44.919 Y43.788 E192.24927
G0 F1200 X44.919 Y43.222
G1 F1080 X80.079 Y78.382 E194.72999
G0 F1200 X80.079 Y77.817
G1 F1080 X44.919 Y42.656 E197.21076
G0 F1200 X44.919 Y42.091
G1 F1080 X80.079 Y77.251 E199.69148
G0 F1200 X80.079 Y76.685
G1 F1080 X44.919 Y41.525 E202.17221
G0 F1200 X44.919 Y40.959
G1 F1080 X80.079 Y76.12 E204.65298
G0 F1200 X80.079 Y75.554
G1 F1080 X44.919 Y40.394 E207.1337
G0 F1200 X44.919 Y39.828
G1 F1080 X80.079 Y74.988 E209.61443
G0 F1200 X80.079 Y74.422
G1 F1080 X44.919 Y39.262 E212.09516
G0 F1200 X44.919 Y38.697
G1 F1080 X80.079 Y73.857 E214.57589
G0 F1200 X80.079 Y73.291
G1 F1080 X44.919 Y38.131 E217.05662
G0 F1200 X44.919 Y37.565
G1 F1080 X80.079 Y72.725 E219.53734
G0 F1200 X80.079 Y72.16
G1 F1080 X44.919 Y37 E222.01807
G0 F1200 X44.919 Y36.434
G1 F1080 X80.079 Y71.594 E224.4988
G0 F1200 X80.079 Y71.028
G1 F1080 X44.919 Y35.868 E226.97953
G0 F1200 X44.919 Y35.303
G1 F1080 X80.079 Y70.463 E229.46025
G0 F1200 X80.079 Y69.897
G1 F1080 X44.919 Y34.737 E231.94098
G0 F1200 X44.919 Y34.171
G1 F1080 X80.079 Y69.331 E234.42171
G0 F1200 X80.079 Y68.766
G1 F1080 X44.919 Y33.605 E236.90247
G0 F1200 X44.919 Y33.04
G1 F1080 X80.079 Y68.2 E239.3832
G0 F1200 X80.079 Y67.634
G1 F1080 X44.919 Y32.474 E241.86393
G0 F1200 X44.919 Y31.908
G1 F1080 X80.079 Y67.069 E244.34469
G0 F1200 X80.079 Y66.503
G1 F1080 X44.919 Y31.343 E246.82542
G0 F1200 X44.919 Y30.777
G1 F1080 X80.079 Y65.937 E249.30615
G0 F1200 X80.079 Y65.372
G1 F1080 X44.919 Y30.211 E251.78691
G0 F1200 X44.919 Y29.646
G1 F1080 X80.079 Y64.806 E254.26764
G0 F1200 X80.079 Y64.24
G1 F1080 X44.919 Y29.08 E256.74837
G0 F1200 X44.919 Y28.514
G1 F1080 X80.079 Y63.674 E259.2291
G0 F1200 X80.079 Y63.109
G1 F1080 X44.919 Y27.949 E261.70982
G0 F1200 X44.956 Y27.42
G1 F1080 X80.079 Y62.543 E264.18794
G0 F1200 X80.079 Y61.977
G1 F1080 X45.522 Y27.42 E266.62612
G0 F1200 X46.087 Y27.42
G1 F1080 X80.079 Y61.412 E269.02444
G0 F1200 X80.079 Y60.846
G1 F1080 X46.653 Y27.42 E271.38283
G0 F1200 X47.219 Y27.42
G1 F1080 X80.079 Y60.28 E273.70128
G0 F1200 X80.079 Y59.715
G1 F1080 X47.784 Y27.42 E275.97986
G0 F1200 X48.35 Y27.42
G1 F1080 X80.079 Y59.149 E278.21852
G0 F1200 X80.079 Y58.583
G1 F1080 X48.916 Y27.42 E280.41724
G0 F1200 X49.481 Y27.42
G1 F1080 X80.079 Y58.018 E282.57609
G0 F1200 X80.079 Y57.452
G1 F1080 X50.047 Y27.42 E284.69501
G0 F1200 X50.613 Y27.42
G1 F1080 X80.079 Y56.886 E286.77399
G0 F1200 X80.079 Y56.321
G1 F1080 X51.178 Y27.42 E288.81312
G0 F1200 X51.744 Y27.42
G1 F1080 X80.079 Y55.755 E290.8123
G0 F1200 X80.079 Y55.189
G1 F1080 X52.31 Y27.42 E292.77156
G0 F1200 X52.876 Y27.42
G1 F1080 X80.079 Y54.623 E294.69088
G0 F1200 X80.079 Y54.058
G1 F1080 X53.441 Y27.42 E296.57033
G0 F1200 X54.007 Y27.42
G1 F1080 X80.079 Y53.492 E298.40985
G0 F1200 X80.079 Y52.926
G1 F1080 X54.573 Y27.42 E300.20944
G0 F1200 X55.138 Y27.42
G1 F1080 X80.079 Y52.361 E301.96916
G0 F1200 X80.079 Y51.795
G1 F1080 X55.704 Y27.42 E303.68895
G0 F1200 X56.27 Y27.42
G1 F1080 X80.079 Y51.229 E305.3688
G0 F1200 X80.079 Y50.664
G1 F1080 X56.835 Y27.42 E307.00879
G0 F1200 X57.401 Y27.42
G1 F1080 X80.079 Y50.098 E308.60885
G0 F1200 X80.079 Y49.532
G1 F1080 X57.967 Y27.42 E310.16897
G0 F1200 X58.532 Y27.42
G1 F1080 X80.079 Y48.967 E311.68922
G0 F1200 X80.079 Y48.401
G1 F1080 X59.098 Y27.42 E313.16955
G0 F1200 X59.664 Y27.42
G1 F1080 X80.079 Y47.835 E314.60993
G0 F1200 X80.079 Y47.27
G1 F1080 X60.229 Y27.42 E316.01046
G0 F1200 X60.795 Y27.42
G1 F1080 X80.079 Y46.704 E317.37105
G0 F1200 X80.079 Y46.138
G1 F1080 X61.361 Y27.42 E318.69171
G0 F1200 X61.926 Y27.42
G1 F1080 X80.079 Y45.573 E319.9725
G0 F1200 X80.079 Y45.007
G1 F1080 X62.492 Y27.42 E321.21336
G0 F1200 X63.058 Y27.42
G1 F1080 X80.079 Y44.441 E322.41428
G0 F1200 X80.079 Y43.875
G1 F1080 X63.624 Y27.42 E323.57527
G0 F1200 X64.189 Y27.42
G1 F1080 X80.079 Y43.31 E324.69639
G0 F1200 X80.079 Y42.744
G1 F1080 X64.755 Y27.42 E325.77758
G0 F1200 X65.321 Y27.42
G1 F1080 X80.079 Y42.178 E326.81884
G0 F1200 X80.079 Y41.613
G1 F1080 X65.886 Y27.42 E327.82023
G0 F1200 X66.452 Y27.42
G1 F1080 X80.079 Y41.047 E328.78169
G0 F1200 X80.079 Y40.481
G1 F1080 X67.018 Y27.42 E329.70322
G0 F1200 X67.583 Y27.42
G1 F1080 X80.079 Y39.916 E330.58488
G0 F1200 X80.079 Y39.35
G1 F1080 X68.149 Y27.42 E331.4266
G0 F1200 X68.715 Y27.42
G1 F1080 X80.079 Y38.784 E332.22839
G0 F1200 X80.079 Y38.219
G1 F1080 X69.28 Y27.42 E332.99032
G0 F1200 X69.846 Y27.42
G1 F1080 X80.079 Y37.653 E333.71232
G0 F1200 X80.079 Y37.087
G1 F1080 X70.412 Y27.42 E334.39437
G0 F1200 X70.977 Y27.42
G1 F1080 X80.079 Y36.522 E335.03657
G0 F1200 X80.079 Y35.956
G1 F1080 X71.543 Y27.42 E335.63883
G0 F1200 X72.109 Y27.42
G1 F1080 X80.079 Y35.39 E336.20116
G0 F1200 X80.079 Y34.825
G1 F1080 X72.675 Y27.42 E336.72358
G0 F1200 X73.24 Y27.42
G1 F1080 X80.079 Y34.259 E337.20611
G0 F1200 X80.079 Y33.693
G1 F1080 X73.806 Y27.42 E337.64871
G0 F1200 X74.372 Y27.42
G1 F1080 X80.079 Y33.127 E338.05137
G0 F1200 X80.079 Y32.562
M104 S208
G1 F1080 X74.937 Y27.42 E338.41416
G0 F1200 X75.503 Y27.42
G1 F1080 X80.079 Y31.996 E338.73702
G0 F1200 X80.079 Y31.43
G1 F1080 X76.069 Y27.42 E339.01995
G0 F1200 X76.634 Y27.42
G1 F1080 X80.079 Y30.865 E339.26301
G0 F1200 X80.079 Y30.299
G1 F1080 X77.2 Y27.42 E339.46614
G0 F1200 X77.766 Y27.42
G1 F1080 X80.079 Y29.733 E339.62934
G0 F1200 X80.079 Y29.168
G1 F1080 X78.331 Y27.42 E339.75267
G0 F1200 X78.897 Y27.42
G1 F1080 X80.079 Y28.602 E339.83607
G0 F1200 X80.079 Y28.036
G1 F1080 X79.463 Y27.42 E339.87953
G1 X79.435 Y27.392
;MESH:NONMESH
G0 F1200 X80.58 Y98.08
G0 X80.65 Y98.15
;TIME_ELAPSED:400.472299
;LAYER:1
M140 S58
M106 S255
;MESH:/Users/x/Library/Application Support/snapmaker-luban/Tmp/plate_57275047.stl
G0 X80.65 Y98.15 Z0.45
;TYPE:WALL-INNER
G1 F1680 X44.35 Y98.15 E340.78504
G1 X44.35 Y26.85 E342.56362
G1 X80.65 Y26.85 E343.46913
G1 X80.65 Y98.15 E345.24771
G0 F1200 X81.05 Y98.55
;TYPE:WALL-OUTER
G1 F1500 X43.95 Y98.55 E346.17318
G1 X43.95 Y26.45 E347.97172
G1 X81.05 Y26.45 E348.89718
G1 X81.05 Y98.55 E350.69572
G0 F1200 X80.85 Y98.55
G0 X80.26 Y97.76
;TYPE:SKIN
G1 F1140 X44.74 Y97.76 E351.58177
G1 X44.74 Y27.24 E353.3409
G1 X80.26 Y27.24 E354.22695
G1 X80.26 Y97.76 E355.98608
G0 F1200 X79.48 Y97.579
G1 F1140 X80.079 Y96.98 E356.00721
G0 F1200 X80.079 Y96.414
G1 F1140 X78.914 Y97.579 E356.04831
G0 F1200 X78.348 Y97.579
G1 F1140 X80.079 Y95.849 E356.10936
G0 F1200 X80.079 Y95.283
G1 F1140 X77.783 Y97.579 E356.19036
G0 F1200 X77.217 Y97.579
G1 F1140 X80.079 Y94.717 E356.29132
G0 F1200 X80.079 Y94.151
G1 F1140 X76.651 Y97.579 E356.41225
