;FLAVOR:Marlin
;TIME:6666
;Filament used: 0m
;Layer height: 0.1

;Generated with Cura_SteamEngine 2.7.0

;Start GCode begin
M140 S50
M109 S200
M190 S50
G28 ;Home
G90 ;absolute positioning
G1 X-4 Y-4
G1 Z0 F3000
G92 E0
G1 F200 E20
G92 E0
;Start GCode end

;LAYER_COUNT:30
;LAYER:0
M107
G0 F2400 X58.588 Y57.882 Z0.1
;TYPE:SKIRT
G1 F900 X58.263 Y58.303 E0.00884
G1 X57.939 Y58.817 E0.01895
G1 X57.351 Y60.025 E0.04129
G1 X56.97 Y60.717 E0.05443
G1 X56.521 Y61.366 E0.06755
G1 X56.008 Y61.967 E0.08069
G1 X55.528 Y62.426 E0.09174
G1 X55.871 Y62.75 E0.09958
G1 X56.387 Y63.347 E0.11271
G1 X56.841 Y63.994 E0.12585
G1 X57.353 Y64.953 E0.14393
G1 X57.749 Y65.838 E0.16005
G1 X58.042 Y66.356 E0.16995
G1 X58.559 Y67.063 E0.18452
G1 X59.74 Y67.99 E0.20948
G1 X60.336 Y68.509 E0.22263
G1 X60.412 Y68.59 E0.22447
G1 X60.795 Y68.794 E0.23169
G1 X61.699 Y69.109 E0.24761
G1 X62.721 Y69.241 E0.26475
G1 X63.054 Y69.241 E0.27029
G1 X63.934 Y69.126 E0.28504
G1 X64.87 Y68.853 E0.30126
G1 X65.785 Y68.366 E0.3185
G1 X65.795 Y68.356 E0.31873
G1 X66.431 Y67.837 E0.33238
G1 X66.65 Y67.676 E0.3369
G1 X67.172 Y67.141 E0.34933
G1 X67.515 Y66.697 E0.35866
G1 X67.869 Y66.136 E0.3697
G1 X68.168 Y65.543 E0.38074
G1 X68.417 Y64.906 E0.39211
G1 X68.607 Y64.238 E0.40366
G1 X68.735 Y63.561 E0.41512
G1 X68.801 Y62.848 E0.42703
G1 X68.801 Y62.15 E0.43864
G1 X68.735 Y61.441 E0.45048
G1 X68.624 Y60.847 E0.46053
G1 X68.263 Y59.689 E0.4807
G1 X68.021 Y59.148 E0.49056
G1 X67.703 Y58.584 E0.50132
G1 X67.382 Y58.125 E0.51064
G1 X66.618 Y57.276 E0.52963
G1 X66.234 Y56.942 E0.5381
G1 X65.844 Y56.665 E0.54605
G1 X64.986 Y56.208 E0.56222
G1 X64.079 Y55.891 E0.5782
G1 X63.057 Y55.759 E0.59533
G1 X62.724 Y55.759 E0.60087
G1 X61.844 Y55.874 E0.61563
G1 X60.856 Y56.162 E0.63274
G1 X60.26 Y56.461 E0.64383
G1 X59.778 Y56.767 E0.65333
G1 X59.385 Y57.076 E0.66164
G1 X58.588 Y57.882 E0.68049
G0 F2400 X58.284 Y57.62
G1 F900 X57.936 Y58.071 E0.68996
G1 X57.589 Y58.622 E0.70079
G1 X56.991 Y59.85 E0.72351
G1 X56.619 Y60.523 E0.7363
G1 X56.179 Y61.154 E0.74909
G1 X55.676 Y61.736 E0.76188
G1 X55.115 Y62.262 E0.77467
G1 X54.91 Y62.418 E0.77895
G1 X55.143 Y62.604 E0.78391
G1 X55.691 Y63.143 E0.7967
G1 X56.181 Y63.736 E0.80949
G1 X56.606 Y64.377 E0.82228
G1 X56.988 Y65.117 E0.83613
G1 X57.391 Y66.016 E0.85251
G1 X57.706 Y66.574 E0.86317
G1 X58.262 Y67.335 E0.87884
G1 X58.284 Y67.356 E0.87935
G1 X59.493 Y68.305 E0.90491
G1 X60.072 Y68.811 E0.91769
G1 X60.166 Y68.912 E0.91999
G1 X60.636 Y69.163 E0.92885
G1 X61.607 Y69.501 E0.94595
G1 X62.692 Y69.641 E0.96414
G1 X63.082 Y69.641 E0.97063
G1 X64.015 Y69.52 E0.98627
G1 X65.021 Y69.225 E1.00371
G1 X66.035 Y68.686 E1.0228
G1 X66.151 Y68.603 E1.02518
G1 X66.668 Y68.159 E1.03651
G1 X66.915 Y67.978 E1.0416
G1 X67.477 Y67.402 E1.05498
G1 X67.842 Y66.929 E1.06492
G1 X68.217 Y66.334 E1.07662
G1 X68.535 Y65.703 E1.08837
G1 X68.795 Y65.038 E1.10024
G1 X68.997 Y64.332 E1.11245
G1 X69.133 Y63.608 E1.1247
G1 X69.201 Y62.874 E1.13696
G1 X69.201 Y62.124 E1.14944
G1 X69.133 Y61.393 E1.16164
G1 X69.012 Y60.749 E1.17254
G1 X68.639 Y59.551 E1.19341
G1 X68.38 Y58.971 E1.20397
G1 X68.035 Y58.36 E1.21564
G1 X67.695 Y57.874 E1.2255
G1 X66.901 Y56.991 E1.24525
G1 X66.489 Y56.633 E1.25433
G1 X66.051 Y56.323 E1.26325
G1 X65.145 Y55.839 E1.28033
G1 X64.171 Y55.499 E1.29749
G1 X63.086 Y55.359 E1.31568
G1 X62.696 Y55.359 E1.32217
G1 X61.763 Y55.48 E1.33782
G1 X60.708 Y55.789 E1.3561
G1 X60.067 Y56.11 E1.36802
G1 X59.548 Y56.439 E1.37824
G1 X59.114 Y56.781 E1.38743
G1 X58.284 Y57.62 E1.40705
G0 F2400 X57.988 Y57.35
G1 F900 X57.606 Y57.844 E1.41744
G1 X57.241 Y58.424 E1.42883
G1 X56.632 Y59.675 E1.45197
G1 X56.269 Y60.329 E1.46441
G1 X55.838 Y60.941 E1.47686
G1 X55.345 Y61.503 E1.48929
G1 X54.794 Y62.009 E1.50173
G1 X54.246 Y62.415 E1.51308
G1 X54.408 Y62.522 E1.5163
G1 X54.984 Y62.999 E1.52874
G1 X55.506 Y63.536 E1.5412
G1 X55.967 Y64.124 E1.55362
G1 X56.363 Y64.759 E1.56607
G1 X56.623 Y65.28 E1.57575
G1 X57.034 Y66.198 E1.59248
G1 X57.37 Y66.792 E1.60383
G1 X57.959 Y67.598 E1.62043
G1 X58.02 Y67.658 E1.62185
G1 X59.246 Y68.62 E1.64777
G1 X59.809 Y69.112 E1.6602
G1 X59.923 Y69.236 E1.663
G1 X60.476 Y69.53 E1.67342
G1 X61.515 Y69.893 E1.69172
G1 X62.664 Y70.041 E1.71098
G1 X63.111 Y70.041 E1.71842
G1 X64.097 Y69.913 E1.73495
G1 X65.171 Y69.598 E1.75357
G1 X66.252 Y69.024 E1.77392
G1 X66.283 Y69.002 E1.77455
G1 X66.363 Y68.921 E1.77645
G1 X66.904 Y68.482 E1.78803
G1 X67.176 Y68.282 E1.79365
G1 X67.777 Y67.666 E1.80796
G1 X68.172 Y67.156 E1.81869
G1 X68.567 Y66.528 E1.83102
G1 X68.9 Y65.868 E1.84332
G1 X69.178 Y65.159 E1.85598
G1 X69.385 Y64.429 E1.8686
G1 X69.529 Y63.666 E1.88151
G1 X69.601 Y62.889 E1.89449
G1 X69.601 Y62.109 E1.90746
G1 X69.529 Y61.337 E1.92036
G1 X69.402 Y60.657 E1.93186
G1 X69.009 Y59.397 E1.95381
G1 X68.741 Y58.798 E1.96472
G1 X68.373 Y58.145 E1.97719
G1 X68.012 Y57.63 E1.98765
G1 X67.179 Y56.703 E2.00837
G1 X66.734 Y56.316 E2.01818
G1 X66.263 Y55.982 E2.02778
G1 X65.303 Y55.47 E2.04588
G1 X64.264 Y55.108 E2.06417
G1 X63.114 Y54.959 E2.08346
G1 X62.667 Y54.959 E2.09089
G1 X61.681 Y55.087 E2.10743
G1 X60.574 Y55.411 E2.12661
G1 X60.546 Y55.423 E2.12711
G1 X59.871 Y55.76 E2.13966
G1 X59.31 Y56.117 E2.15072
G1 X58.85 Y56.478 E2.16044
G1 X57.988 Y57.35 E2.18083
G0 F2400 X57.68 Y57.093
G1 F900 X57.279 Y57.612 E2.19174
G1 X56.89 Y58.231 E2.2039
G1 X56.272 Y59.5 E2.22737
G1 X55.919 Y60.134 E2.23944
G1 X55.498 Y60.726 E2.25152
G1 X55.014 Y61.268 E2.26361
G1 X54.474 Y61.754 E2.27569
G1 X53.884 Y62.178 E2.28777
G1 X53.48 Y62.405 E2.29548
G1 X53.672 Y62.508 E2.2991
G1 X54.271 Y62.92 E2.31119
G1 X54.82 Y63.395 E2.32326
G1 X55.314 Y63.927 E2.33534
G1 X55.746 Y64.511 E2.34742
G1 X56.258 Y65.444 E2.36511
G1 X56.679 Y66.384 E2.38224
G1 X57.029 Y67.004 E2.39408
G1 X57.653 Y67.858 E2.41167
G1 X57.755 Y67.958 E2.41405
G1 X58.999 Y68.934 E2.44034
G1 X59.545 Y69.414 E2.45243
G1 X59.676 Y69.557 E2.45566
G1 X60.318 Y69.899 E2.46776
G1 X61.407 Y70.279 E2.48694
G1 X61.427 Y70.284 E2.48728
G1 X62.644 Y70.441 E2.50769
G1 X63.132 Y70.441 E2.5158
G1 X64.183 Y70.304 E2.53343
G1 X65.32 Y69.972 E2.55313
G1 X66.464 Y69.363 E2.57468
G1 X66.609 Y69.259 E2.57765
G1 X67.141 Y68.804 E2.58929
G1 X67.442 Y68.584 E2.59549
G1 X68.082 Y67.927 E2.61074
G1 X68.499 Y67.388 E2.62207
G1 X68.913 Y66.73 E2.635
G1 X69.269 Y66.024 E2.64815
G1 X69.552 Y65.3 E2.66108
G1 X69.777 Y64.511 E2.67472
G1 X69.925 Y63.723 E2.68806
G1 X70.001 Y62.905 E2.70172
G1 X70.001 Y62.094 E2.7152
G1 X69.925 Y61.28 E2.7288
G1 X69.79 Y60.558 E2.74102
G1 X69.385 Y59.259 E2.76364
G1 X69.098 Y58.616 E2.77535
G1 X68.711 Y57.93 E2.78845
G1 X68.323 Y57.375 E2.79971
G1 X67.463 Y56.419 E2.8211
G1 X66.983 Y56.001 E2.83168
G1 X66.477 Y55.643 E2.84199
G1 X65.467 Y55.105 E2.86102
G1 X64.365 Y54.72 E2.88043
G1 X64.351 Y54.716 E2.88068
G1 X63.134 Y54.559 E2.90108
G1 X62.646 Y54.559 E2.9092
G1 X61.595 Y54.696 E2.92682
G1 X60.445 Y55.032 E2.94675
G1 X60.379 Y55.059 E2.94793
G1 X59.675 Y55.411 E2.96102
G1 X59.08 Y55.789 E2.97275
G1 X58.584 Y56.18 E2.98325
G1 X57.68 Y57.093 E3.00462
G0 F2400 X57.381 Y56.827
G1 F900 X56.95 Y57.384 E3.01633
G1 X56.543 Y58.031 E3.02904
G1 X55.913 Y59.325 E3.05297
G1 X55.569 Y59.939 E3.06468
G1 X55.158 Y60.511 E3.07639
G1 X54.685 Y61.032 E3.08809
G1 X54.156 Y61.496 E3.0998
G1 X53.577 Y61.898 E3.11152
G1 X52.957 Y62.231 E3.12322
G1 X52.54 Y62.397 E3.13069
G1 X52.941 Y62.564 E3.13791
G1 X53.556 Y62.906 E3.14961
G1 X54.128 Y63.317 E3.16133
G1 X54.65 Y63.789 E3.17303
G1 X55.115 Y64.318 E3.18474
G1 X55.517 Y64.896 E3.19645
G1 X55.893 Y65.607 E3.20983
G1 X56.323 Y66.566 E3.2273
G1 X56.693 Y67.222 E3.23983
G1 X57.353 Y68.125 E3.25843
G1 X57.486 Y68.256 E3.26153
G1 X58.752 Y69.249 E3.28829
G1 X59.28 Y69.714 E3.29999
G1 X59.429 Y69.879 E3.30369
G1 X60.154 Y70.265 E3.31735
G1 X61.3 Y70.664 E3.33753
G1 X61.358 Y70.678 E3.33852
G1 X62.616 Y70.841 E3.35962
G1 X63.16 Y70.841 E3.36866
G1 X64.264 Y70.697 E3.38718
G1 X65.47 Y70.345 E3.40807
G1 X65.473 Y70.343 E3.40813
G1 X66.678 Y69.703 E3.43082
G1 X66.81 Y69.608 E3.43353
G1 X66.961 Y69.46 E3.43704
G1 X67.377 Y69.127 E3.4459
G1 X67.706 Y68.886 E3.45269
G1 X68.382 Y68.192 E3.4688
G1 X68.828 Y67.616 E3.48091
G1 X69.26 Y66.93 E3.49439
G1 X69.633 Y66.19 E3.50817
G1 X69.934 Y65.421 E3.52191
G1 X70.164 Y64.612 E3.53589
G1 X70.323 Y63.768 E3.55018
G1 X70.401 Y62.931 E3.56416
G1 X70.401 Y62.068 E3.57851
G1 X70.324 Y61.233 E3.59245
G1 X70.178 Y60.46 E3.60554
G1 X69.762 Y59.124 E3.62881
G1 X69.449 Y58.422 E3.64159
G1 X69.054 Y57.723 E3.65494
G1 X68.639 Y57.13 E3.66698
G1 X67.741 Y56.131 E3.68932
G1 X67.232 Y55.689 E3.70053
G1 X66.685 Y55.3 E3.71169
G1 X65.625 Y54.736 E3.73166
G1 X64.482 Y54.336 E3.7518
G1 X64.42 Y54.322 E3.75285
G1 X63.162 Y54.159 E3.77395
G1 X62.618 Y54.159 E3.78299
G1 X61.514 Y54.303 E3.80151
G1 X60.316 Y54.653 E3.82227
G1 X60.206 Y54.698 E3.82424
G1 X59.479 Y55.062 E3.83776
G1 X58.847 Y55.464 E3.85022
G1 X58.317 Y55.88 E3.86142
G1 X57.381 Y56.827 E3.88357
G0 F2400 X57.077 Y56.567
G1 F900 X56.62 Y57.158 E3.89599
G1 X56.193 Y57.836 E3.90932
G1 X55.553 Y59.15 E3.93362
G1 X55.219 Y59.743 E3.94494
G1 X54.819 Y60.294 E3.95626
G1 X54.356 Y60.794 E3.9676
G1 X53.838 Y61.236 E3.97892
G1 X53.272 Y61.614 E3.99024
G1 X52.666 Y61.923 E4.00155
G1 X52.027 Y62.16 E4.01288
G1 X51.365 Y62.319 E4.02421
G1 X50.87 Y62.378 E4.0325
G1 X50.899 Y62.38 E4.03298
G1 X51.569 Y62.498 E4.04429
G1 X52.222 Y62.693 E4.05563
G1 X52.847 Y62.963 E4.06695
G1 X53.435 Y63.305 E4.07826
G1 X53.98 Y63.713 E4.08958
G1 X54.473 Y64.183 E4.10091
G1 X54.908 Y64.707 E4.11224
G1 X55.279 Y65.278 E4.12356
G1 X55.528 Y65.771 E4.13275
G1 X55.964 Y66.744 E4.15048
G1 X56.357 Y67.44 E4.16377
G1 X57.048 Y68.385 E4.18324
G1 X57.227 Y68.561 E4.18741
G1 X58.505 Y69.564 E4.21443
G1 X59.015 Y70.015 E4.22575
G1 X59.18 Y70.199 E4.22986
G1 X59.994 Y70.633 E4.2452
G1 X61.186 Y71.049 E4.2662
G1 X61.289 Y71.073 E4.26796
G1 X62.588 Y71.241 E4.28974
G1 X63.189 Y71.241 E4.29973
G1 X64.344 Y71.091 E4.3191
G1 X65.599 Y70.724 E4.34085
G1 X65.646 Y70.704 E4.3417
G1 X66.889 Y70.043 E4.36511
G1 X67.019 Y69.95 E4.36777
G1 X67.614 Y69.449 E4.3807
G1 X67.968 Y69.19 E4.388
G1 X68.687 Y68.452 E4.40513
G1 X69.158 Y67.842 E4.41795
G1 X69.606 Y67.132 E4.43191
G1 X69.998 Y66.355 E4.44638
G1 X70.315 Y65.544 E4.46086
G1 X70.554 Y64.707 E4.47534
G1 X70.719 Y63.826 E4.49024
G1 X70.801 Y62.946 E4.50494
G1 X70.801 Y62.052 E4.51981
G1 X70.719 Y61.165 E4.53462
G1 X70.569 Y60.369 E4.54809
G1 X70.135 Y58.978 E4.57233
G1 X69.813 Y58.254 E4.5855
G1 X69.39 Y57.506 E4.59979
G1 X68.948 Y56.874 E4.61262
G1 X68.028 Y55.852 E4.63549
G1 X67.476 Y55.371 E4.64766
G1 X66.896 Y54.96 E4.65949
G1 X65.791 Y54.371 E4.68031
G1 X64.586 Y53.95 E4.70154
G1 X64.489 Y53.927 E4.70319
G1 X63.19 Y53.759 E4.72498
G1 X62.589 Y53.759 E4.73497
G1 X61.434 Y53.909 E4.75434
G1 X60.175 Y54.277 E4.77615
G1 X60.059 Y54.325 E4.77824
G1 X59.271 Y54.719 E4.79289
G1 X58.624 Y55.13 E4.80564
G1 X58.05 Y55.582 E4.81779
G1 X57.077 Y56.567 E4.84081
G0 F2400 X56.781 Y56.296
G1 F900 X56.294 Y56.926 E4.85406
G1 X55.839 Y57.647 E4.86823
G1 X55.193 Y58.975 E4.89279
G1 X54.87 Y59.547 E4.90372
G1 X54.48 Y60.075 E4.91463
G1 X54.029 Y60.553 E4.92556
G1 X53.523 Y60.972 E4.93649
G1 X52.97 Y61.326 E4.94741
G1 X52.378 Y61.611 E4.95833
G1 X51.755 Y61.822 E4.96927
G1 X51.112 Y61.955 E4.98019
G1 X50.324 Y62.011 E4.99333
G1 X40.485 Y61.985 E5.15695
G1 X39.829 Y61.943 E5.16789
G1 X39.183 Y61.822 E5.17882
G1 X38.557 Y61.624 E5.18973
G1 X37.786 Y61.254 E5.20396
G1 X37.249 Y60.942 E5.21428
G1 X36.702 Y60.578 E5.22521
G1 X36.204 Y60.15 E5.23613
G1 X35.761 Y59.665 E5.24705
G1 X35.274 Y58.953 E5.2614
G1 X34.967 Y58.416 E5.27169
G1 X34.676 Y57.827 E5.28261
G1 X34.459 Y57.207 E5.29354
G1 X34.319 Y56.565 E5.30446
G1 X34.255 Y55.777 E5.31761
G1 X34.224 Y51.713 E5.3852
G1 X34.259 Y51.057 E5.39612
G1 X34.373 Y50.41 E5.40705
G1 X34.636 Y49.602 E5.42118
G1 X34.875 Y49.026 E5.43155
G1 X35.164 Y48.436 E5.44248
G1 X35.521 Y47.885 E5.45339
G1 X35.943 Y47.382 E5.46431
G1 X36.573 Y46.814 E5.47842
G1 X37.065 Y46.436 E5.48874
G1 X37.609 Y46.068 E5.49966
G1 X38.194 Y45.769 E5.51058
G1 X38.976 Y45.497 E5.52435
G1 X39.279 Y45.417 E5.52957
G1 X39.924 Y45.288 E5.5405
G1 X40.65 Y45.238 E5.55261
G1 X45.78 Y45.231 E5.63792
G1 X46.611 Y44.349 E5.65807
G1 X46.995 Y43.981 E5.66692
G1 X48.39 Y42.767 E5.69767
G1 X48.814 Y42.434 E5.70664
G1 X50.316 Y41.37 E5.73725
G1 X50.772 Y41.079 E5.74624
G1 X52.362 Y40.177 E5.77664
G1 X52.985 Y39.875 E5.78816
G1 X55.511 Y38.843 E5.83353
G1 X56.301 Y38.589 E5.84733
G1 X58.94 Y37.96 E5.89245
G1 X59.633 Y37.842 E5.90414
G1 X61.429 Y37.655 E5.93417
G1 X61.988 Y37.626 E5.94348
G1 X63.79 Y37.626 E5.97345
G1 X64.49 Y37.672 E5.98511
G1 X67.176 Y38.023 E6.03016
G1 X67.861 Y38.158 E6.04177
G1 X69.61 Y38.622 E6.07186
G1 X70.27 Y38.843 E6.08344
G1 X72.795 Y39.876 E6.12881
G1 X73.415 Y40.177 E6.14027
G1 X75.005 Y41.079 E6.17067
G1 X75.459 Y41.368 E6.17962
G1 X76.96 Y42.43 E6.2102
G1 X77.386 Y42.765 E6.21921
G1 X78.781 Y43.979 E6.24996
G1 X79.316 Y44.514 E6.26254
G1 X79.938 Y45.231 E6.27833
G1 X84.354 Y45.239 E6.35177
G1 X85.01 Y45.28 E6.3627
G1 X85.656 Y45.401 E6.37363
G1 X86.087 Y45.528 E6.3811
G1 X86.53 Y45.679 E6.38888
G1 X87.138 Y45.928 E6.39981
G1 X87.711 Y46.25 E6.41074
G1 X88.241 Y46.638 E6.42166
G1 X88.611 Y46.976 E6.43
G1 X89.049 Y47.415 E6.44031
G1 X89.484 Y47.907 E6.45123
G1 X89.855 Y48.449 E6.46216
G1 X90.159 Y49.032 E6.47309
G1 X90.442 Y49.831 E6.48719
G1 X90.602 Y50.428 E6.49746
G1 X90.733 Y51.072 E6.50839
G1 X90.786 Y51.829 E6.52101
G1 X90.776 Y73.086 E6.87452
G1 X90.736 Y73.741 E6.88543
G1 X90.616 Y74.387 E6.89636
G1 X90.364 Y75.153 E6.90977
G1 X90.125 Y75.729 E6.92014
G1 X89.836 Y76.319 E6.93107
G1 X89.479 Y76.87 E6.94198
G1 X89.057 Y77.373 E6.9529
G1 X88.427 Y77.941 E6.96701
G1 X87.935 Y78.319 E6.97733
G1 X87.391 Y78.687 E6.98825
G1 X86.806 Y78.986 E6.99918
G1 X86.024 Y79.258 E7.01294
G1 X85.721 Y79.338 E7.01816
G1 X85.076 Y79.467 E7.02909
G1 X84.35 Y79.517 E7.0412
G1 X80.222 Y79.523 E7.10985
G1 X78.389 Y81.373 E7.15316
G1 X77.892 Y81.816 E7.16423
G1 X76.444 Y82.955 E7.19486
G1 X76.001 Y83.269 E7.20389
G1 X74.452 Y84.253 E7.23441
G1 X73.855 Y84.581 E7.24574
G1 X71.383 Y85.744 E7.29117
G1 X70.734 Y86 E7.30277
G1 X69.005 Y86.555 E7.33297
G1 X68.472 Y86.696 E7.34214
G1 X66.703 Y87.07 E7.37221
G1 X66.145 Y87.158 E7.38161
G1 X64.349 Y87.345 E7.41163
G1 X63.79 Y87.374 E7.42094
G1 X61.988 Y87.374 E7.45091
G1 X61.288 Y87.328 E7.46258
G1 X58.602 Y86.977 E7.50762
G1 X57.781 Y86.804 E7.52158
G1 X55.175 Y86.039 E7.56674
G1 X54.526 Y85.803 E7.57823
G1 X52.858 Y85.071 E7.60852
G1 X52.363 Y84.823 E7.61773
G1 X50.773 Y83.921 E7.64813
G1 X50.318 Y83.632 E7.65709
G1 X48.816 Y82.569 E7.68769
G1 X48.391 Y82.234 E7.69669
G1 X46.996 Y81.02 E7.72745
G1 X46.52 Y80.551 E7.73856
G1 X45.599 Y79.524 E7.7615
G1 X40.651 Y79.517 E7.84379
G1 X39.995 Y79.476 E7.85472
G1 X39.349 Y79.356 E7.86564
G1 X38.588 Y79.105 E7.87897
G1 X38.012 Y78.866 E7.88934
G1 X37.422 Y78.577 E7.90027
G1 X36.871 Y78.22 E7.91118
G1 X36.368 Y77.798 E7.9221
G1 X35.8 Y77.168 E7.93621
G1 X35.422 Y76.676 E7.94653
G1 X35.054 Y76.132 E7.95745
G1 X34.755 Y75.547 E7.96838
G1 X34.483 Y74.765 E7.98214
G1 X34.403 Y74.462 E7.98736
G1 X34.274 Y73.817 E7.9983
G1 X34.224 Y73.041 E8.01123
G1 X34.256 Y68.974 E8.07886
G1 X34.301 Y68.318 E8.0898
G1 X34.426 Y67.673 E8.10072
G1 X34.627 Y67.048 E8.11164
G1 X34.974 Y66.326 E8.12496
G1 X35.282 Y65.79 E8.13524
G1 X35.643 Y65.241 E8.14617
G1 X36.069 Y64.74 E8.15711
G1 X36.552 Y64.295 E8.16803
G1 X37.261 Y63.805 E8.18236
G1 X37.799 Y63.494 E8.1927
G1 X38.387 Y63.2 E8.20363
G1 X39.006 Y62.98 E8.21455
G1 X39.647 Y62.837 E8.22548
G1 X40.487 Y62.769 E8.23949
G1 X50.22 Y62.742 E8.40135
G1 X50.876 Y62.78 E8.41228
G1 X51.522 Y62.898 E8.4232
G1 X52.15 Y63.093 E8.43414
G1 X52.749 Y63.363 E8.44506
G1 X53.31 Y63.703 E8.45597
G1 X53.827 Y64.11 E8.46691
G1 X54.29 Y64.576 E8.47784
G1 X54.693 Y65.094 E8.48875
G1 X55.163 Y65.934 E8.50476
G1 X55.605 Y66.921 E8.52274
G1 X56.021 Y67.657 E8.5368
G1 X56.747 Y68.651 E8.55727
G1 X56.963 Y68.863 E8.56231
G1 X58.258 Y69.879 E8.58968
G1 X58.75 Y70.315 E8.60061
G1 X58.93 Y70.52 E8.60515
G1 X59.836 Y71.002 E8.62222
