;FLAVOR:Marlin
;TIME:6666
;Filament used: 0m
;Layer height: 0.2

;Generated with Cura_SteamEngine 2.7.0

;Start GCode begin
M140 S50
M109 S210
M190 S50
G28 ;Home
G90 ;absolute positioning
G1 X-4 Y-4
G1 Z0 F3000
G92 E0
G1 F200 E20
G92 E0
;Start GCode end

;LAYER_COUNT:102
;LAYER:0
M107
G0 F2400 X58.951 Y57.126 Z0.1
;TYPE:SKIRT
G1 F900 X58.449 Y57.808 E0.01408
G1 X57.887 Y58.791 E0.03291
G1 X57.217 Y60.203 E0.0589
G1 X56.843 Y60.898 E0.07203
G1 X56.4 Y61.552 E0.08517
G1 X55.894 Y62.158 E0.09829
G1 X55.472 Y62.57 E0.1081
G1 X55.926 Y62.999 E0.11849
G1 X56.443 Y63.597 E0.13164
G1 X56.895 Y64.244 E0.14476
G1 X57.283 Y64.938 E0.15798
G1 X58.178 Y66.753 E0.19164
G1 X58.405 Y67.132 E0.19898
G1 X58.952 Y67.875 E0.21433
G1 X59.512 Y68.441 E0.22757
G1 X60.416 Y69.152 E0.2467
G1 X61.233 Y69.62 E0.26235
G1 X61.568 Y69.778 E0.26851
G1 X62.184 Y69.993 E0.27936
G1 X62.661 Y70.107 E0.28752
G1 X63.099 Y70.187 E0.29492
G1 X63.734 Y70.237 E0.30552
G1 X64.273 Y70.223 E0.31448
G1 X65.25 Y70.074 E0.33092
G1 X65.603 Y69.99 E0.33695
G1 X66.143 Y69.801 E0.34647
G1 X67.047 Y69.353 E0.36325
G1 X67.374 Y69.157 E0.36959
G1 X67.852 Y68.799 E0.37952
G1 X68.706 Y67.979 E0.39921
G1 X69.254 Y67.278 E0.414
G1 X69.753 Y66.477 E0.4297
G1 X70.194 Y65.501 E0.44751
G1 X70.355 Y65.059 E0.45533
G1 X70.556 Y64.288 E0.46858
G1 X70.67 Y63.592 E0.48031
G1 X70.734 Y62.203 E0.50343
G1 X70.685 Y61.503 E0.5151
G1 X70.555 Y60.703 E0.52858
G1 X70.377 Y60.024 E0.54026
G1 X69.956 Y58.931 E0.55973
G1 X69.792 Y58.586 E0.56609
G1 X69.252 Y57.719 E0.58307
G1 X68.706 Y57.021 E0.59781
G1 X67.852 Y56.2 E0.61751
G1 X67.443 Y55.894 E0.62601
G1 X66.55 Y55.382 E0.64312
G1 X66.208 Y55.222 E0.6494
G1 X65.599 Y55.008 E0.66014
G1 X65.243 Y54.923 E0.66622
G1 X64.276 Y54.777 E0.68249
G1 X63.734 Y54.763 E0.6915
G1 X63.208 Y54.804 E0.70028
G1 X62.085 Y55.041 E0.71937
G1 X61.644 Y55.196 E0.72714
G1 X60.719 Y55.654 E0.7443
G1 X60.481 Y55.797 E0.74892
G1 X59.514 Y56.557 E0.76938
G1 X58.951 Y57.126 E0.78269
G0 F2400 X58.645 Y56.867
G1 F900 X58.115 Y57.588 E0.79757
G1 X57.53 Y58.61 E0.81715
G1 X56.856 Y60.031 E0.84331
G1 X56.49 Y60.708 E0.8561
G1 X56.057 Y61.343 E0.86889
G1 X55.559 Y61.93 E0.88169
G1 X55.004 Y62.462 E0.89447
G1 X54.854 Y62.578 E0.89763
G1 X55.198 Y62.853 E0.90495
G1 X55.747 Y63.393 E0.91776
G1 X56.236 Y63.986 E0.93054
G1 X56.661 Y64.627 E0.94333
G1 X56.924 Y65.115 E0.95255
G1 X57.82 Y66.932 E0.98624
G1 X58.073 Y67.355 E0.99444
G1 X58.646 Y68.134 E1.01052
G1 X59.249 Y68.744 E1.02478
G1 X60.19 Y69.483 E1.04468
G1 X61.047 Y69.975 E1.06111
G1 X61.42 Y70.15 E1.06797
G1 X62.067 Y70.377 E1.07937
G1 X62.571 Y70.497 E1.08798
G1 X63.044 Y70.583 E1.09598
G1 X63.723 Y70.636 E1.1073
G1 X64.313 Y70.621 E1.11712
G1 X65.33 Y70.466 E1.13423
G1 X65.719 Y70.373 E1.14088
G1 X66.291 Y70.173 E1.15096
G1 X67.247 Y69.7 E1.16869
G1 X67.596 Y69.49 E1.17547
G1 X68.113 Y69.104 E1.1862
G1 X69.001 Y68.251 E1.20667
G1 X69.585 Y67.503 E1.22246
G1 X70.105 Y66.669 E1.2388
G1 X70.562 Y65.657 E1.25727
G1 X70.739 Y65.171 E1.26587
G1 X70.948 Y64.369 E1.27965
G1 X71.069 Y63.631 E1.29209
G1 X71.135 Y62.202 E1.31588
G1 X71.083 Y61.453 E1.32836
G1 X70.947 Y60.623 E1.34235
G1 X70.757 Y59.894 E1.35488
G1 X70.331 Y58.789 E1.37457
G1 X70.139 Y58.384 E1.38203
G1 X69.586 Y57.497 E1.39941
G1 X69.001 Y56.749 E1.4152
G1 X68.117 Y55.899 E1.4356
G1 X67.659 Y55.557 E1.4451
G1 X66.736 Y55.028 E1.46279
G1 X66.364 Y54.853 E1.46963
G1 X65.709 Y54.623 E1.48118
G1 X65.31 Y54.528 E1.488
G1 X64.322 Y54.379 E1.50461
G1 X63.723 Y54.364 E1.51458
G1 X63.147 Y54.409 E1.52418
G1 X61.972 Y54.656 E1.54415
G1 X61.489 Y54.826 E1.55267
G1 X60.529 Y55.302 E1.57049
G1 X60.253 Y55.467 E1.57583
G1 X59.251 Y56.255 E1.59703
G1 X58.645 Y56.867 E1.61136
G0 F2400 X58.345 Y56.6
G1 F900 X57.774 Y57.377 E1.62739
G1 X57.184 Y58.408 E1.64715
G1 X56.495 Y59.86 E1.67387
G1 X56.138 Y60.518 E1.68632
G1 X55.714 Y61.133 E1.69875
G1 X55.226 Y61.701 E1.7112
G1 X54.68 Y62.212 E1.72364
G1 X54.185 Y62.586 E1.73395
G1 X54.464 Y62.771 E1.73952
G1 X55.039 Y63.249 E1.75196
G1 X55.561 Y63.785 E1.7644
G1 X56.022 Y64.374 E1.77684
G1 X56.566 Y65.292 E1.79458
G1 X57.481 Y67.146 E1.82896
G1 X57.732 Y67.567 E1.83712
G1 X58.346 Y68.401 E1.85434
G1 X58.977 Y69.039 E1.86926
G1 X59.965 Y69.815 E1.89015
G1 X60.861 Y70.329 E1.90733
G1 X61.267 Y70.52 E1.91479
G1 X61.956 Y70.761 E1.92693
G1 X62.496 Y70.89 E1.93617
G1 X62.991 Y70.98 E1.94453
G1 X63.712 Y71.037 E1.95656
G1 X64.351 Y71.02 E1.96719
G1 X65.398 Y70.861 E1.9848
G1 X65.829 Y70.758 E1.99217
G1 X66.449 Y70.541 E2.00309
G1 X67.442 Y70.049 E2.02152
G1 X67.82 Y69.822 E2.02886
G1 X68.374 Y69.409 E2.04035
G1 X69.295 Y68.523 E2.0616
G1 X69.914 Y67.732 E2.0783
G1 X70.459 Y66.856 E2.09546
G1 X70.933 Y65.807 E2.1146
G1 X71.121 Y65.292 E2.12372
G1 X71.341 Y64.448 E2.13823
G1 X71.468 Y63.672 E2.1513
G1 X71.536 Y62.202 E2.17578
G1 X71.48 Y61.404 E2.18908
G1 X71.339 Y60.542 E2.20361
G1 X71.139 Y59.776 E2.21677
G1 X70.692 Y58.615 E2.23746
G1 X70.497 Y58.204 E2.24503
G1 X69.909 Y57.26 E2.26352
G1 X69.302 Y56.484 E2.2799
G1 X68.369 Y55.587 E2.30143
G1 X67.884 Y55.225 E2.31149
G1 X66.921 Y54.673 E2.32995
G1 X66.511 Y54.481 E2.33748
G1 X65.826 Y54.24 E2.34956
G1 X65.393 Y54.137 E2.35696
G1 X64.351 Y53.98 E2.37448
G1 X63.712 Y53.963 E2.38511
G1 X63.096 Y54.011 E2.39539
G1 X61.863 Y54.271 E2.41634
G1 X61.333 Y54.457 E2.42568
G1 X60.334 Y54.952 E2.44423
G1 X60.024 Y55.138 E2.45024
G1 X58.98 Y55.959 E2.47232
G1 X58.345 Y56.6 E2.48733
G0 F2400 X58.039 Y56.342
G1 F900 X57.44 Y57.156 E2.50414
G1 X56.824 Y58.233 E2.52477
G1 X56.133 Y59.688 E2.55156
G1 X55.786 Y60.326 E2.56363
G1 X55.371 Y60.922 E2.57571
G1 X54.893 Y61.469 E2.58779
G1 X54.358 Y61.96 E2.59987
G1 X53.772 Y62.389 E2.61195
G1 X53.421 Y62.591 E2.61868
G1 X53.728 Y62.756 E2.62448
G1 X54.326 Y63.168 E2.63655
G1 X54.875 Y63.644 E2.64864
G1 X55.369 Y64.177 E2.66072
G1 X55.801 Y64.76 E2.67279
G1 X56.207 Y65.469 E2.68638
G1 X57.125 Y67.33 E2.72089
G1 X57.4 Y67.79 E2.7298
G1 X58.04 Y68.659 E2.74775
G1 X58.715 Y69.342 E2.76372
G1 X59.739 Y70.147 E2.78538
G1 X60.68 Y70.686 E2.80341
G1 X61.116 Y70.891 E2.81142
G1 X61.84 Y71.145 E2.82418
G1 X62.406 Y71.28 E2.83386
G1 X62.946 Y71.378 E2.84299
G1 X63.701 Y71.437 E2.85558
G1 X64.382 Y71.42 E2.86691
G1 X65.491 Y71.251 E2.88557
G1 X65.94 Y71.144 E2.89324
G1 X66.601 Y70.913 E2.90489
G1 X67.627 Y70.404 E2.92393
G1 X68.047 Y70.153 E2.93207
G1 X68.63 Y69.716 E2.94419
G1 X69.597 Y68.787 E2.96649
G1 X70.241 Y67.964 E2.98386
G1 X70.811 Y67.048 E3.00181
G1 X71.306 Y65.952 E3.02181
G1 X71.503 Y65.414 E3.03133
G1 X71.73 Y64.539 E3.04637
G1 X71.866 Y63.711 E3.06032
G1 X71.936 Y62.193 E3.08559
G1 X71.878 Y61.355 E3.09956
G1 X71.732 Y60.463 E3.11459
G1 X71.521 Y59.654 E3.1285
G1 X71.057 Y58.452 E3.14992
G1 X70.843 Y58.002 E3.15821
G1 X70.243 Y57.038 E3.17709
G1 X69.596 Y56.211 E3.19455
G1 X68.634 Y55.286 E3.21675
G1 X68.1 Y54.887 E3.22783
G1 X67.107 Y54.319 E3.24686
G1 X66.664 Y54.111 E3.255
G1 X65.939 Y53.856 E3.26778
G1 X65.46 Y53.742 E3.27597
G1 X64.39 Y53.581 E3.29396
G1 X63.701 Y53.563 E3.30542
G1 X63.035 Y53.615 E3.31653
G1 X61.757 Y53.884 E3.33825
G1 X61.175 Y54.088 E3.34851
G1 X60.154 Y54.594 E3.36746
G1 X59.798 Y54.808 E3.37437
G1 X58.713 Y55.66 E3.39731
G1 X58.039 Y56.342 E3.41325
G0 F2400 X57.736 Y56.079
G1 F900 X57.103 Y56.939 E3.43101
G1 X56.47 Y58.046 E3.45222
G1 X55.772 Y59.517 E3.47929
G1 X55.434 Y60.135 E3.49101
G1 X55.029 Y60.71 E3.50271
G1 X54.561 Y61.236 E3.51441
G1 X54.036 Y61.706 E3.52613
G1 X53.462 Y62.112 E3.53782
G1 X52.845 Y62.452 E3.54954
G1 X52.486 Y62.599 E3.55599
G1 X52.997 Y62.812 E3.5652
G1 X53.611 Y63.155 E3.57689
G1 X54.183 Y63.565 E3.5886
G1 X54.705 Y64.038 E3.60031
G1 X55.17 Y64.567 E3.61202
G1 X55.572 Y65.145 E3.62373
G1 X55.848 Y65.646 E3.63325
G1 X56.77 Y67.514 E3.66789
G1 X57.068 Y68.014 E3.67757
G1 X57.737 Y68.922 E3.69632
G1 X58.444 Y69.637 E3.71305
G1 X59.518 Y70.481 E3.73576
G1 X60.494 Y71.041 E3.75448
G1 X60.96 Y71.26 E3.76304
G1 X61.73 Y71.53 E3.77661
G1 X62.338 Y71.675 E3.787
G1 X62.892 Y71.776 E3.79637
G1 X63.689 Y71.838 E3.80966
G1 X64.421 Y71.819 E3.82184
G1 X65.561 Y71.645 E3.84102
G1 X66.048 Y71.529 E3.84934
G1 X66.759 Y71.281 E3.86186
G1 X67.822 Y70.754 E3.8816
G1 X68.264 Y70.489 E3.89017
G1 X68.895 Y70.017 E3.90327
G1 X69.892 Y69.059 E3.92626
G1 X70.57 Y68.192 E3.94457
G1 X71.167 Y67.233 E3.96335
G1 X71.675 Y66.108 E3.98388
G1 X71.888 Y65.525 E3.9942
G1 X72.121 Y64.629 E4.0096
G1 X72.265 Y63.752 E4.02438
G1 X72.337 Y62.189 E4.0504
G1 X72.276 Y61.317 E4.06494
G1 X72.122 Y60.372 E4.08086
G1 X71.901 Y59.528 E4.09537
G1 X71.427 Y58.298 E4.11729
G1 X71.199 Y57.818 E4.12613
G1 X70.565 Y56.801 E4.14606
G1 X69.894 Y55.943 E4.16417
G1 X68.895 Y54.982 E4.18722
G1 X68.323 Y54.555 E4.19909
G1 X67.282 Y53.959 E4.21904
G1 X66.816 Y53.739 E4.22761
G1 X66.056 Y53.473 E4.241
G1 X65.541 Y53.35 E4.24981
G1 X64.42 Y53.181 E4.26866
G1 X63.689 Y53.162 E4.28082
G1 X62.984 Y53.217 E4.29258
G1 X61.65 Y53.498 E4.31525
G1 X61.02 Y53.719 E4.32636
G1 X59.954 Y54.248 E4.34615
G1 X59.57 Y54.478 E4.35359
G1 X58.446 Y55.362 E4.37737
G1 X57.736 Y56.079 E4.39415
G0 F2400 X57.426 Y55.824
G1 F900 X56.772 Y56.713 E4.4125
G1 X56.114 Y57.865 E4.43457
G1 X55.411 Y59.345 E4.46182
G1 X55.083 Y59.942 E4.47314
G1 X54.688 Y60.497 E4.48447
G1 X54.23 Y61.001 E4.4958
G1 X53.717 Y61.448 E4.50711
G1 X53.154 Y61.832 E4.51845
G1 X52.551 Y62.147 E4.52976
G1 X51.915 Y62.39 E4.54108
G1 X51.254 Y62.556 E4.55242
G1 X50.783 Y62.617 E4.56031
G1 X50.954 Y62.627 E4.56316
G1 X51.625 Y62.745 E4.57449
G1 X52.277 Y62.941 E4.58581
G1 X52.902 Y63.211 E4.59714
G1 X53.491 Y63.553 E4.60846
G1 X54.035 Y63.962 E4.61978
G1 X54.528 Y64.432 E4.63111
G1 X54.963 Y64.956 E4.64244
G1 X55.49 Y65.823 E4.65931
G1 X56.424 Y67.717 E4.69443
G1 X56.735 Y68.237 E4.7045
G1 X57.43 Y69.181 E4.724
G1 X58.178 Y69.937 E4.74168
G1 X59.292 Y70.813 E4.76525
G1 X60.308 Y71.395 E4.78472
G1 X60.812 Y71.633 E4.79399
G1 X61.613 Y71.913 E4.8081
G1 X62.248 Y72.064 E4.81896
G1 X62.847 Y72.173 E4.82908
G1 X63.678 Y72.238 E4.84294
G1 X64.452 Y72.218 E4.85582
G1 X65.638 Y72.038 E4.87577
G1 X66.166 Y71.912 E4.8848
G1 X66.914 Y71.651 E4.89797
G1 X68.012 Y71.106 E4.91836
G1 X68.493 Y70.818 E4.92768
G1 X69.147 Y70.329 E4.94126
G1 X70.193 Y69.324 E4.96538
G1 X70.897 Y68.423 E4.9844
G1 X71.517 Y67.427 E5.00391
G1 X72.051 Y66.247 E5.02545
G1 X72.269 Y65.647 E5.03607
G1 X72.514 Y64.71 E5.05217
G1 X72.662 Y63.8 E5.0675
G1 X72.737 Y62.183 E5.09442
G1 X72.674 Y61.267 E5.10969
G1 X72.514 Y60.293 E5.12611
G1 X72.284 Y59.411 E5.14127
G1 X71.794 Y58.139 E5.16393
G1 X71.548 Y57.62 E5.17349
G1 X70.899 Y56.579 E5.19389
G1 X70.192 Y55.675 E5.21297
G1 X69.15 Y54.673 E5.23701
G1 X68.544 Y54.221 E5.24958
G1 X67.468 Y53.604 E5.27021
G1 X66.969 Y53.369 E5.27938
G1 X66.167 Y53.088 E5.29352
G1 X65.611 Y52.956 E5.30302
G1 X64.458 Y52.782 E5.32241
G1 X63.678 Y52.762 E5.33539
G1 X62.923 Y52.821 E5.34798
G1 X61.544 Y53.111 E5.37142
G1 X60.869 Y53.348 E5.38331
G1 X59.758 Y53.898 E5.40393
G1 X59.341 Y54.148 E5.41201
G1 X58.184 Y55.059 E5.4365
G1 X57.426 Y55.824 E5.45441
G0 F2400 X57.126 Y55.557
G1 F900 X56.433 Y56.499 E5.47386
G1 X55.761 Y57.673 E5.49636
G1 X55.049 Y59.174 E5.52398
G1 X54.732 Y59.749 E5.5349
G1 X54.347 Y60.281 E5.54582
G1 X53.9 Y60.763 E5.55676
G1 X53.399 Y61.187 E5.56767
G1 X52.849 Y61.547 E5.5786
G1 X52.26 Y61.838 E5.58953
G1 X51.64 Y62.054 E5.60045
G1 X50.998 Y62.194 E5.61137
G1 X50.172 Y62.258 E5.62515
G1 X39.646 Y62.259 E5.8002
G1 X38.99 Y62.219 E5.81113
G1 X38.344 Y62.1 E5.82205
G1 X37.529 Y61.827 E5.83635
G1 X36.956 Y61.583 E5.8467
G1 X36.369 Y61.29 E5.85761
G1 X35.821 Y60.927 E5.86855
G1 X35.321 Y60.5 E5.87948
G1 X34.746 Y59.847 E5.89395
G1 X34.374 Y59.349 E5.90429
G1 X34.013 Y58.799 E5.91523
G1 X33.722 Y58.21 E5.92615
G1 X33.466 Y57.447 E5.93954
G1 X33.389 Y57.144 E5.94474
G1 X33.267 Y56.499 E5.95565
G1 X33.223 Y55.77 E5.9678
G1 X33.256 Y51.717 E6.0352
G1 X33.301 Y51.062 E6.04612
G1 X33.426 Y50.417 E6.05705
G1 X33.628 Y49.791 E6.06799
G1 X33.974 Y49.071 E6.08127
G1 X34.282 Y48.535 E6.09155
G1 X34.643 Y47.986 E6.10248
G1 X35.069 Y47.485 E6.11341
G1 X35.552 Y47.04 E6.12434
G1 X36.261 Y46.55 E6.13867
G1 X36.799 Y46.239 E6.149
G1 X37.387 Y45.945 E6.15994
G1 X38.006 Y45.725 E6.17086
G1 X38.647 Y45.582 E6.18178
G1 X39.478 Y45.514 E6.19565
G1 X45.939 Y45.485 E6.3031
G1 X47.205 Y44.074 E6.33462
G1 X47.698 Y43.591 E6.3461
G1 X49.493 Y42.044 E6.38551
G1 X50.009 Y41.65 E6.3963
G1 X51.577 Y40.598 E6.4277
G1 X52.163 Y40.256 E6.43899
G1 X54.671 Y38.997 E6.48566
G1 X55.415 Y38.691 E6.49903
G1 X57.628 Y37.967 E6.53776
G1 X58.056 Y37.846 E6.54515
G1 X58.959 Y37.631 E6.56059
G1 X59.399 Y37.545 E6.56805
G1 X61.69 Y37.197 E6.60658
G1 X62.473 Y37.136 E6.61964
G1 X64.785 Y37.124 E6.65809
G1 X65.233 Y37.14 E6.66555
G1 X66.619 Y37.248 E6.68867
G1 X67.177 Y37.321 E6.69802
G1 X68.546 Y37.573 E6.72117
G1 X68.82 Y37.631 E6.72583
G1 X70.175 Y37.954 E6.749
G1 X70.839 Y38.158 E6.76055
G1 X73.456 Y39.151 E6.8071
G1 X74.177 Y39.488 E6.82033
G1 X76.221 Y40.632 E6.85929
G1 X76.73 Y40.955 E6.86931
G1 X78.65 Y42.331 E6.90859
G1 X79.148 Y42.735 E6.91926
G1 X80.549 Y44.016 E6.95083
G1 X80.921 Y44.391 E6.95961
G1 X81.898 Y45.479 E6.98393
G1 X85.366 Y45.486 E7.0416
G1 X86.022 Y45.527 E7.05253
G1 X86.668 Y45.648 E7.06346
G1 X87.47 Y45.917 E7.07753
G1 X88.041 Y46.16 E7.08785
G1 X88.628 Y46.454 E7.09877
G1 X89.176 Y46.817 E7.1097
G1 X89.676 Y47.243 E7.12062
G1 X90.242 Y47.883 E7.13483
G1 X90.615 Y48.379 E7.14515
G1 X90.977 Y48.928 E7.15609
G1 X91.27 Y49.516 E7.16701
G1 X91.532 Y50.291 E7.18062
G1 X91.61 Y50.597 E7.18587
G1 X91.733 Y51.242 E7.19679
G1 X91.777 Y51.923 E7.20814
G1 X91.786 Y58.069 E7.31035
G1 X91.747 Y58.725 E7.32128
G1 X91.629 Y59.371 E7.3322
G1 X91.606 Y59.445 E7.33349
G1 X91.642 Y59.565 E7.33557
G1 X91.753 Y60.212 E7.34649
G1 X91.786 Y60.805 E7.35636
G1 X91.786 Y64.523 E7.41819
G1 X91.746 Y65.179 E7.42912
G1 X91.627 Y65.825 E7.44005
G1 X91.606 Y65.891 E7.4412
G1 X91.641 Y66.007 E7.44321
G1 X91.753 Y66.654 E7.45413
G1 X91.786 Y67.259 E7.46421
G1 X91.776 Y73.337 E7.56529
G1 X91.735 Y73.993 E7.57622
G1 X91.615 Y74.638 E7.58713
G1 X91.364 Y75.398 E7.60044
G1 X91.125 Y75.974 E7.61081
G1 X90.836 Y76.564 E7.62173
G1 X90.479 Y77.115 E7.63265
G1 X90.057 Y77.618 E7.64357
G1 X89.427 Y78.186 E7.65768
G1 X88.935 Y78.564 E7.668
G1 X88.391 Y78.932 E7.67892
G1 X87.806 Y79.231 E7.68984
G1 X87.024 Y79.503 E7.70361
G1 X86.721 Y79.583 E7.70882
G1 X86.076 Y79.712 E7.71976
G1 X85.351 Y79.762 E7.73185
G1 X81.676 Y79.768 E7.79296
G1 X80.92 Y80.609 E7.81177
G1 X80.551 Y80.982 E7.8205
G1 X79.148 Y82.266 E7.85212
G1 X78.647 Y82.672 E7.86285
G1 X76.733 Y84.043 E7.902
G1 X76.229 Y84.363 E7.91193
G1 X74.182 Y85.511 E7.95096
G1 X73.454 Y85.851 E7.96432
G1 X70.836 Y86.843 E8.01088
G1 X70.18 Y87.045 E8.02229
G1 X68.826 Y87.369 E8.04545
G1 X68.542 Y87.429 E8.05027
G1 X67.172 Y87.68 E8.07344
G1 X66.507 Y87.759 E8.08457
G1 X64.197 Y87.891 E8.12305
G1 X63.749 Y87.898 E8.1305
G1 X62.361 Y87.862 E8.15359
G1 X61.691 Y87.803 E8.16478
G1 X59.398 Y87.455 E8.20335
G1 X58.956 Y87.369 E8.21084
G1 X58.054 Y87.154 E8.22626
G1 X57.626 Y87.033 E8.23365
G1 X55.414 Y86.309 E8.27236
G1 X54.672 Y86.003 E8.28571
G1 X52.163 Y84.744 E8.33239
G1 X51.575 Y84.401 E8.34371
G1 X50.008 Y83.349 E8.3751
G1 X49.494 Y82.958 E8.38584
G1 X47.699 Y81.412 E8.42523
G1 X47.204 Y80.926 E8.43677
G1 X46.166 Y79.769 E8.46262
G1 X39.637 Y79.759 E8.5712
G1 X38.981 Y79.718 E8.58213
G1 X38.335 Y79.598 E8.59306
G1 X37.529 Y79.327 E8.6072
G1 X36.956 Y79.083 E8.61755
G1 X36.369 Y78.79 E8.62846
G1 X35.821 Y78.427 E8.6394
G1 X35.321 Y78 E8.65033
G1 X34.746 Y77.347 E8.6648
G1 X34.374 Y76.849 E8.67514
G1 X34.013 Y76.299 E8.68608
G1 X33.722 Y75.71 E8.697
G1 X33.466 Y74.947 E8.71039
G1 X33.389 Y74.644 E8.71559
G1 X33.267 Y73.999 E8.7265
G1 X33.223 Y73.27 E8.73865
G1 X33.256 Y69.217 E8.80605
G1 X33.301 Y68.562 E8.81697
G1 X33.426 Y67.917 E8.8279
G1 X33.628 Y67.291 E8.83884
G1 X33.974 Y66.571 E8.85212
G1 X34.282 Y66.035 E8.8624
G1 X34.643 Y65.486 E8.87333
G1 X35.069 Y64.985 E8.88426
G1 X35.552 Y64.54 E8.89519
G1 X36.261 Y64.05 E8.90952
G1 X36.799 Y63.739 E8.91985
G1 X37.387 Y63.445 E8.93078
G1 X38.006 Y63.225 E8.94171
