;Header Start

;FLAVOR:Marlin
;TIME:6666
;Filament used: 0m
;Layer height: 0.2


;header_type: 3dp
;thumbnail: data:image/png;base64,iVBORw0KGgoAAAANSUhEUgAAASwAAACWCAYAAABkW7XSAAAPq0lEQVR4Xu2dSahcRRSGK44rjahx3sRoHHACxRiNohtNFMRhoe5FyEJdGNzozmERAqJZGUXcuRBRDImJIoIu1IXzPCOYOMSoIAi+GCN/mfNSr9693XX7db/Xp+u70Lx+3Xc49zun/jpV99zbi6ampvYFFghAAAIOCCxCsBx4CRMhAIFIAMEiECAAATcEECw3rsJQCEAAwSIGIAABNwQQLDeuwlAIQADBIgYgAAE3BBAsN67CUAhAAMEiBiAAATcEECw3rsJQCEAAwSIGIAABNwQQLDeuwlAIQADBIgYgAAE3BBAsN67CUAhAAMEiBiAAATcEECw3rsJQCEAAwSIGIAABNwQQLDeuwlAIQADBIgYgAAE3BBAsN67CUAhAAMEiBiAAATcEECw3rsJQCEAAwSIGIAABNwQQLDeuwlAIQADBIgYgAAE3BBAsN67CUAhAAMEiBiAAATcEECw3rsJQCEAAwSIGIAABNwQQLDeuwlAIQADBIgYgAAE3BBAsN67CUAhAAMEiBiAAATcEECw3rsJQCEAAwSIGIAABNwQQLDeuwlAIQADBIgYgAAE3BBAsN67CUAhAAMEiBiAAATcEECw3rsJQCEAAwSIGIAABNwQQLDeuwlAIQADBIgYgAAE3BBAsN67CUAhAAMEiBiAAATcEECw3rsJQCEAAwSIGIAABNwQQLDeuwlAIQADBIgYgAAE3BBAsN67CUAhAAMEiBiAAATcEECw3rsJQCEAAwSIGIAABNwQQLDeuwlAIQADBIgYgAAE3BBAsN67CUAhAAMEaUQy8+eab4a233grr168PBx10UPj333/DokWLwiWXXBLWrVsXLr300hEd2d9uN2zYEBkZK53BqlWrwooVK8I999zj74SweGQEEKwRoH3iiSfCxo0bwyGHHBJFSsu+ffvC3r174/8Sr7Vr18ZX7cvjjz8e9BKbgw8+OPIxRvpMAq/vWSAgAgjWEOPg9ddfj3t74IEHwqGHHjrdACVWekmo9NL7v//+Oxx++OFDPProd3XFFVdMH+Tyyy+P79PPSiwQozfeeCOuunjx4rBly5bIRGKlLCsVLHHScvLJJ4fvv/++ZPcLto5sXLZs2Sw+gzBasJNwcGAEa0AnPfTQQ3FLNUATKv1/3HHHhSuvvDKKkjVAEyw1SjXOf/75J/5Vw/31118HtGB4m5199tkxGzzxxBOjcJx00knTwmG279y5M2ZBsv3VV1+dcXATre3btzcaJVYPPvjgrO+WLFkSrrrqqvi5eBgv/a/jGi+J+wsvvDC8E57Dns4777xwyimntDKyTkm8fvrppxn+FSe9JPZdhX4OJk/UpghWR3e2Nb50NyeccEJs/JYtWANMG/8vv/zS8cijW/3YY4+NYiEBkSCZ3fprWY4JyCeffNJqyKOPPhruuOOOGd9v2rQp3H333a3bSOB17JyXMZMAvP/++6M7+QH2LF5axCtnJOEXK3GU4H766aetR7j//vvDzTffHM4888wBrKhzEwSr0O8lQtVrV9YgNXRIF/2vAFfg23fpvFeaqdnEfaHJnVYzYdJGdny9f/7558OOHTuK9jWIYKU7vvjii4Ne47b88MMP0yaJk7InLSkX+2wQ25Vt3XfffWRdBfAQrB6QbNjXNJxp20zCpJcC294rgzBRSnvkVBzs8/xvuo7to8Cvc1pFx/n444/DRx99FP7888/ifc1VsHSgI444Ipx77rnxpSUV0iZDUnEtNjRb0bimfNPjpt+bP9LMM/WZidiPP/4Yh4T6W7ogXP1JIVgNjLoI1fnnnx8blf6mmVE6HMyzljzozYRUzNJ9NW3f37WDraEhjA1jNGf1119/Fe/omWeeCTfccMOM9TX3dNtttxXvQxciDjvssLi+houaX7MhWPFOClfMOwATIetgcqHK/ZR/b9mwMuFUbCVa8ucHH3wQSqYCEK52ByJYCZsuwz41pHPOOadxvift9dsyAPs8F7mmLCrPykraY9sQr2nbL774In78+eefh9NPPz2+X758eXj22WfjRHvpMgzB0rFuvfXW8OWXX8bDfvXVV1GwzjjjjGLhsnPvlX2l6+TzUGmHUsLefGZClfLKh/E///xzzF537drVFyvCNRsRghVC6CJUhvCmm26avhKYD/fy7MiudqU9tN7nPXlb48hFzfbTa7iUNtZ8yJM36KOPPjqsXLlyRnRIvB5++OG+jSpdYViCdeONNwa90kXlD8ccc0zRVdWmTqDtRNLhnGVFTcPylLn5Lc2i0hhI6+1SH9v6ujJspR36TCUwlpHnc5aavL/sssuY49rvgKoFaxChSgNfWYh6/3TIYgFXOt+UDh1zIcmzJK2b9uLDmL+x89E56GqVrnxt3bq1c3al4ZvmsOY6JJQ9Ghbee++9Mdv77LPPprO/LupZKuapSOUdQdO8Yi5SacdjvknvbEjt0PfKGC2j1XydatGsNi8Vq/Q4mke0uURdWdQEfa1LlYI1V6HKg0U9vxZlKnppUbDrfVvQN02+9xI5q1Oaa6CmDUi3Du3evbtxlxKgkvkW27iXYKmsocu+tE815qOOOirODaaN19i2cSjtKNrEyT7Ps+R0v02ZcD5J//vvv4fffvtt2nYJVbqoYzj++ONj+YNKIdI6NMvQtE9l5/pf+9Ikvi21DherEawuE+lpYOlKX7p0uepj25mI5b25ChDbJrXzYdxchSrfXiUUbZPZU1NT4e233+4kMsMWLDVUNeQjjzwyZiHztfQTPH0vMcp9aeJUYqfOSVdBNRSUYKUZmcRQ/6eCasWoKq/IK/5rE66JF6wSodLkuRUvWr2UGoz15mlvq4BVAOny9XvvvdepUZcE83yu01bQKcF67rnnOp1bL8GSDzTRXLropue2Zc+ePeHdd98t3dVYrqcLCGeddVbQueTZlWLNindlvOJQMacs65tvvmktRK1FuCZasPoN/TSUs9toFBQKnnTCtE2w1MPqKk+vqu+xbCmZUaqyblokWJs3by4+hQsuuCA2wOuvv75xDuvFF18Mr7322owhTa+dS7CUfbbZ1jX7Kz6ReVxRQ0Ld5qPboNRZplmWxZ1lcZb1Sag//PDDnlZO+hzXRAvWU089Fe9h6zWM0zyJejWJl02Ap72c3v/xxx8xSEouRc9jzC/ooS688MJ4fGVWmovR/X69BEsT6bqkr4zhnXfe6VRQuaAnOk8H1+1cvS6ilE5F3HLLLeHpp5+eJ6vn/zATLVgvvfRS0A25Nlkpp1slcuntJvPvkvE4ot0mZH/Vyysb0MuGKLJUGamGyCWCpQapLNaGOvrfbmlJfaPv8U/vOEj9I39cdNFF0RerV68Oa9asGY8gGoEVEy9Y27Zti726NRJjmJYTpJ+NgPHY77KpBCAvgrRL7zZMsYLSLoKlYU/qC8so8olmHSOdeK7dP8bcOMhfqc9SX9x5553htNNOG/uYG9TAiRasr7/+Ojz22GMzenUEa3aoIFiDNp/52S73D4I1P9wX5Ch33XXXtGClz1siwzrgDgRrQUKz+KC9BMuuWmtnurqoDnqSl4nOsOQ4CZY9ehfBag5lBGu8m3iJYNm8IoI13r7sa50c+N1338UrMAgWgtU3YMZwhVLBWrp0aeygJ3mZ+AzLrhRarUt66Tif2B3mvXmegoYMa7y9lfsnvSCS3oeIYI23H4usSwUrvxqFYP2PEMEqCqUFW6lEsCRc11xzzUSXNMgBVWRYpaUNZFgH2iRlDQumT7MOnN9YXWtJQxWCpdIG/UYgtVjtDZAMa3zEqckSBOsAlYnPsOxKoVVYM/E+u0mMm2A1lZzE3nX/j9KOt7wM17qSCXcdsYaShioyLASrfwNqEqy8OHE+K90RrAM+KxGsWkoaqhEsSht6i9awBEtPCc1/Y08/QqGnNejm59Jbcyjq7S5YNVwhrEaw2kobaBhlDUNrlWRYTYKlZ8OvX78eweqf6Dau0SvDqq2koUrBorShueX0u18tvQXEhiDaU3rz83wIlp7VZT8DNqAGuNqMkoaZ7qpi0p1arP5ttItg2SRvKlh6eua6detmDQmVYW3YsCE+DjgdEtpFEO0jvRBik+v5BHuNE+5iUSJY6jQm/SkNFsFVCFaX0gYaxv+hkU+6pxkWgtW/AxjWGpQ0VJhh5VcKrSaL3rx8DgvBGpYEddtPm2DlT2nQPYST/BysqjKsXLCoxZrdaIYxJHzyyScbW+Ptt9/OkLCbTk1nuelmadabC9akP6WhOsGitKF3i0GwBlCUEW9SWoNVS0lDHBFNTU3tGzH3sdi9BOvbb7+d/oWS9PG8TPDOntwdZA6LDGu4oY5gzeZZjWBRi0WGNVw5Gf3eSmqwanlKQ3VDQkobEKzRS8xwj0BJQ8UZVq/SBp6LNfch4bJly2IdVtPCpPtgQtZLsGr6pZyUXjVDwvxKYa/ShhprseY66d5LsFQ4qp9Zp3C0m3CV1GDpKQ21lDRUNelOacNoh4QIVjcxKlm7tAarlpKGKgWLX9BpbiqjzLA2b94ctm7dSoZVolL71+EKYTOsqoaE1GK1t5i5CJYqrK+77rqwfPny1gM88sgjQfOINhTnXsLBM14rGtXfmmqwqsuwKG0YvmCtXr06XHvttUW5g/jrpQXBGlyw7LEytZU0VCdYOuHt27fHCWCbBLawqf1KYZcMS7/OosayZs2aIqHKV1Km9fLLL8eMSwtPa5iNsaQG6+qrrw7qMGpaqhoSpo6VYL3yyivxo1y8opJX9vzwtgaiyXS9tJx66qnT74fVSKzz0F0I5gserNj8WBnzhXwlsapxqVawmpxtjUbfpe9rCQwJki3p+4U4/5x/zf5YaF8shP/bjolgjZM3sAUCEOhJAMEiQCAAATcEECw3rsJQCEAAwSIGIAABNwQQLDeuwlAIQADBIgYgAAE3BBAsN67CUAhAAMEiBiAAATcEECw3rsJQCEAAwSIGIAABNwQQLDeuwlAIQADBIgYgAAE3BBAsN67CUAhAAMEiBiAAATcEECw3rsJQCEAAwSIGIAABNwQQLDeuwlAIQADBIgYgAAE3BBAsN67CUAhAAMEiBiAAATcEECw3rsJQCEAAwSIGIAABNwQQLDeuwlAIQADBIgYgAAE3BBAsN67CUAhAAMEiBiAAATcEECw3rsJQCEAAwSIGIAABNwQQLDeuwlAIQADBIgYgAAE3BBAsN67CUAhAAMEiBiAAATcEECw3rsJQCEAAwSIGIAABNwQQLDeuwlAIQADBIgYgAAE3BBAsN67CUAhAAMEiBiAAATcEECw3rsJQCEAAwSIGIAABNwQQLDeuwlAIQADBIgYgAAE3BBAsN67CUAhAAMEiBiAAATcEECw3rsJQCEAAwSIGIAABNwT+A+GgPTh1QM4yAAAAAElFTkSuQmCC
;file_total_lines: 96558
;estimated_time(s): 5707.38
;nozzle_temperature(°C): 270
;build_plate_temperature(°C): 75
;work_speed(mm/minute): 5700
;max_x(mm): 41.5
;max_y(mm): 24
;max_z(mm): 20.983600616455078
;min_x(mm): -41.5
;min_y(mm): -24
;min_z(mm): 0

;Header End

; G-code for 3dp engraving
; Generated by Snapmaker Luban 3.15.0
; Sat Jul 10 2021 21:30:34

M82 ;absolute extrusion mode
;Start GCode begin
M104 S270
M140 S75
G28 ;home
G90 ;absolute positioning
G1 X-10 Y-10 F3000
G1 Z0 F1800
M109 S270;Wait for Hotend Temperature
M190 S75;Wait for Bed Temperature
G92 E0
G1 E20 F200
G92 E0
;Start GCode end
G92 E0
G1 F1500 E-6.5
;LAYER_COUNT:105
;LAYER:0
M107
G0 F1800 X22.982 Y37.086 Z0.3
;TYPE:SKIRT
G1 F1500 E0
G1 F1080 X24.684 Y36.193 E0.09589
G1 X25.149 Y35.995 E0.12111
G1 X25.427 Y35.915 E0.13554
G1 X27.381 Y35.448 E0.23577
G1 X27.966 Y35.364 E0.26525
G1 X29.171 Y35.304 E0.32545
G1 X29.331 Y35.3 E0.33343
G1 X53 Y35.31 E1.51428
G1 X53.218 Y35.317 E1.52516
G1 X55.966 Y35.505 E1.66258
G1 X61.431 Y35.722 E1.93545
G1 X66.955 Y35.628 E2.21108
G1 X71.805 Y35.316 E2.45355
G1 X72.012 Y35.309 E2.46388
G1 X96.349 Y35.325 E3.67806
G1 X96.743 Y35.35 E3.69776
G1 X97.722 Y35.472 E3.74698
G1 X98.112 Y35.545 E3.76677
G1 X99.615 Y35.926 E3.84413
G1 X100.315 Y36.194 E3.88152
G1 X102.026 Y37.091 E3.97791
G1 X102.454 Y37.36 E4.00313
G1 X102.731 Y37.593 E4.02118
G1 X104.356 Y39.12 E4.13243
G1 X104.81 Y39.65 E4.16725
G1 X105.723 Y40.99 E4.24814
G1 X106.07 Y41.658 E4.2857
G1 X106.749 Y43.45 E4.38131
G1 X106.891 Y43.936 E4.40657
G1 X106.933 Y44.196 E4.41971
G1 X107.159 Y46.045 E4.51264
G1 X107.183 Y46.431 E4.53193
G1 X107.2 Y77.791 E6.09649
G1 X107.186 Y78.087 E6.11127
G1 X106.944 Y80.706 E6.24249
G1 X106.858 Y81.205 E6.26776
G1 X106.714 Y81.638 E6.29052
G1 X105.851 Y83.718 E6.40287
G1 X105.516 Y84.328 E6.43759
G1 X104.601 Y85.634 E6.51715
G1 X104.102 Y86.193 E6.55453
G1 X102.662 Y87.469 E6.65052
G1 X102.259 Y87.773 E6.67571
G1 X101.941 Y87.951 E6.69389
G1 X99.918 Y88.936 E6.80614
G1 X99.24 Y89.176 E6.84202
G1 X97.598 Y89.557 E6.92612
G1 X97.034 Y89.636 E6.95453
G1 X95.829 Y89.696 E7.01473
G1 X95.669 Y89.7 E7.02271
G1 X72.001 Y89.69 E8.20351
G1 X71.803 Y89.684 E8.21339
G1 X66.64 Y89.363 E8.47148
G1 X61.138 Y89.281 E8.746
G1 X55.643 Y89.511 E9.02039
G1 X53.216 Y89.683 E9.14178
G1 X52.987 Y89.691 E9.15321
G1 X28.651 Y89.675 E10.36734
G1 X28.254 Y89.65 E10.38718
G1 X27.268 Y89.526 E10.43676
G1 X26.877 Y89.452 E10.45661
G1 X25.373 Y89.069 E10.53404
G1 X24.677 Y88.802 E10.57123
G1 X22.974 Y87.909 E10.66717
G1 X22.546 Y87.64 E10.69239
G1 X22.265 Y87.404 E10.7107
G1 X20.63 Y85.863 E10.82279
G1 X20.18 Y85.335 E10.8574
G1 X19.279 Y84.012 E10.93726
G1 X19.028 Y83.573 E10.96249
G1 X18.896 Y83.247 E10.98003
G1 X18.162 Y81.102 E11.09314
G1 X18.011 Y80.433 E11.12736
G1 X17.838 Y78.933 E11.20269
G1 X17.817 Y78.568 E11.22093
G1 X17.8 Y47.209 E12.78543
G1 X17.814 Y46.912 E12.80027
G1 X18.057 Y44.29 E12.93164
G1 X18.143 Y43.792 E12.95685
G1 X18.251 Y43.45 E12.97475
G1 X18.931 Y41.658 E13.07037
G1 X19.147 Y41.201 E13.09559
G1 X19.345 Y40.898 E13.11365
G1 X20.68 Y39.082 E13.22609
G1 X21.154 Y38.566 E13.26105
G1 X22.365 Y37.509 E13.34124
G1 X22.982 Y37.086 E13.37857
G1 F1500 E6.87857
;MESH:/Users/x/Library/Application Support/snapmaker-luban/Tmp/ghostmold_30480093.stl
G0 F1800 X29.614 Y37.835
G0 X29.614 Y39.114
G0 X52 Y39.558
;TYPE:WALL-INNER
G1 F1500 E13.37857
G1 F1080 X53.836 Y39.558 E13.47016
G1 X55.462 Y39.957 E13.55369
G1 X56.96 Y40.738 E13.63798
G1 X58.223 Y41.853 E13.72203
G1 X59.193 Y43.253 E13.807
G1 X59.79 Y44.827 E13.89099
G1 X60 Y46.562 E13.97818
G1 X60 Y78.438 E15.56848
G1 X59.79 Y80.173 E15.65567
G1 X59.192 Y81.75 E15.73981
G1 X58.233 Y83.139 E15.82402
G1 X56.973 Y84.255 E15.908
G1 X55.477 Y85.04 E15.99228
G1 X53.846 Y85.442 E16.07609
G1 X52 Y85.442 E16.16819
G1 X52 Y85.5 E16.17108
G1 X30 Y85.5 E17.26867
G1 X30 Y85.442 E17.27156
G1 X28.154 Y85.442 E17.36366
G1 X26.523 Y85.04 E17.44746
G1 X25.027 Y84.255 E17.53175
G1 X23.767 Y83.139 E17.61572
G1 X22.808 Y81.75 E17.69993
G1 X22.21 Y80.173 E17.78408
G1 X22 Y78.438 E17.87127
G1 X22 Y46.562 E19.46157
G1 X22.21 Y44.827 E19.54876
G1 X22.808 Y43.25 E19.6329
G1 X23.767 Y41.861 E19.71711
G1 X25.027 Y40.745 E19.80109
G1 X26.523 Y39.96 E19.88537
G1 X28.154 Y39.558 E19.96918
G1 X30 Y39.558 E20.06128
G1 X30 Y39.5 E20.06417
G1 X52 Y39.5 E21.16175
G1 X52 Y39.558 E21.16465
G0 F1800 X52.4 Y39.158
G1 F1080 X53.882 Y39.158 E21.23859
G1 X55.607 Y39.581 E21.3272
G1 X57.188 Y40.406 E21.41617
G1 X58.524 Y41.585 E21.50506
G1 X59.549 Y43.064 E21.59484
G1 X60.181 Y44.73 E21.68373
G1 X60.4 Y46.539 E21.77464
G1 X60.4 Y78.461 E23.36724
G1 X60.181 Y80.27 E23.45815
G1 X59.549 Y81.936 E23.54705
G1 X58.535 Y83.405 E23.6361
G1 X57.201 Y84.587 E23.72502
G1 X55.621 Y85.416 E23.81404
G1 X53.893 Y85.842 E23.90283
G1 X52.4 Y85.842 E23.97731
G1 X52.4 Y85.9 E23.98021
G1 X29.6 Y85.9 E25.11771
G1 X29.6 Y85.842 E25.1206
G1 X28.107 Y85.842 E25.19508
G1 X26.379 Y85.416 E25.28388
G1 X24.8 Y84.587 E25.37285
G1 X23.465 Y83.405 E25.46181
G1 X22.451 Y81.936 E25.55086
G1 X21.819 Y80.27 E25.63976
G1 X21.6 Y78.461 E25.73067
G1 X21.6 Y46.539 E27.32326
G1 X21.819 Y44.73 E27.41417
G1 X22.451 Y43.064 E27.50307
G1 X23.465 Y41.595 E27.59212
G1 X24.8 Y40.413 E27.68108
G1 X26.379 Y39.584 E27.77005
G1 X28.107 Y39.158 E27.85885
G1 X29.6 Y39.158 E27.93333
G1 X29.6 Y39.1 E27.93623
G1 X52.4 Y39.1 E29.07372
G1 X52.4 Y39.158 E29.07662
G0 F1800 X52.8 Y38.758
;TYPE:WALL-OUTER
G1 F1080 X53.932 Y38.758 E29.13309
G1 X55.749 Y39.203 E29.22642
G1 X57.416 Y40.074 E29.32026
G1 X58.825 Y41.317 E29.414
G1 X59.905 Y42.875 E29.50857
G1 X60.572 Y44.633 E29.60238
G1 X60.8 Y46.516 E29.69701
G1 X60.8 Y78.484 E31.2919
G1 X60.572 Y80.367 E31.38653
G1 X59.906 Y82.122 E31.48018
G1 X58.837 Y83.671 E31.57408
G1 X57.429 Y84.919 E31.66794
G1 X55.765 Y85.792 E31.76169
G1 X53.94 Y86.242 E31.85547
G1 X52.8 Y86.242 E31.91234
G1 X52.8 Y86.3 E31.91524
G1 X29.2 Y86.3 E33.09265
G1 X29.2 Y86.242 E33.09554
G1 X28.06 Y86.242 E33.15242
G1 X26.235 Y85.792 E33.24619
G1 X24.572 Y84.919 E33.3399
G1 X23.163 Y83.671 E33.4338
G1 X22.094 Y82.122 E33.5277
G1 X21.428 Y80.367 E33.62135
G1 X21.2 Y78.484 E33.71598
G1 X21.2 Y46.516 E35.31087
G1 X21.428 Y44.633 E35.4055
G1 X22.094 Y42.878 E35.49915
G1 X23.163 Y41.329 E35.59304
G1 X24.572 Y40.081 E35.68695
G1 X26.235 Y39.208 E35.78065
G1 X28.06 Y38.758 E35.87443
G1 X29.2 Y38.758 E35.9313
G1 X29.2 Y38.7 E35.9342
G1 X52.8 Y38.7 E37.11161
G1 X52.8 Y38.758 E37.1145
G0 F1800 X53 Y38.758
G0 X53.787 Y39.948
;TYPE:SKIN
G1 F1080 X55.324 Y40.325 E37.19345
G1 X56.739 Y41.063 E37.27307
G1 X57.93 Y42.114 E37.35232
G1 X58.844 Y43.433 E37.43238
G1 X59.408 Y44.919 E37.51168
G1 X59.61 Y46.593 E37.5958
G1 X59.61 Y78.407 E39.18301
G1 X59.408 Y80.081 E39.26713
G1 X58.844 Y81.567 E39.34643
G1 X57.939 Y82.878 E39.4259
G1 X56.748 Y83.933 E39.50528
G1 X55.336 Y84.674 E39.58484
G1 X53.801 Y85.052 E39.66371
G1 X51.61 Y85.052 E39.77302
G1 X51.61 Y85.11 E39.77591
G1 X30.39 Y85.11 E40.83458
G1 X30.39 Y85.052 E40.83747
G1 X28.199 Y85.052 E40.94678
G1 X26.664 Y84.674 E41.02565
G1 X25.252 Y83.933 E41.10521
G1 X24.061 Y82.878 E41.18459
G1 X23.156 Y81.567 E41.26406
G1 X22.592 Y80.081 E41.34336
G1 X22.39 Y78.407 E41.42748
G1 X22.39 Y46.593 E43.01469
G1 X22.592 Y44.919 E43.09881
G1 X23.156 Y43.433 E43.17811
G1 X24.061 Y42.122 E43.25759
G1 X25.252 Y41.067 E43.33696
G1 X26.664 Y40.326 E43.41652
G1 X28.199 Y39.948 E43.49539
G1 X30.39 Y39.948 E43.6047
G1 X30.39 Y39.89 E43.60759
G1 X51.61 Y39.89 E44.66626
G1 X51.61 Y39.948 E44.66916
G1 X53.787 Y39.948 E44.77777
G0 F1800 X58.437 Y43.163
G1 F1080 X56.321 Y41.048 E44.92703
G1 X56.293 Y41.02
G0 F1800 X55.184 Y40.476
G1 F1080 X58.963 Y44.255 E45.19366
G1 X58.991 Y44.283
G0 F1800 X59.249 Y45.107
G1 F1080 X54.435 Y40.293 E45.53331
G0 F1800 X53.704 Y40.128
G1 F1080 X59.326 Y45.75 E45.92997
G0 F1800 X59.404 Y46.393
G1 F1080 X53.139 Y40.128 E46.372
G0 F1800 X52.573 Y40.128
G1 F1080 X59.429 Y46.984 E46.85573
G0 F1800 X59.429 Y47.55
G1 F1080 X52.007 Y40.128 E47.37939
G0 F1800 X51.442 Y40.128
G1 F1080 X59.429 Y48.115 E47.94292
G0 F1800 X59.429 Y48.681
G1 F1080 X50.818 Y40.07 E48.55047
G0 F1800 X50.252 Y40.07
G1 F1080 X59.429 Y49.247 E49.19796
G0 F1800 X59.429 Y49.812
G1 F1080 X49.686 Y40.07 E49.88534
G0 F1800 X49.121 Y40.07
G1 F1080 X59.429 Y50.378 E50.61263
G0 F1800 X59.429 Y50.944
G1 F1080 X48.555 Y40.07 E51.37985
G0 F1800 X47.989 Y40.07
G1 F1080 X59.429 Y51.509 E52.18697
G0 F1800 X59.429 Y52.075
G1 F1080 X47.424 Y40.07 E53.03398
G0 F1800 X46.858 Y40.07
G1 F1080 X59.429 Y52.641 E53.92094
G0 F1800 X59.429 Y53.206
G1 F1080 X46.292 Y40.07 E54.84779
G0 F1800 X45.727 Y40.07
G1 F1080 X59.429 Y53.772 E55.81454
G0 F1800 X59.429 Y54.338
G1 F1080 X45.161 Y40.07 E56.82122
G0 F1800 X44.595 Y40.07
G1 F1080 X59.429 Y54.904 E57.86784
G0 F1800 X59.429 Y55.469
G1 F1080 X44.03 Y40.07 E58.95432
G0 F1800 X43.464 Y40.07
G1 F1080 X59.429 Y56.035 E60.08074
G0 F1800 X59.429 Y56.601
G1 F1080 X42.898 Y40.07 E61.24709
G0 F1800 X42.333 Y40.07
G1 F1080 X59.429 Y57.166 E62.45331
G0 F1800 X59.429 Y57.732
G1 F1080 X41.767 Y40.07 E63.69946
G0 F1800 X41.201 Y40.07
G1 F1080 X59.429 Y58.298 E64.98554
G0 F1800 X59.429 Y58.863
G1 F1080 X40.636 Y40.07 E66.31149
G0 F1800 X40.07 Y40.07
G1 F1080 X59.429 Y59.429 E67.67737
G0 F1800 X59.429 Y59.995
G1 F1080 X39.504 Y40.07 E69.08319
G0 F1800 X38.938 Y40.07
G1 F1080 X59.429 Y60.56 E70.5289
G0 F1800 X59.429 Y61.126
G1 F1080 X38.373 Y40.07 E72.01452
G0 F1800 X37.807 Y40.07
G1 F1080 X59.429 Y61.692 E73.54006
G0 F1800 X59.429 Y62.257
G1 F1080 X37.241 Y40.07 E75.10551
G0 F1800 X36.676 Y40.07
G1 F1080 X59.429 Y62.823 E76.71086
G0 F1800 X59.429 Y63.389
G1 F1080 X36.11 Y40.07 E78.35614
G0 F1800 X35.544 Y40.07
G1 F1080 X59.429 Y63.954 E80.04132
G0 F1800 X59.429 Y64.52
G1 F1080 X34.979 Y40.07 E81.7664
G0 F1800 X34.413 Y40.07
G1 F1080 X59.429 Y65.086 E83.53141
G0 F1800 X59.429 Y65.652
G1 F1080 X33.847 Y40.07 E85.33636
G0 F1800 X33.282 Y40.07
G1 F1080 X59.429 Y66.217 E87.18118
G0 F1800 X59.429 Y66.783
G1 F1080 X32.716 Y40.07 E89.06592
G0 F1800 X32.15 Y40.07
G1 F1080 X59.429 Y67.349 E90.9906
G0 F1800 X59.429 Y67.914
G1 F1080 X31.585 Y40.07 E92.95515
G0 F1800 X31.019 Y40.07
G1 F1080 X59.429 Y68.48 E94.95963
G0 F1800 X59.429 Y69.046
G1 F1080 X30.51 Y40.127 E97.00002
G0 F1800 X29.945 Y40.127
G1 F1080 X59.429 Y69.611 E99.08027
G0 F1800 X59.429 Y70.177
G1 F1080 X29.379 Y40.127 E101.20046
G0 F1800 X28.813 Y40.127
G1 F1080 X59.429 Y70.743 E103.36059
G0 F1800 X59.429 Y71.308
G1 F1080 X28.248 Y40.127 E105.56057
