;Header Start

;FLAVOR:Marlin
;TIME:6666
;Filament used: 0m
;Layer height: 0.15


;header_type: 3dp
;thumbnail: data:image/png;base64,iVBORw0KGgoAAAANSUhEUgAAASwAAACWCAYAAABkW7XSAAAJZElEQVR4Xu3dPWtUXReH8R1fMIilxEJE0V6wsRGtEgSxsbMUaz+B1trZiZBOP4GNjaRTG8WvoGJhk9YgKr7crJF9P4dj8jh35oz7rPE3EBzDzNn/c63lxTo7J+PSly9ffhQPBBBAIAGBJcJKUCUREUBgQoCwNAICCKQhQFhpSiUoAggQlh5AAIE0BAgrTakERQABwtIDCCCQhgBhpSmVoAggQFh6AAEE0hAgrDSlEhQBBAhLDyCAQBoChJWmVIIigABh6QEEEEhDgLDSlEpQBBAgLD2AAAJpCBBWmlIJigAChKUHEEAgDQHCSlMqQRFAgLD0AAIIpCFAWGlKJSgCCBCWHkAAgTQECCtNqQRFAAHC0gMIIJCGAGGlKZWgCCBAWHoAAQTSECCsNKUSFAEECEsPIIBAGgKElaZUgiKAAGHpAQQQSEOAsNKUSlAEECAsPYAAAmkIEFaaUgmKAAKEpQcQQCANAcJKUypBEUCAsPQAAgikIUBYaUolKAIIEJYeQACBNAQIK02pBEUAAcLSAwggkIYAYaUplaAIIEBYegABBNIQIKw0pRIUAQQISw8ggEAaAoSVplSCIoAAYekBBBBIQ4Cw0pRKUAQQICw9gAACaQgQVppSCYoAAoSlBxBAIA0BwkpTKkERQICw9AACCKQhQFhpSiUoAggQlh5AAIE0BAgrTakERQABwtIDCCCQhgBhpSmVoAggQFh6AAEE0hAgrDSlEhQBBAhLDyCAQBoChJWmVIIigABh6QEEEEhDgLDSlGp+QZ89e1aePn1a3r9//+8iq6ur81twiiO/efOmbGxslFOnTpXXr1+XJ0+eTPEuL1l0AoS16BWe4vwuXrxYjh49Ws6cOVPW19fL2bNnJ89bPh4/flyWl5dLiDOeX7hwody6datlJGuPgABhjaAILSPEdHX9+vVy9erVsrW1NZFDPF9ZWWkZq2xubpa7d++WtbW1cvr06RI54zlpNS1L88UJq3kJ2gaI6erw4cOTy8GXL1+WK1euTP7sXh62SBhTXjwiS/f5x48fW8Sx5kgIENZICtEixu3bt8uDBw8mkrp3797ksrA+b5Gnv+aNGzcmueIRz0NepqwxVKZdBsJqx775ygcPHpwIqjtdRahHjx41zxYB+lNW/D0EZsoaRXmahCCsJtjbL9qfruoUE7JqfTnYpWPKat8rY0pAWGOqxh/KEhvYsXdVL7PqPlFcEo5luqooTFl/qCmSLENYSQo1ZMyQ1efPnyeXXN09orFNV/WysJ/TXtaQ3ZDrWISVq14zp91uuorJKqQwtumqnmx/EqwCi1sc3OYwc0ukOgBhpSrX7GHrbQzdzfWx3Mqw09mFoLabsmLSsgE/e09kOgJhZarWjFm7G+318m9stzLsdIqmrBmLvyBvJ6wFKeQ0p1FvY+hPV/W2hmmO0eo1pqxW5Me1LmGNqx5zSxOXgvELxXH515+uxrjZvh2I7aYsG/Bza5lRHpiwRlmWYUPVjfaQVX+66v592FWHP1r3Foc4eldg8WkO58+fH35RRxwVAcIaVTnmE2YRpqsgUy8LY6qq947F90xZ8+mbMR6VsMZYlQEzLcp0VZF0f5WoTlnxZ9xP5jaHARtnpIcirJEWZqhYizJdVR79zff+1OU2h6E6Z5zHIaxx1mWQVHEbQ3zFXk/8JLDeGNrfyxpksT94kO7elSnrD4IfwVKENYIizCtC3MZQJ5D+TwbrPtC81p7ncU1Z86Q77mMT1rjrs+t0cSkY+1f96ar/j33XCzR+Y3/K6p6XvazGxZnj8oQ1R7itDt3daK+fwFA/MqYvsFYZZ133d1PW/fv3y7Vr12ZdxvtHRoCwRlaQIeJ0N9q7e1f9y8Mh1mp5DFNWS/pt1iasNtzntur/m66yb7b3of1uynJpOLc2a3ZgwmqGfj4L7zRd1V9yzvJrONPQ6d/SEO9xm8M05PK+hrDy1u6X5PU2hpik+ntXizZd1ZOPy8J41A8i7AvLlLVADV5KIawFqWe9FKyTVHfvahGnq1o2U9aCNPCUp0FYU4Ia+8vqbQw7TVchrTqFjP1c/mu+nTbf6+RlyvqvRMf7esIab22mTlanqzptbDdddb839YGTvHCaKYu0khTzNzEJawHq2L1JNE6nu7G+3cS1AKf8yymYshaxqr+eE2Elr/PfPl3197K6l7024JM39zbxCSt5Tet0VT/cLi796l3tsW8VX93vJT/dHePvdK79D/3zaQ65O4CwEtfv7du35dKlS+Xdu3e/nEX8A15dXS3Ly8u7PsP4SOWNjY1dv383b1xbWysnT57czVsn7/n06VN5+PDhtu+PTyRdX18vJ06c2PXxvbEtAcJqy3/m1e/cuVMOHDgwkdaePXtKSMzjJ4EfP35M5Pf9+/dy/PjxyX8ee/PmTXgSEyCsxMWL6FVYIau9e/eWpaWl5Gc0bPyQVgjr27dvhDUs2iZHI6wm2IdbNIS1f//+sm/fvomw4kFa/5uw4lnIKqRlwhqu71odibBakR9o3RcvXpRXr16VDx8+lEOHDhFWh+vXr18nMg9ZxVdcHl6+fHkg8g7TggBhtaA+8JrPnz8vm5ub/+7bxIQVl0J/+6NOmvHnyspKOXfu3N+OJP35E1b6Ev48gbh1Iaasra0tU1Ypk4kqpB17e0eOHCnHjh1bkEr/3adBWAtW//ixvsdPArPc0oHhOAkQ1jjrIhUCCGxDgLC0BQIIpCFAWGlKJSgCCBCWHkAAgTQECCtNqQRFAAHC0gMIIJCGAGGlKZWgCCBAWHoAAQTSECCsNKUSFAEECEsPIIBAGgKElaZUgiKAAGHpAQQQSEOAsNKUSlAEECAsPYAAAmkIEFaaUgmKAAKEpQcQQCANAcJKUypBEUCAsPQAAgikIUBYaUolKAIIEJYeQACBNAQIK02pBEUAAcLSAwggkIYAYaUplaAIIEBYegABBNIQIKw0pRIUAQQISw8ggEAaAoSVplSCIoAAYekBBBBIQ4Cw0pRKUAQQICw9gAACaQgQVppSCYoAAoSlBxBAIA0BwkpTKkERQICw9AACCKQhQFhpSiUoAggQlh5AAIE0BAgrTakERQABwtIDCCCQhgBhpSmVoAggQFh6AAEE0hAgrDSlEhQBBAhLDyCAQBoChJWmVIIigABh6QEEEEhDgLDSlEpQBBAgLD2AAAJpCBBWmlIJigAChKUHEEAgDQHCSlMqQRFA4B/I2LPA2vz5nQAAAABJRU5ErkJggg==
;file_total_lines: 15555
;estimated_time(s): 5553.3
;nozzle_temperature(°C): 225
;build_plate_temperature(°C): 65
;work_speed(mm/minute): 3000
;max_x(mm): 16.904998779296875
;max_y(mm): 51.680999755859375
;max_z(mm): 4.5
;min_x(mm): -16.904998779296875
;min_y(mm): -51.680999755859375
;min_z(mm): 0

;Header End

; G-code for 3dp engraving
; Generated by Snapmaker Luban 3.15.0
; Wed Jun 16 2021 23:31:50

M82 ;absolute extrusion mode
;Start GCode begin
M104 S225
M140 S65
G28 ;home
G90 ;absolute positioning
G1 X-10 Y-10 F3000
G1 Z0 F1800
M109 S225;Wait for Hotend Temperature
M190 S65;Wait for Bed Temperature
G92 E0
G1 E20 F200
G92 E0
;Start GCode end
G92 E0
G1 F1500 E-6.5
;LAYER_COUNT:30
;LAYER:0
M107
G0 F2100 X42.888 Y12.237 Z0.3
;TYPE:SKIRT
G1 F1500 E0
G1 F900 X43.003 Y11.872 E0.01909
G1 X43.18 Y11.382 E0.04508
G1 X43.423 Y10.827 E0.07531
G1 X43.737 Y10.308 E0.10557
G1 X44.116 Y9.835 E0.13581
G1 X44.555 Y9.417 E0.16606
G1 X44.824 Y9.208 E0.18305
G1 X45.256 Y8.898 E0.20958
G1 X45.771 Y8.577 E0.23985
G1 X46.323 Y8.328 E0.27007
G1 X46.904 Y8.153 E0.30034
G1 X47.502 Y8.056 E0.33056
G1 X47.931 Y8.035 E0.35199
G1 X76.873 Y7.992 E1.79591
G1 X77.478 Y8.031 E1.82616
G1 X78.073 Y8.149 E1.85642
G1 X78.56 Y8.31 E1.88201
G1 X78.973 Y8.472 E1.90415
G1 X79.521 Y8.73 E1.93437
G1 X80.031 Y9.058 E1.96462
G1 X80.494 Y9.45 E1.99488
G1 X80.956 Y9.972 E2.02966
G1 X81.278 Y10.396 E2.05622
G1 X81.612 Y10.902 E2.08647
G1 X81.877 Y11.447 E2.11671
G1 X82.113 Y12.213 E2.15669
G1 X82.169 Y12.474 E2.17001
G1 X82.256 Y13.074 E2.20026
G1 X82.271 Y13.44 E2.21853
G1 X82.242 Y111.724 E7.12194
G1 X82.202 Y112.329 E7.15219
G1 X82.083 Y112.924 E7.18246
G1 X81.804 Y113.681 E7.22271
G1 X81.637 Y114.036 E7.24229
G1 X81.344 Y114.567 E7.27254
G1 X80.983 Y115.054 E7.30279
G1 X80.548 Y115.501 E7.33391
G1 X80.343 Y115.685 E7.34765
G1 X79.866 Y116.06 E7.37792
G1 X79.344 Y116.368 E7.40816
G1 X78.908 Y116.56 E7.43193
G1 X78.504 Y116.714 E7.4535
G1 X77.925 Y116.892 E7.48372
G1 X77.327 Y116.993 E7.51397
G1 X76.865 Y117.016 E7.53705
G1 X48.112 Y117.011 E8.97155
G1 X47.507 Y116.971 E9.00179
G1 X46.753 Y116.805 E9.04031
G1 X46.459 Y116.714 E9.05567
G1 X45.893 Y116.497 E9.08591
G1 X45.36 Y116.208 E9.11616
G1 X44.785 Y115.777 E9.15201
G1 X44.458 Y115.49 E9.17372
G1 X44.029 Y115.061 E9.20398
G1 X43.661 Y114.579 E9.23424
G1 X43.336 Y114.005 E9.26715
G1 X43.206 Y113.731 E9.28228
G1 X42.983 Y113.167 E9.31254
G1 X42.836 Y112.579 E9.34277
G1 X42.762 Y111.761 E9.38375
G1 X42.729 Y13.437 E14.28915
G1 X42.769 Y12.832 E14.3194
G1 X42.888 Y12.237 E14.34968
G0 F2100 X43.288 Y12.291
G1 F900 X43.379 Y12.008 E14.36451
G1 X43.556 Y11.518 E14.3905
G1 X43.79 Y10.988 E14.4194
G1 X44.094 Y10.495 E14.4483
G1 X44.464 Y10.049 E14.47721
G1 X45.057 Y9.533 E14.51643
G1 X45.489 Y9.223 E14.54296
G1 X45.982 Y8.918 E14.57188
G1 X46.512 Y8.684 E14.60078
G1 X47.069 Y8.526 E14.62967
G1 X47.932 Y8.435 E14.67296
G1 X76.874 Y8.392 E16.11689
G1 X77.452 Y8.431 E16.14579
G1 X78.019 Y8.549 E16.17468
G1 X78.414 Y8.682 E16.19548
G1 X78.827 Y8.844 E16.21761
G1 X79.35 Y9.092 E16.24649
G1 X79.834 Y9.41 E16.27538
G1 X80.27 Y9.792 E16.3043
G1 X80.638 Y10.214 E16.33223
G1 X80.96 Y10.638 E16.35879
G1 X81.278 Y11.122 E16.38769
G1 X81.526 Y11.646 E16.41661
G1 X81.722 Y12.297 E16.45053
G1 X81.778 Y12.558 E16.46385
G1 X81.86 Y13.131 E16.49272
G1 X81.871 Y13.44 E16.50815
G1 X81.842 Y111.724 E21.41156
G1 X81.802 Y112.302 E21.44046
G1 X81.683 Y112.869 E21.46937
G1 X81.442 Y113.511 E21.50358
G1 X81.275 Y113.866 E21.52315
G1 X80.993 Y114.372 E21.55205
G1 X80.644 Y114.834 E21.58094
G1 X80.28 Y115.204 E21.60684
G1 X80.075 Y115.388 E21.62058
G1 X79.619 Y115.744 E21.64944
G1 X79.117 Y116.034 E21.67836
G1 X78.766 Y116.187 E21.69747
G1 X78.362 Y116.341 E21.71904
G1 X77.808 Y116.509 E21.74792
G1 X77.236 Y116.6 E21.77681
G1 X76.865 Y116.616 E21.79534
G1 X48.112 Y116.611 E23.22983
G1 X47.534 Y116.571 E23.25874
G1 X46.871 Y116.423 E23.29263
G1 X46.577 Y116.332 E23.30799
G1 X46.037 Y116.123 E23.33687
G1 X45.53 Y115.842 E23.36579
G1 X45.048 Y115.477 E23.39596
G1 X44.721 Y115.19 E23.41766
G1 X44.313 Y114.778 E23.44659
G1 X43.966 Y114.315 E23.47546
G1 X43.697 Y113.833 E23.503
G1 X43.567 Y113.559 E23.51813
G1 X43.356 Y113.02 E23.547
G1 X43.22 Y112.457 E23.5759
G1 X43.162 Y111.76 E23.61079
G1 X43.129 Y13.436 E28.5162
G1 X43.169 Y12.858 E28.5451
G1 X43.288 Y12.291 E28.57401
G0 F2100 X43.755 Y12.144
G1 F900 X43.932 Y11.654 E28.6
G1 X44.156 Y11.151 E28.62747
G1 X44.451 Y10.685 E28.65499
G1 X44.81 Y10.267 E28.68248
G1 X45.291 Y9.858 E28.71398
G1 X45.723 Y9.548 E28.7405
G1 X46.192 Y9.26 E28.76796
G1 X46.699 Y9.043 E28.79548
G1 X47.231 Y8.901 E28.82295
G1 X47.932 Y8.835 E28.85807
G1 X76.874 Y8.792 E30.302
G1 X77.424 Y8.831 E30.32951
G1 X77.962 Y8.949 E30.35699
G1 X78.268 Y9.054 E30.37313
G1 X78.681 Y9.216 E30.39526
G1 X79.178 Y9.454 E30.42275
G1 X79.635 Y9.762 E30.45025
G1 X80.043 Y10.132 E30.47772
G1 X80.319 Y10.456 E30.49896
G1 X80.641 Y10.88 E30.52552
G1 X80.942 Y11.342 E30.55303
G1 X81.172 Y11.842 E30.58049
G1 X81.33 Y12.381 E30.60851
G1 X81.386 Y12.642 E30.62183
G1 X81.471 Y13.44 E30.66187
G1 X81.442 Y111.724 E35.56527
G1 X81.402 Y112.274 E35.59279
G1 X81.283 Y112.812 E35.62028
G1 X81.081 Y113.341 E35.64853
G1 X80.914 Y113.696 E35.6681
G1 X80.643 Y114.176 E35.6956
G1 X80.307 Y114.612 E35.72306
G1 X80.013 Y114.906 E35.74381
G1 X79.808 Y115.09 E35.75755
G1 X79.373 Y115.427 E35.785
G1 X78.893 Y115.698 E35.8125
G1 X78.624 Y115.813 E35.8271
G1 X78.22 Y115.967 E35.84867
G1 X77.692 Y116.125 E35.87616
G1 X77.147 Y116.206 E35.90365
G1 X76.865 Y116.216 E35.91773
G1 X48.112 Y116.211 E37.35222
G1 X47.563 Y116.171 E37.37969
G1 X46.989 Y116.041 E37.40905
G1 X46.695 Y115.95 E37.4244
G1 X46.182 Y115.749 E37.45189
G1 X45.703 Y115.477 E37.47937
G1 X45.312 Y115.176 E37.50399
G1 X44.985 Y114.889 E37.5257
G1 X44.599 Y114.496 E37.55318
G1 X44.273 Y114.052 E37.58066
G1 X44.059 Y113.662 E37.60285
G1 X43.929 Y113.388 E37.61798
G1 X43.729 Y112.874 E37.6455
G1 X43.606 Y112.337 E37.67298
G1 X43.562 Y111.76 E37.70186
G1 X43.529 Y13.436 E42.60726
G1 X43.569 Y12.887 E42.63472
G1 X43.755 Y12.144 E42.67293
G0 F2100 X44.131 Y12.28
G1 F900 X44.308 Y11.79 E42.69893
G1 X44.522 Y11.315 E42.72492
G1 X44.807 Y10.878 E42.75095
G1 X45.154 Y10.49 E42.77692
G1 X45.524 Y10.183 E42.8009
G1 X45.956 Y9.873 E42.82743
G1 X46.401 Y9.602 E42.85342
G1 X46.883 Y9.403 E42.87944
G1 X47.389 Y9.28 E42.90542
G1 X47.933 Y9.235 E42.93265
G1 X76.875 Y9.192 E44.37658
G1 X77.395 Y9.231 E44.40259
G1 X78.122 Y9.427 E44.44016
G1 X78.535 Y9.589 E44.46229
G1 X79.004 Y9.816 E44.48829
G1 X79.433 Y10.112 E44.51429
G1 X79.811 Y10.47 E44.54026
G1 X80.001 Y10.698 E44.55507
G1 X80.323 Y11.122 E44.58163
G1 X80.605 Y11.56 E44.60762
G1 X80.817 Y12.036 E44.63362
G1 X80.939 Y12.465 E44.65587
G1 X80.995 Y12.726 E44.66919
G1 X81.071 Y13.44 E44.70501
G1 X81.042 Y111.724 E49.60842
G1 X81.002 Y112.244 E49.63444
G1 X80.883 Y112.751 E49.66042
G1 X80.719 Y113.17 E49.68287
G1 X80.552 Y113.525 E49.70244
G1 X80.294 Y113.978 E49.72845
G1 X79.971 Y114.387 E49.75445
G1 X79.746 Y114.608 E49.77019
G1 X79.541 Y114.792 E49.78393
G1 X79.128 Y115.11 E49.80993
G1 X78.481 Y115.439 E49.84615
G1 X78.077 Y115.593 E49.86772
G1 X77.577 Y115.741 E49.89373
G1 X76.865 Y115.816 E49.92945
G1 X48.112 Y115.811 E51.36394
G1 X47.593 Y115.771 E51.38991
G1 X47.108 Y115.659 E51.41475
G1 X46.814 Y115.568 E51.4301
G1 X46.329 Y115.376 E51.45612
G1 X45.88 Y115.113 E51.48208
G1 X45.576 Y114.875 E51.50135
G1 X45.249 Y114.588 E51.52305
G1 X44.885 Y114.216 E51.54902
G1 X44.582 Y113.792 E51.57502
G1 X44.42 Y113.49 E51.59212
G1 X44.29 Y113.216 E51.60725
G1 X44.104 Y112.73 E51.63321
G1 X43.993 Y112.22 E51.65925
G1 X43.962 Y111.76 E51.68225
G1 X43.929 Y13.436 E56.58765
G1 X43.969 Y12.917 E56.61362
G1 X44.131 Y12.28 E56.64642
G0 F2100 X44.507 Y12.416
G1 F900 X44.684 Y11.926 E56.67241
G1 X44.888 Y11.481 E56.69683
G1 X45.161 Y11.074 E56.72128
G1 X45.496 Y10.718 E56.74567
G1 X45.757 Y10.508 E56.76238
G1 X46.189 Y10.198 E56.78891
G1 X46.609 Y9.946 E56.81335
G1 X47.064 Y9.765 E56.83778
G1 X47.542 Y9.661 E56.86218
G1 X47.934 Y9.635 E56.88178
G1 X76.876 Y9.592 E58.3257
G1 X77.363 Y9.631 E58.35008
G1 X77.975 Y9.799 E58.38174
G1 X78.388 Y9.961 E58.40387
G1 X78.828 Y10.176 E58.42831
G1 X79.227 Y10.46 E58.45274
G1 X79.682 Y10.94 E58.48574
G1 X80.004 Y11.364 E58.5123
G1 X80.267 Y11.776 E58.53668
G1 X80.46 Y12.226 E58.56111
G1 X80.548 Y12.549 E58.57781
G1 X80.604 Y12.81 E58.59113
G1 X80.671 Y13.44 E58.62274
G1 X80.642 Y111.724 E63.52615
G1 X80.602 Y112.212 E63.55058
G1 X80.483 Y112.687 E63.57501
G1 X80.357 Y113 E63.59184
G1 X80.19 Y113.355 E63.61141
G1 X79.946 Y113.779 E63.63582
G1 X79.479 Y114.311 E63.67114
G1 X79.274 Y114.495 E63.68488
G1 X78.884 Y114.791 E63.70931
G1 X78.339 Y115.065 E63.73974
G1 X77.935 Y115.219 E63.76131
G1 X77.464 Y115.356 E63.78578
G1 X76.865 Y115.416 E63.81582
G1 X48.112 Y115.411 E65.25031
G1 X47.625 Y115.371 E65.27469
G1 X47.226 Y115.277 E65.29514
G1 X46.932 Y115.186 E65.31049
G1 X46.478 Y115.003 E65.33491
G1 X46.059 Y114.75 E65.35933
G1 X45.84 Y114.575 E65.37332
G1 X45.513 Y114.288 E65.39503
G1 X45.173 Y113.936 E65.41944
G1 X44.782 Y113.319 E65.45588
G1 X44.652 Y113.045 E65.47101
G1 X44.479 Y112.587 E65.49544
G1 X44.382 Y112.107 E65.51987
G1 X44.362 Y111.76 E65.53721
G1 X44.329 Y13.436 E70.44262
G1 X44.369 Y12.948 E70.46704
G1 X44.507 Y12.416 E70.49446
G0 F2100 X44.884 Y12.552
G1 F900 X45.061 Y12.062 E70.52046
G1 X45.252 Y11.648 E70.5432
G1 X45.513 Y11.275 E70.56592
G1 X45.99 Y10.833 E70.59836
G1 X46.422 Y10.523 E70.62489
G1 X46.814 Y10.29 E70.64764
G1 X47.241 Y10.13 E70.67039
G1 X47.689 Y10.047 E70.69312
G1 X47.934 Y10.035 E70.70536
G1 X76.876 Y9.992 E72.14928
G1 X77.33 Y10.031 E72.17201
G1 X77.829 Y10.172 E72.19788
G1 X78.242 Y10.334 E72.22002
G1 X78.65 Y10.536 E72.24273
G1 X79.017 Y10.807 E72.26549
G1 X79.364 Y11.182 E72.29098
G1 X79.686 Y11.606 E72.31754
G1 X79.928 Y11.991 E72.34023
G1 X80.157 Y12.633 E72.37424
G1 X80.213 Y12.894 E72.38755
G1 X80.271 Y13.44 E72.41495
G1 X80.242 Y111.724 E77.31836
G1 X80.202 Y112.178 E77.34109
G1 X80.083 Y112.618 E77.36383
G1 X79.995 Y112.83 E77.37529
G1 X79.828 Y113.185 E77.39486
G1 X79.598 Y113.578 E77.41758
G1 X79.212 Y114.013 E77.44659
G1 X79.007 Y114.197 E77.46033
G1 X78.642 Y114.47 E77.48307
G1 X78.196 Y114.691 E77.50791
G1 X77.792 Y114.845 E77.52948
G1 X77.354 Y114.97 E77.5522
G1 X76.866 Y115.016 E77.57666
G1 X48.113 Y115.011 E79.01115
G1 X47.659 Y114.971 E79.03389
G1 X47.344 Y114.895 E79.05005
G1 X47.05 Y114.804 E79.06541
G1 X46.628 Y114.631 E79.08816
G1 X46.104 Y114.274 E79.11979
G1 X45.777 Y113.987 E79.1415
G1 X45.462 Y113.658 E79.16422
G1 X45.143 Y113.147 E79.19428
G1 X45.013 Y112.873 E79.20941
G1 X44.854 Y112.446 E79.23214
G1 X44.773 Y111.998 E79.25485
G1 X44.762 Y111.76 E79.26674
G1 X44.729 Y13.436 E84.17215
G1 X44.769 Y12.982 E84.19488
G1 X44.884 Y12.552 E84.21709
G0 F2100 X45.169 Y13.019
G1 F900 X45.26 Y12.688 E84.23422
G1 X45.437 Y12.198 E84.26021
G1 X45.616 Y11.819 E84.28112
G1 X45.864 Y11.481 E84.30203
G1 X46.223 Y11.158 E84.32613
G1 X46.655 Y10.848 E84.35266
G1 X47.018 Y10.637 E84.3736
G1 X47.413 Y10.499 E84.39448
G1 X47.935 Y10.435 E84.42072
G1 X76.877 Y10.392 E85.86464
G1 X77.294 Y10.431 E85.88553
G1 X77.683 Y10.544 E85.90574
G1 X78.096 Y10.706 E85.92788
G1 X78.47 Y10.895 E85.94878
G1 X78.801 Y11.152 E85.96969
G1 X79.045 Y11.423 E85.98788
G1 X79.367 Y11.847 E86.01444
G1 X79.588 Y12.204 E86.03539
G1 X79.766 Y12.716 E86.06244
G1 X79.822 Y12.977 E86.07575
G1 X79.871 Y13.44 E86.09898
G1 X79.842 Y111.724 E91.00239
G1 X79.802 Y112.141 E91.02329
G1 X79.633 Y112.659 E91.05047
G1 X79.466 Y113.014 E91.07005
G1 X79.252 Y113.375 E91.09098
G1 X78.945 Y113.715 E91.11384
G1 X78.74 Y113.899 E91.12758
G1 X78.402 Y114.148 E91.14853
G1 X78.054 Y114.318 E91.16785
G1 X77.65 Y114.472 E91.18942
G1 X77.246 Y114.583 E91.21032
G1 X76.866 Y114.616 E91.22935
G1 X48.113 Y114.611 E92.66384
G1 X47.695 Y114.571 E92.68479
G1 X47.462 Y114.513 E92.69677
G1 X47.168 Y114.422 E92.71213
G1 X46.782 Y114.26 E92.73301
G1 X46.368 Y113.973 E92.75814
G1 X46.041 Y113.686 E92.77985
G1 X45.754 Y113.381 E92.80074
G1 X45.504 Y112.976 E92.82449
G1 X45.374 Y112.702 E92.83962
G1 X45.232 Y112.308 E92.86051
G1 X45.162 Y111.76 E92.88808
G1 X45.129 Y13.436 E97.79348
G1 X45.169 Y13.019 E97.81438
G0 F2100 X45.569 Y13.059
G1 F900 X45.636 Y12.823 E97.82662
G1 X45.813 Y12.333 E97.85261
G1 X45.979 Y11.993 E97.87149
G1 X46.212 Y11.694 E97.8904
G1 X46.457 Y11.483 E97.90653
G1 X46.889 Y11.173 E97.93306
G1 X47.218 Y10.985 E97.95196
G1 X47.579 Y10.871 E97.97085
G1 X47.935 Y10.835 E97.9887
G1 X76.877 Y10.792 E99.43263
G1 X77.254 Y10.831 E99.45153
G1 X77.537 Y10.916 E99.46628
