;Header Start

;FLAVOR:Marlin
;TIME:6666
;Filament used: 0m
;Layer height: 0.15


;header_type: 3dp
;thumbnail: data:image/png;base64,iVBORw0KGgoAAAANSUhEUgAAASwAAACWCAYAAABkW7XSAAAPNElEQVR4Xu2dOY8UxxuHmyvwRzCXuSJyZHY5HVkiQmSIK0I2MaHtDEggBiEyAzmEDsxhYLm+ABGn4SMgtID569fonf+7RVd39ezM1tTs09Jorpqet5+qfuat6uqeFfPz818qFghAAAIFEFiBsAqoJUKEAARqAgiLhgABCBRDAGEVU1UECgEIICzaAAQgUAwBhFVMVREoBCCAsGgDEIBAMQQQVjFVRaAQgADCog1AAALFEEBYxVQVgUIAAgiLNgABCBRDAGEVU1UECgEIICzaAAQgUAwBhFVMVREoBCCAsGgDEIBAMQQQVjFVRaAQgADCog1AAALFEEBYxVQVgUIAAgiLNgABCBRDAGEVU1UECgEIICzaAAQgUAwBhFVMVREoBCCAsGgDEIBAMQQQVjFVRaAQgADCog1AAALFEEBYxVQVgUIAAgiLNgABCBRDAGEVU1UECgEIICzaAAQgUAwBhFVMVREoBCCAsGgDEIBAMQQQVjFVRaAQgADCog1AAALFEEBYxVQVgUIAAgiLNgABCBRDAGEVU1UECgEIICzaAAQgUAwBhFVMVREoBCCAsGgDEIBAMQQQVjFVRaAQgADCog1AAALFEEBYxVQVgUIAAgiLNgABCBRDAGEVU1UECgEIICzaAAQgUAwBhFVMVREoBCCAsGgDEIBAMQQQVjFVRaAQgADCog1AAALFEEBYxVQVgUIAAgiLNgABCBRDAGEVU1UECgEIICzaAAQgUAwBhFVMVREoBCCAsGgDEIBAMQQQVjFVRaAQgADCog1AAALFEEBYxVQVgUIAAgiLNjAyAvfu3Wtd1549e0b2XaxoeRJAWMuz3ju32uTzzz//VJs3b67L617PV6xYUd9v3bp1sB69pmXLli31+355/vx5/fTLly8L7vVk/fr1g9f1/MWLF5UX24YNGxasSzHoMyzLkwDCmoJ678pstIn//vtvZeIwsZhA3rx5U1MI5eTReAnZ4677EG2TsLzIUqpCQgsXbdfevXsbJWny0+fCMmR8KcQnqwzCmqz6WBCNz3I2bdpUvye5SBT2njIaLXrNZzdhlhOKQfLQ7b///luQ4cRwTIqwbFub4rQYTYxhVmevS17+scT18uXLepV6vHHjxsHqkdpk7SAIK2N9hEJShiMx2et6bN0xv6Nqx2zKbppe95sX7sjLVVgxoRkre98kJsGZxJSlIbR8Ow3CGjP7UEqvXr1aICTLnCyMMDPqymy8uBDW17GzrgwrVVihwPxzk5nq0wSme+t2kpmNZ8dCWCPiKjEpQ9KiRvz69ev6sYT0ww8/fDMQ3dRla+rujFJYTV0kdQnDnbytuxVmem3Pw/WMYgwr1iVs6g7GuoSjEFaTzMLMzMqo/hHZaHY0hDUERy8n/dJKUGqUklOTYLpE5EMYZ4aFsL49StkkUS+0WMbWJqxwnXquNqL7+/fv1+1EAtONTKzfDoiwEniZoJRBff78uf7E7t27azmFt6aMY9TCsvWFXcCuLiHCyicsO8hh44bKwOfm5uqjt5LW77//jrwS9kWE1QLp7NmzlW5afvzxx2pmZqZauXLl4DYOYbXJLczeRiEsvyO1tZeurmlM1H6dJXYJ27KtWPblt9P4WlkTlrriuukH8NGjR9XTp08RF8JKIBApoq7e9u3b63fXrl1bHTp0qFq9enWrsHzmY6sNj+aFrzd9faxbOEnC0uRNxeMnccbG5cJtVFbhu1T+eUqNNX1P25QGL4swy/RxdD0OBdW1Lv9jEGZYei5ZSVqfPn2qLl26VH+9sq2//vorBcOyLEOG1VLt586dq+c93b17t/r48WO9g87OztZHhZRpxbqDbdlIKcLSDHMvI23zUswwD+Vlz/3r4huWG5Ww+mRUoxDWw4cPqydPntTNQmNaR44cqY4dO7YsZZSy0QirhZK6g6tWrRoMpCvrunPnTj2Aqh1a41j+CKAXWO4MKyYX2yHXrVtXh2jPVT48DSalAU1CGckrFJYXmh5bhmOPw2wptbsaE1rbVIow03rw4EEdj2S1b9++gaz0murlxIkTk4B1ImNAWD2EZY1cp4Jcu3at/qSEdfjw4cZsS++Pskto831MLFq3PV6K7GciW/CQQdnpSHZv01Dsvql7uNguoY4QSlaWTUlWXrQSln4Ew1OIhtzEqfwYwmqp1qtXr1Zv375dMFVBjer27duDyZ87duyo9u/fX49vjSrDkpj8ZESFWGr2U+Je4yUWimyYDEtHmSUrLRKS2os/YGIi1LrVJdSPIEszAYTV0jKsoWm8Sou6gxrP0qKjhlokLMnqu+++axWWz7bssReThORP+aDBTh4BLy97rOEBn3mFXcP5+fnqwoULg43RoLplVn6s044eHj16FGG1VD3CaoGjeVdK4XUfimrnzp2Dk4dThKVfTZ81IafJE9KwEUlednaDnbJjEpOwPnz4UN24cWNwoEBtQdLyp2XZUUMJKzxda9i4pvFzCKulVk+ePFldv359UEJZlW5+3EGHpUNhqUFaWs9M5mncbdq3ybIu/dDp6PKzZ8/qo8rv3r2r51zZAQEvLhOWJpCyxAkgrAY26gr+/PPPg3c0D+vgwYODI4Y+lddcGj0/cODA4LxBGhwEjIDmVP39998LjjZLWKG47DQdZVgsCKtXG/Az3PVBE5bNcvfCUoalFP7UqVO9voPCy4OAhHXr1q3BvD3bamVUGtx//PhxfWBHi4YJrly5wik6jGH12zk0XvXrr7/W4xK2aHBd3UGbMGqv2+kVfmC137dRepoJXLx4sW5HYbuxQXZl6Crjl/fv308zkkVtG13CBnwaONXYlQZT1T30A6mSluY82bwnOyfs/Pnzi6oIPjydBGLCsnajLOvmzZsLNl5ZGWOfze0BYbUIy7qAEpYdJTR5SVialazb999/X/3yyy/Vtm3bpnOvY6uGJqBzBNVmfIZlM981jmWn5dgXSFSXL1/mSGGEOMKKgDlz5sw3g+wau7JuouZk+T9EUEPjGkdD79dT+8HTp09Xa9asGczRk6S02L0e20Ue1X7UReRIYbw5IKwWYYWD7E0z2S3j0ux3LSYxS+lNYnqPNH9qvdS4YRpO+O233+ofPg2u++Wnn36q5/Fp1rs/1xBhtbcRhBXh8+eff9bzZXwq33bqjVZjRw9NWrr3j33ar8deZgitHJn5v1Wzy2Irensc/u2a/kjE/kzERKXy4UnRGtfSGQ9crYEMq/fesBhh2Zc1XWbGBKYTqH2X0v9noM/EkFrvqlvwgVAeXjDhmmPvxf730f5iTevRYzstx16XpMKrQDRd0M9ek7A0Nnr8+PHFbfQUf5oMK1K5arw6YXWYDKtJWD4Da/pKk5sXlz1uElsoNcvYwixuGtuu/yci275YduOlYmKJ1UVY1rOz98KTn61M1+Vp/PsxaSGs7taKsCKMdFRQ5xFKJHbyc2qXcDHC6q6yryWGEZuX2qT9C3KThGLdLJ/BGK8w2+m6+mnX+7F6WIywQmnpO3y3UMLatWvX4BpZqW1hOZVDWC3CsgwrFJb/hW7q9vlVdr0fk9uoGqEXm4lOMTW97r8zdoBgmGs1NXW1wm6WF47/81h7vS37actYYxwnUVgacOdqDe0tH2FF+NjkUTtSaJIKL8jXJaSu98ctrGF2Zp/BhTt2KLpUsfoxHn2mTUCxLCb1u/wPyiQLy2dcNpFU18Piag3xmkZYLXuBzcXyGVZMXLGdpFRhjUOkqSJKLdcmsK4Mquv9pegSNh0lRFhkWH1+mBeUjU0e9VeL7BJS1/vjEEPXBvfZWfuU7freVBGllitFWLEjhaGwmIPV1YKqigyrI8NKmTwadhP9KhHW/2mkiii1XInCajpaaOLS33398ccf3XvtMi6BsFoqf9RTG9qylVFmMl3tuc939Snb9b2pIkotN6ywht2mtriapjX0nYPFpNGuFkSG1UlIR7NseoMfv4plTuHOQIY1eRnWpAqLSaOduyNdwm5EVX2ZGUlL94uZi0WG9SUF92B2eFLhSKFxsB53hsU/5nTXOF3CbkaDEiYu7QzhPxHHBs8nMcOyTDF104fNSML1p3T1UsqkxD3Jwmoax9KEUU6O765ZhNXNqLGELrw2NzdXX+a2TUptXcTY4PyQIfX6WB8J9SnbFkSKjFLKpGzoUgor5bSc2Cx3iUo3ljQCCCuNU2spSUs3ZV0+82rKZMaxIw2zCX0k1Kcswvp2zC48d1BjVRpgR1T9Wy7C6s+s8xOSlpfYJHYL+0ioT1mE1SysmZmZemxudna2s/1QIE4AYS1B67Csy2dgYSbWd1xpsWH3kVCfspMgrK54u96PbUPqic92zX+VVyZl1/9fbJ3xeaY1ZG0DocjCwfxxBtdnp+1TdtqFpWv42+JFpNcR0zhb7Nd1k2GNn/FQ3+BlZv9bpxU1ZWbDfEEfCfUpO4nCiknGx9okG/+5YRjzmdETQFijZzr2NXpp6fEwQusjoT5ll1JYJplQSIoX2Yy9GWb5AoSVBft4vzRFaH0k1KfsKIUVExJdr/G2n0leO8Ka5NoZY2yxrCzscqrcqIUV66JJRBqoRkhjrPjCV42wCq/ApQ7fiy7lu+mapVCiTCoBhJVKinIQgEB2AggrexUQAAQgkEoAYaWSohwEIJCdAMLKXgUEAAEIpBJAWKmkKAcBCGQngLCyVwEBQAACqQQQViopykEAAtkJIKzsVUAAEIBAKgGElUqKchCAQHYCCCt7FRAABCCQSgBhpZKiHAQgkJ0AwspeBQQAAQikEkBYqaQoBwEIZCeAsLJXAQFAAAKpBBBWKinKQQAC2QkgrOxVQAAQgEAqAYSVSopyEIBAdgIIK3sVEAAEIJBKAGGlkqIcBCCQnQDCyl4FBAABCKQSQFippCgHAQhkJ4CwslcBAUAAAqkEEFYqKcpBAALZCSCs7FVAABCAQCoBhJVKinIQgEB2AggrexUQAAQgkEoAYaWSohwEIJCdAMLKXgUEAAEIpBJAWKmkKAcBCGQngLCyVwEBQAACqQQQViopykEAAtkJIKzsVUAAEIBAKgGElUqKchCAQHYCCCt7FRAABCCQSgBhpZKiHAQgkJ0AwspeBQQAAQikEkBYqaQoBwEIZCeAsLJXAQFAAAKpBBBWKinKQQAC2QkgrOxVQAAQgEAqAYSVSopyEIBAdgIIK3sVEAAEIJBKAGGlkqIcBCCQnQDCyl4FBAABCKQS+B9QWooaOuk0wgAAAABJRU5ErkJggg==
;file_total_lines: 104698
;estimated_time(s): 6537.700000000001
;nozzle_temperature(°C): 222
;build_plate_temperature(°C): 65
;work_speed(mm/minute): 1800
;max_x(mm): 51.59673309326172
;max_y(mm): 49.98863983154297
;max_z(mm): 10.545613288879395
;min_x(mm): -51.59673309326172
;min_y(mm): -49.98863983154297
;min_z(mm): 0

;Header End

; G-code for 3dp engraving
; Generated by Snapmaker Luban 3.15.0
; Sun Jul 18 2021 20:54:3

M82 ;absolute extrusion mode
;Start GCode begin
M104 S222
M140 S65
G28 ;home
G90 ;absolute positioning
G1 X-10 Y-10 F3000
G1 Z0 F1800
M109 S222;Wait for Hotend Temperature
M190 S65;Wait for Bed Temperature
G92 E0
G1 E20 F200
G92 E0
;Start GCode end
G92 E0
G1 F1500 E-6.5
;LAYER_COUNT:70
;LAYER:0
M107
;MESH:/Users/x/Library/Application Support/snapmaker-luban/Tmp/octocandle_54328018.stl
G0 F1200 X20.039 Y53.416 Z0.3
;TYPE:WALL-INNER
G1 F1500 E0
G1 F1080 X20.349 Y52.266 E0.05942
G1 X20.511 Y51.081 E0.11909
G1 X20.549 Y49.874 E0.17934
G1 X20.503 Y48.655 E0.2402
G1 X20.391 Y47.425 E0.30182
G1 X20.242 Y46.193 E0.36373
G1 X20.081 Y44.961 E0.42572
G1 X19.929 Y43.735 E0.48735
G1 X19.809 Y42.529 E0.54782
G1 X19.734 Y41.342 E0.60715
G1 X19.723 Y40.174 E0.66543
G1 X19.789 Y39.038 E0.7222
G1 X19.946 Y37.946 E0.77724
G1 X20.205 Y36.858 E0.83304
G1 X20.558 Y35.808 E0.8883
G1 X20.994 Y34.784 E0.94383
G1 X21.516 Y33.773 E1.00059
G1 X22.107 Y32.787 E1.05794
G1 X22.753 Y31.84 E1.11514
G1 X23.464 Y30.908 E1.17362
G1 X24.226 Y29.998 E1.23283
G1 X25.012 Y29.135 E1.29107
G1 X25.854 Y28.279 E1.35097
G1 X26.715 Y27.462 E1.41019
G1 X27.581 Y26.69 E1.46807
G1 X28.475 Y25.942 E1.52623
G1 X29.362 Y25.237 E1.58275
G1 X30.258 Y24.566 E1.6386
G1 X31.16 Y23.925 E1.69381
G1 X32.026 Y23.344 E1.74583
G1 X32.899 Y22.792 E1.79736
G1 X33.779 Y22.268 E1.84846
G1 X34.646 Y21.784 E1.898
G1 X35.544 Y21.313 E1.94859
G1 X36.444 Y20.867 E1.9987
G1 X37.381 Y20.429 E2.0503
G1 X38.356 Y19.995 E2.10355
G1 X39.38 Y19.555 E2.15915
G1 X40.452 Y19.108 E2.2171
G1 X45.487 Y17.071 E2.48807
G1 X46.935 Y16.501 E2.56571
G1 X48.459 Y15.923 E2.64703
G1 X50.014 Y15.365 E2.72945
G1 X51.629 Y14.83 E2.81433
G1 X53.255 Y14.342 E2.89903
G1 X54.908 Y13.911 E2.98425
G1 X56.564 Y13.558 E3.06873
G1 X58.217 Y13.296 E3.15222
G1 X59.823 Y13.143 E3.23271
G1 X61.412 Y13.112 E3.312
G1 X62.957 Y13.214 E3.38925
G1 X64.475 Y13.437 E3.4658
G1 X65.951 Y13.759 E3.54117
G1 X67.39 Y14.159 E3.61568
G1 X68.806 Y14.623 E3.69002
G1 X70.208 Y15.133 E3.76445
G1 X71.578 Y15.664 E3.83775
G1 X74.244 Y16.717 E3.98076
G1 X75.549 Y17.203 E4.05024
G1 X76.834 Y17.636 E4.11789
G1 X78.1 Y18 E4.18361
G1 X79.344 Y18.292 E4.24736
G1 X80.56 Y18.528 E4.30916
G1 X81.75 Y18.722 E4.36931
G1 X82.914 Y18.891 E4.42799
G1 X85.167 Y19.205 E4.54148
G1 X86.265 Y19.377 E4.59693
G1 X87.353 Y19.575 E4.6521
G1 X88.401 Y19.805 E4.70563
G1 X89.438 Y20.082 E4.75918
G1 X90.456 Y20.41 E4.81254
G1 X91.465 Y20.804 E4.86658
G1 X92.467 Y21.266 E4.92163
G1 X93.461 Y21.794 E4.97778
G1 X94.421 Y22.375 E5.03376
G1 X95.37 Y23.018 E5.09095
G1 X96.287 Y23.706 E5.14815
G1 X97.203 Y24.468 E5.20759
G1 X98.04 Y25.235 E5.26423
G1 X98.871 Y26.076 E5.32321
G1 X99.639 Y26.939 E5.38085
G1 X100.345 Y27.827 E5.43745
G1 X100.999 Y28.757 E5.49417
G1 X101.583 Y29.712 E5.55002
G1 X102.083 Y30.673 E5.60406
G1 X102.505 Y31.671 E5.65812
G1 X102.833 Y32.682 E5.71115
G1 X103.061 Y33.699 E5.76315
G1 X103.187 Y34.764 E5.81665
G1 X103.218 Y35.827 E5.86971
G1 X103.169 Y36.954 E5.92599
G1 X103.058 Y38.065 E5.98169
G1 X102.894 Y39.233 E6.04053
G1 X102.511 Y41.636 E6.16193
G1 X102.338 Y42.868 E6.224
G1 X102.213 Y44.123 E6.28692
G1 X102.164 Y45.396 E6.35048
G1 X102.219 Y46.689 E6.41505
G1 X102.415 Y47.997 E6.48103
G1 X102.784 Y49.308 E6.54898
G1 X103.325 Y50.608 E6.61923
G1 X103.821 Y51.537 E6.67177
G1 X104.01 Y51.892 E6.69183
G1 X104.49 Y52.655 E6.7368
G1 X104.81 Y53.165 E6.76684
G1 X105.291 Y53.848 E6.80852
G1 X105.699 Y54.428 E6.8439
G1 X106.172 Y55.053 E6.883
G1 X106.649 Y55.683 E6.92243
G1 X108.058 Y57.473 E7.03608
G1 X108.611 Y58.176 E7.0807
G1 X109.003 Y58.685 E7.11275
G1 X109.562 Y59.41 E7.15843
G1 X109.92 Y59.904 E7.18886
G1 X110.471 Y60.663 E7.23566
G1 X110.778 Y61.13 E7.26354
G1 X111.275 Y61.886 E7.30868
G1 X111.551 Y62.375 E7.33669
G1 X111.715 Y62.666 E7.35335
G1 X111.957 Y63.095 E7.37793
G1 X112.51 Y64.313 E7.44466
G1 X112.932 Y65.535 E7.50916
G1 X113.225 Y66.729 E7.5705
G1 X113.41 Y67.929 E7.63107
G1 X113.495 Y69.153 E7.69229
G1 X113.484 Y70.336 E7.75131
G1 X113.388 Y71.507 E7.80993
G1 X113.214 Y72.679 E7.86904
G1 X112.975 Y73.819 E7.92715
G1 X112.681 Y74.92 E7.98401
G1 X112.334 Y76.014 E8.04126
G1 X111.942 Y77.09 E8.0984
G1 X111.522 Y78.114 E8.15362
G1 X111.066 Y79.12 E8.20872
G1 X110.574 Y80.107 E8.26374
G1 X110.053 Y81.075 E8.31859
G1 X109.494 Y82.038 E8.37414
G1 X108.916 Y82.973 E8.42898
G1 X108.307 Y83.909 E8.48469
G1 X107.669 Y84.841 E8.54104
G1 X107.002 Y85.775 E8.5983
G1 X106.316 Y86.7 E8.65575
G1 X105.604 Y87.632 E8.71427
G1 X104.874 Y88.562 E8.77325
G1 X104.114 Y89.505 E8.83367
G1 X103.344 Y90.435 E8.89391
G1 X102.55 Y91.367 E8.955
G1 X101.735 Y92.297 E9.01669
G1 X100.912 Y93.205 E9.07783
G1 X100.069 Y94.102 E9.13924
G1 X99.21 Y94.981 E9.20056
G1 X98.341 Y95.838 E9.26145
G1 X97.473 Y96.656 E9.32095
G1 X96.582 Y97.458 E9.38076
G1 X95.712 Y98.2 E9.43781
G1 X94.826 Y98.915 E9.49461
G1 X93.942 Y99.586 E9.54998
G1 X93.087 Y100.19 E9.6022
G1 X92.208 Y100.76 E9.65447
G1 X91.387 Y101.246 E9.70207
G1 X90.555 Y101.685 E9.749
G1 X89.747 Y102.061 E9.79346
G1 X88.943 Y102.392 E9.83684
G1 X88.141 Y102.686 E9.87946
G1 X87.309 Y102.962 E9.92319
G1 X84.67 Y103.765 E10.06081
G1 X83.698 Y104.076 E10.11172
G1 X82.663 Y104.433 E10.16635
G1 X81.555 Y104.854 E10.22548
G1 X80.366 Y105.354 E10.28983
G1 X79.085 Y105.951 E10.36034
G1 X77.717 Y106.634 E10.43662
G1 X74.754 Y108.161 E10.60292
G1 X73.189 Y108.939 E10.69012
G1 X71.566 Y109.691 E10.77936
G1 X69.913 Y110.381 E10.86872
G1 X68.242 Y110.976 E10.95722
G1 X66.559 Y111.448 E11.04442
G1 X64.857 Y111.765 E11.1308
G1 X63.213 Y111.888 E11.21305
G1 X61.615 Y111.794 E11.29291
G1 X60.024 Y111.467 E11.37394
G1 X58.457 Y110.926 E11.45665
G1 X56.915 Y110.205 E11.54157
G1 X56.555 Y109.999 E11.56227
G1 X56.34 Y109.876 E11.57462
G1 X55.408 Y109.344 E11.62816
G1 X54.813 Y108.953 E11.66368
G1 X53.928 Y108.37 E11.71656
G1 X53.349 Y107.951 E11.75221
G1 X52.514 Y107.347 E11.80363
G1 X51.941 Y106.907 E11.83967
G1 X51.141 Y106.294 E11.88995
G1 X50.587 Y105.859 E11.92509
G1 X48.568 Y104.27 E12.05328
G1 X48.052 Y103.884 E12.08543
G1 X47.366 Y103.369 E12.12822
G1 X46.881 Y103.038 E12.15752
G1 X46.223 Y102.589 E12.19726
G1 X45.795 Y102.342 E12.22191
G1 X45.62 Y102.241 E12.23199
G1 X45.139 Y101.963 E12.25971
G1 X44.113 Y101.497 E12.31593
G1 X43.144 Y101.172 E12.36692
G1 X42.229 Y100.963 E12.41374
G1 X41.363 Y100.841 E12.45738
G1 X40.537 Y100.779 E12.4987
G1 X39.75 Y100.75 E12.53799
G1 X38.994 Y100.732 E12.57572
G1 X38.244 Y100.704 E12.61316
G1 X37.525 Y100.649 E12.64914
G1 X36.793 Y100.545 E12.68603
G1 X36.072 Y100.383 E12.72289
G1 X35.308 Y100.14 E12.76289
G1 X34.532 Y99.814 E12.80488
G1 X33.722 Y99.4 E12.85027
G1 X32.89 Y98.905 E12.89857
G1 X32.029 Y98.331 E12.95019
G1 X31.188 Y97.712 E13.00229
G1 X30.315 Y97.017 E13.05796
G1 X29.435 Y96.269 E13.11558
G1 X28.576 Y95.491 E13.1734
G1 X27.696 Y94.654 E13.23399
G1 X26.837 Y93.799 E13.29446
G1 X25.976 Y92.907 E13.35631
G1 X25.128 Y91.997 E13.41837
G1 X24.29 Y91.07 E13.48071
G1 X23.464 Y90.131 E13.5431
G1 X22.649 Y89.185 E13.6054
G1 X21.849 Y88.239 E13.66721
G1 X20.279 Y86.338 E13.79021
G1 X19.522 Y85.394 E13.85058
G1 X18.782 Y84.447 E13.91054
G1 X18.063 Y83.502 E13.96978
G1 X17.361 Y82.546 E14.02896
G1 X16.685 Y81.584 E14.08761
G1 X16.034 Y80.615 E14.14586
G1 X15.414 Y79.636 E14.20367
G1 X14.824 Y78.643 E14.26129
G1 X14.273 Y77.645 E14.31817
G1 X13.749 Y76.61 E14.37605
G1 X13.26 Y75.55 E14.43429
G1 X12.825 Y74.494 E14.49126
G1 X12.428 Y73.386 E14.54998
G1 X12.098 Y72.294 E14.6069
G1 X11.833 Y71.199 E14.6631
G1 X11.639 Y70.089 E14.71932
G1 X11.529 Y69.006 E14.77363
G1 X11.504 Y67.936 E14.82703
G1 X11.577 Y66.869 E14.88039
G1 X11.749 Y65.855 E14.9317
G1 X12.036 Y64.854 E14.98365
G1 X12.439 Y63.894 E15.03559
G1 X12.718 Y63.398 E15.06398
G1 X12.837 Y63.186 E15.07611
G1 X12.96 Y62.968 E15.0886
G1 X13.494 Y62.199 E15.13531
G1 X13.585 Y62.069 E15.14323
G1 X14.225 Y61.266 E15.19446
G1 X14.31 Y61.16 E15.20123
G1 X15.001 Y60.367 E15.25371
G1 X15.103 Y60.25 E15.26145
G1 X15.798 Y59.481 E15.31317
G1 X16.739 Y58.438 E15.38325
G1 X17.369 Y57.708 E15.43136
G1 X17.542 Y57.508 E15.44455
G1 X18.091 Y56.815 E15.48866
G1 X18.301 Y56.55 E15.50553
G1 X18.741 Y55.913 E15.54415
G1 X18.988 Y55.555 E15.56585
G1 X19.292 Y55.015 E15.59677
G1 X19.456 Y54.724 E15.61343
G1 X19.575 Y54.513 E15.62552
G1 X20.039 Y53.416 E15.68494
G0 F1200 X20.133 Y53.448
G0 X18.956 Y56.057
G0 X15.097 Y60.451
G0 X13.694 Y62.341
G0 X13.127 Y63.351
G0 X12.683 Y64.407
G0 X12.366 Y65.496
G0 X12.168 Y66.609
G0 X12.081 Y67.74
G0 X12.095 Y68.88
G0 X12.202 Y70.023
G0 X12.656 Y72.304
G0 X13.376 Y74.54
G0 X14.298 Y76.697
G0 X15.376 Y78.754
G0 X17.224 Y81.685
G0 X19.297 Y84.497
G0 X22.321 Y88.156
G0 X25.546 Y91.738
G0 X28.062 Y94.262
G0 X30.62 Y96.488
G0 X32.324 Y97.73
G0 X34.009 Y98.72
G0 X35.653 Y99.402
G0 X37.227 Y99.771
G0 X44.97 Y101.398
G0 X53.491 Y107.756
G0 X54.971 Y108.716
G0 X56.509 Y109.582
G0 X58.104 Y110.316
G0 X59.44 Y110.769
G0 X61.445 Y111.282
G0 X61.457 Y111.183
G1 F1080 X63.183 Y111.283 E15.7712
G1 X64.918 Y111.163 E15.85796
G1 X66.647 Y110.852 E15.94561
G1 X68.36 Y110.386 E16.03418
G1 X70.048 Y109.798 E16.12335
G1 X71.701 Y109.12 E16.21249
G1 X73.309 Y108.381 E16.30078
G1 X74.864 Y107.612 E16.38733
G1 X79.101 Y105.411 E16.62553
G1 X80.344 Y104.799 E16.69465
G1 X81.476 Y104.287 E16.75664
G1 X82.554 Y103.841 E16.81484
G1 X83.553 Y103.463 E16.86813
G1 X84.486 Y103.135 E16.91747
G1 X87.094 Y102.276 E17.05446
G1 X87.916 Y101.991 E17.09786
G1 X88.728 Y101.689 E17.14109
G1 X89.539 Y101.358 E17.18479
G1 X90.352 Y100.985 E17.22941
G1 X91.17 Y100.566 E17.27527
G1 X92 Y100.092 E17.32295
G1 X92.841 Y99.561 E17.37257
G1 X93.691 Y98.977 E17.42402
G1 X94.546 Y98.342 E17.47716
G1 X95.403 Y97.663 E17.53171
G1 X96.26 Y96.944 E17.58752
G1 X97.115 Y96.189 E17.64442
G1 X97.966 Y95.401 E17.70229
G1 X98.808 Y94.586 E17.76075
G1 X99.64 Y93.748 E17.81966
G1 X100.46 Y92.89 E17.87887
G1 X101.269 Y92.017 E17.93825
G1 X102.061 Y91.131 E17.99754
G1 X102.839 Y90.239 E18.05659
G1 X103.596 Y89.343 E18.11511
G1 X104.337 Y88.446 E18.17316
G1 X105.059 Y87.548 E18.23065
G1 X105.76 Y86.648 E18.28756
G1 X106.437 Y85.745 E18.34387
G1 X107.093 Y84.836 E18.39979
G1 X107.723 Y83.921 E18.45522
G1 X108.329 Y82.996 E18.51039
