;Header Start

;FLAVOR:Marlin
;TIME:6666
;Filament used: 0m
;Layer height: 0.15


;header_type: 3dp
;thumbnail: data:image/png;base64,iVBORw0KGgoAAAANSUhEUgAAASwAAACWCAYAAABkW7XSAAAIUElEQVR4Xu3dvYoUSxQH8F6ETRQfQA3ETIwEI/EDwcDHMDIyMBRMXRCMTFfwSTRRE0HMDBXBD/AJBEH2UgMtfcfZ3ZnTvVt9it/AgLu3q+vMr878qRrXvVu/f//e6zwIECCQQGBLYCVYJSUSILAQEFgagQCBNAICK81SKZQAAYGlBwgQSCMgsNIslUIJEBBYeoAAgTQCAivNUimUAAGBpQcIEEgjILDSLJVCCRAQWHqAAIE0AgIrzVIplAABgaUHCBBIIyCw0iyVQgkQEFh6gACBNAICK81SKZQAAYGlBwgQSCMgsNIslUIJEBBYeoAAgTQCAivNUimUAAGBpQcIEEgjILDSLJVCCRAQWHqAAIE0AgIrzVIplAABgaUHCBBIIyCw0iyVQgkQEFh6gACBNAICK81SKZQAAYGlBwgQSCMgsNIslUIJEBBYeoAAgTQCAivNUimUAAGBpQcIEEgjILDSLJVCCRAQWHqAAIE0AgIrzVIplAABgaUHCBBIIyCw0iyVQgkQEFh6gACBNAICK81SKZQAAYGlBwgQSCMgsNIslUIJEBBYeoAAgTQCAivNUimUAAGBpQcIEEgjILDSLJVCCRAQWHqAAIE0AgIrzVIplAABgaUHCBBIIyCw0iyVQgkQEFh6gACBNAICK81SKZQAAYGlBwgQSCMgsNIslUIJEBBYeoAAgTQCAivNUimUAAGBpQcIEEgjILDSLJVCCRAQWHqAAIE0AgIrzVIplAABgaUHCBBIIyCw0iyVQgkQEFh6gACBNAICK81SKZQAAYGlBwgQSCMgsNIslUIJEBBYeoAAgTQCAivNUimUAAGBpQcIEEgjILDSLJVCCRAQWHrgr8Dr16//p/HmzZsDdZav34Tyxo0bKy+/fv36P98/d+5cd+HChU1u79pGBQRWowv76dOn7vv374tXNwyeYciMCZyabMth1389DLv9ArFm3eYeLyCwxhtWuUMfNn0Y9V9PHUJld7P8OHv27OjX3Ifp8o2+ffs2+t7DG/TBtRxqAm1S5mO7mcA6NurYRCWAhqE0NpD6sBmGzjCU+u9vbW2tLHi/78deXdft7e2tHNp/fznYSqANv7df8K1TzzC0Hj16tBgiyNaRq3eNwKpn/8/MOzs7i++VUIoG05kzZ7phGJWvh4E0DJyDwmcugbVqeYYhNwy2/s8/fvz4G2rlz5FHCa7y7I+ZgiyiOP2YZgOrf/NPTzb9HR8/fjz6pleuXFnc47Ad0GH/vS9k3etGF37ADfbbfQ2HrHNNvwuLhlc/Xx9iR/map7p3CdoWQ7a5wCpBNUUATNU47kOglkAJrHLUbSm4mgmsly9fCqpa7wzzzlrg7t27XXm28GgmsB4+fNjCengNBI5E4MmTJ0dy3+O+aROB9fnz5253d/e47cxHII3A7du3u/LM/mgisEpYldDyIEBgtUD5lwL37t1Lz5M+sOyu0vegF3BMAi0cC9MHVvmwvTw9CBA4WKCFY2H6wHIc9DYlsL5A9l1W6sByHFy/UV1JoAiUz7Ey/+aL1IFld+VNSGAzgezHwtSB5WevNmtWVxMoApmPhWkDy3HQm49ATCDzLittYLV6HCyfL5Rn/3Nlfr4s9qYcM2r4GU+L/gJrTHcEx7Z4HFzVSH5sI9gggWGr/FvdyWc9FqbcYbXYRL9+/eqePXu28m0mtALps+GQg3Yd9+/f706dOrXhHed9edZdVsrAavE4+OXLl+7OnTsr/1V9iwE9t7fzfn/d//z58+7Vq1fd+fPn51byqHoE1ii+zQa3eBwsofTx48fu4sWL3YMHD7pr164tUJ4+fdpdvnzZT/Nv1iIbX33y5Mnu1q1bf93fvn3bvXv3rnvx4kV38+bN7vTp0xvfc+4DMh4L0+2wWt5t/Pz5s/vw4cPiA/c/f/50J06c6K5evboILI+jF3j//n339evXxbO3397e7i5dunT0k1eYIeMuK11gtXgcrNCrpiSw+NvobL/BIVVgtby78v4hUEMg27FQYNXoEnMSmIlAtmNhqsByHJxJlyujKYFMu6w0geU42NR7xIuZkUCm3+CQJrDsrmbU4UppSiDTsVBgNdV6XgyBmECWY2GKwHIcjDWhUQTWFciyy0oRWI6D67ad6wjEBARWzG3lqBb/Kc6EPG5FYBKBDMfC2e+wHAcn6UU3IXCoQIZd1uwDy3Hw0D5zAYFJBATWBIyOgxMgugWBNQXmfiyc9Q7LcXDNLnMZgYkE5r7LmnVgOQ5O1IVuQ2BNAYG1JtTyZXZXQTjDCIwUmPOxcLY7LIE1susMJxAUmPMua7aB5X+8EOw2wwiMFJjzL/YTWCMX13ACrQnM+bc3zDawHAlbext4PVkEBFZwpfwMVhDOMAIjBHzoHsQTWEE4wwgEBeb8+VV5SbM9Epbi/BxWsOsMIxAUEFhBuDKsfI5Vnh4ECByPQAms8pzrY9Y7rLmiqYsAgToCAquOu1kJEAgICKwAmiEECNQREFh13M1KgEBAQGAF0AwhQKCOgMCq425WAgQCAgIrgGYIAQJ1BARWHXezEiAQEBBYATRDCBCoIyCw6riblQCBgIDACqAZQoBAHQGBVcfdrAQIBAQEVgDNEAIE6ggIrDruZiVAICAgsAJohhAgUEdAYNVxNysBAgEBgRVAM4QAgToCAquOu1kJEAgICKwAmiEECNQREFh13M1KgEBAQGAF0AwhQKCOgMCq425WAgQCAgIrgGYIAQJ1BARWHXezEiAQEBBYATRDCBCoIyCw6riblQCBgIDACqAZQoBAHQGBVcfdrAQIBAQEVgDNEAIE6ggIrDruZiVAICAgsAJohhAgUEdAYNVxNysBAgGB/wB8NQmxSpn/uQAAAABJRU5ErkJggg==
;file_total_lines: 123974
;estimated_time(s): 29450.68
;nozzle_temperature(°C): 220
;build_plate_temperature(°C): 65
;work_speed(mm/minute): 1800
;max_x(mm): 56.99999999999999
;max_y(mm): 59.37499999999999
;max_z(mm): 28.5
;min_x(mm): -56.99999999999999
;min_y(mm): -59.37499999999999
;min_z(mm): 1.7763568394002505e-15

;Header End

; G-code for 3dp engraving
; Generated by Snapmaker Luban 3.15.0
; Mon Oct 04 2021 3:52:45

M82 ;absolute extrusion mode
;Start GCode begin
M104 S220
M140 S65
G28 ;home
G90 ;absolute positioning
G1 X-10 Y-10 F3000
G1 Z0 F1800
M109 S220;Wait for Hotend Temperature
M190 S65;Wait for Bed Temperature
G92 E0
G1 E20 F200
G92 E0
;Start GCode end
G92 E0
G1 F1500 E-6.5
;LAYER_COUNT:190
;LAYER:0
M107
;MESH:/Users/x/Library/Application Support/snapmaker-luban/Tmp/PlantHanger2_52599007.stl
G0 F1200 X33.583 Y29.331 Z0.3
;TYPE:WALL-INNER
G1 F1500 E0
G1 F1080 X31.225 Y31.389 E0.15615
G1 X29.014 Y33.6 E0.31214
G1 X26.956 Y35.958 E0.46829
G1 X25.067 Y38.452 E0.62438
G1 X23.35 Y41.067 E0.78045
G1 X21.817 Y43.795 E0.93657
G1 X20.473 Y46.62 E1.09264
G1 X19.325 Y49.531 E1.24876
G1 X18.379 Y52.513 E1.40484
G1 X17.638 Y55.553 E1.56095
G1 X17.107 Y58.636 E1.71702
G1 X16.786 Y61.748 E1.8731
G1 X16.68 Y64.875 E2.0292
G1 X16.786 Y68.002 E2.1853
G1 X17.107 Y71.114 E2.34138
G1 X17.638 Y74.197 E2.49746
G1 X18.379 Y77.237 E2.65356
G1 X19.325 Y80.219 E2.80964
G1 X20.473 Y83.13 E2.96576
G1 X21.817 Y85.955 E3.12183
G1 X23.35 Y88.683 E3.27795
G1 X25.067 Y91.298 E3.43402
G1 X26.956 Y93.792 E3.59011
G1 X29.014 Y96.15 E3.74626
G1 X31.225 Y98.361 E3.90226
G1 X33.583 Y100.419 E4.0584
G1 X36.077 Y102.308 E4.21449
G1 X38.692 Y104.025 E4.37056
G1 X41.42 Y105.558 E4.52668
G1 X44.245 Y106.902 E4.68276
G1 X47.156 Y108.05 E4.83887
G1 X50.138 Y108.996 E4.99495
G1 X53.178 Y109.737 E5.15106
G1 X56.261 Y110.268 E5.30713
G1 X59.373 Y110.589 E5.46322
G1 X62.5 Y110.695 E5.61931
G1 X65.627 Y110.589 E5.77541
G1 X68.739 Y110.268 E5.93149
G1 X71.822 Y109.737 E6.08757
G1 X74.862 Y108.996 E6.24367
G1 X77.844 Y108.05 E6.39975
G1 X80.755 Y106.902 E6.55587
G1 X83.58 Y105.558 E6.71195
G1 X86.308 Y104.025 E6.86806
G1 X88.923 Y102.308 E7.02414
G1 X91.417 Y100.419 E7.18022
G1 X93.775 Y98.361 E7.33637
G1 X95.986 Y96.15 E7.49237
G1 X98.044 Y93.792 E7.64851
G1 X99.933 Y91.298 E7.8046
G1 X101.65 Y88.683 E7.96067
G1 X103.183 Y85.955 E8.11679
G1 X104.527 Y83.13 E8.27287
G1 X105.675 Y80.219 E8.42898
G1 X106.621 Y77.237 E8.58506
G1 X107.362 Y74.197 E8.74117
G1 X107.893 Y71.114 E8.89725
G1 X108.214 Y68.002 E9.05333
G1 X108.32 Y64.875 E9.20942
G1 X108.214 Y61.748 E9.36552
G1 X107.893 Y58.636 E9.5216
G1 X107.362 Y55.553 E9.67768
G1 X106.621 Y52.513 E9.83379
G1 X105.675 Y49.531 E9.98987
G1 X104.527 Y46.62 E10.14598
G1 X103.183 Y43.795 E10.30206
G1 X101.65 Y41.067 E10.45818
G1 X99.933 Y38.452 E10.61425
G1 X98.044 Y35.958 E10.77034
G1 X95.986 Y33.6 E10.92648
G1 X93.775 Y31.389 E11.08248
G1 X91.417 Y29.331 E11.23863
G1 X88.923 Y27.442 E11.39471
G1 X86.308 Y25.725 E11.55079
G1 X83.58 Y24.192 E11.7069
G1 X80.755 Y22.848 E11.86298
G1 X77.844 Y21.7 E12.0191
G1 X74.862 Y20.754 E12.17518
G1 X71.822 Y20.013 E12.33128
G1 X68.739 Y19.482 E12.48736
G1 X65.627 Y19.161 E12.64344
G1 X62.5 Y19.055 E12.79954
G1 X59.373 Y19.161 E12.95563
G1 X56.261 Y19.482 E13.11172
G1 X53.178 Y20.013 E13.26779
G1 X50.138 Y20.754 E13.4239
G1 X47.156 Y21.7 E13.57998
G1 X44.245 Y22.848 E13.73609
G1 X41.42 Y24.192 E13.89217
G1 X38.692 Y25.725 E14.04829
G1 X36.077 Y27.442 E14.20436
G1 X33.583 Y29.331 E14.36045
G0 F1200 X33.52 Y29.254
G0 X36.054 Y27.41
G0 X38.672 Y25.691
G0 X41.402 Y24.157
G0 X44.23 Y22.812
G0 X47.143 Y21.663
G0 X50.128 Y20.716
G0 X53.17 Y19.974
G0 X56.256 Y19.443
G0 X59.371 Y19.122
G0 X62.5 Y19.015
G0 X65.629 Y19.122
G0 X68.744 Y19.443
G0 X71.83 Y19.974
G0 X74.872 Y20.716
G0 X77.857 Y21.663
G0 X80.77 Y22.812
G0 X83.598 Y24.157
G0 X86.328 Y25.691
G0 X88.946 Y27.41
G0 X91.442 Y29.3
G0 X93.802 Y31.36
G0 X96.015 Y33.573
G0 X98.075 Y35.933
G0 X99.146 Y37.347
G0 X118.801 Y64.856
G0 X118.9 Y64.857
G1 F1080 X118.796 Y68.294 E14.532
G1 X118.489 Y71.669 E14.70107
G1 X117.979 Y75.024 E14.87038
G1 X117.261 Y78.372 E15.04121
G1 X116.345 Y81.658 E15.2114
G1 X115.241 Y84.857 E15.38023
G1 X113.932 Y88.018 E15.55092
G1 X112.431 Y91.101 E15.722
G1 X110.776 Y94.037 E15.89014
G1 X108.914 Y96.917 E16.06124
G1 X106.899 Y99.654 E16.2308
G1 X104.715 Y102.276 E16.40105
G1 X102.38 Y104.755 E16.57096
G1 X99.901 Y107.09 E16.74086
G1 X97.283 Y109.271 E16.91086
G1 X94.546 Y111.286 E17.08042
G1 X91.664 Y113.15 E17.25166
G1 X88.726 Y114.806 E17.41991
G1 X85.649 Y116.304 E17.59065
G1 X82.483 Y117.616 E17.76163
G1 X79.283 Y118.72 E17.93051
G1 X76.004 Y119.634 E18.10034
G1 X72.658 Y120.352 E18.27107
G1 X69.294 Y120.864 E18.44083
G1 X65.919 Y121.171 E18.60991
G1 X62.5 Y121.275 E18.78056
G1 X59.081 Y121.171 E18.95122
G1 X55.706 Y120.864 E19.12029
G1 X52.342 Y120.352 E19.29005
G1 X48.996 Y119.634 E19.46079
G1 X45.717 Y118.72 E19.63061
G1 X42.517 Y117.616 E19.7995
G1 X39.351 Y116.304 E19.97047
G1 X36.274 Y114.806 E20.14121
G1 X33.336 Y113.15 E20.30947
G1 X30.454 Y111.286 E20.48071
G1 X27.717 Y109.271 E20.65027
G1 X25.099 Y107.09 E20.82027
G1 X22.62 Y104.755 E20.99017
G1 X20.285 Y102.276 E21.16007
G1 X18.101 Y99.654 E21.33032
G1 X16.086 Y96.917 E21.49988
G1 X14.224 Y94.037 E21.67098
G1 X12.569 Y91.101 E21.83913
G1 X11.068 Y88.018 E22.0102
G1 X9.759 Y84.857 E22.18089
G1 X8.655 Y81.658 E22.34973
G1 X7.739 Y78.372 E22.51992
G1 X7.021 Y75.024 E22.69075
G1 X6.511 Y71.669 E22.86005
G1 X6.204 Y68.294 E23.02913
G1 X6.1 Y64.875 E23.19978
G1 X6.1 Y3.725 E26.25056
G1 X118.9 Y3.725 E31.87818
G1 X118.9 Y64.857 E34.92807
G0 F1200 X118.801 Y64.856
G0 X82.448 Y117.523
G0 X82.635 Y117.986
;TYPE:WALL-OUTER
G1 F1080 X79.404 Y119.101 E35.09859
G1 X76.094 Y120.024 E35.27003
G1 X72.736 Y120.744 E35.44137
G1 X69.341 Y121.261 E35.6127
G1 X65.934 Y121.571 E35.78337
G1 X62.5 Y121.675 E35.95478
G1 X59.066 Y121.571 E36.12618
G1 X55.659 Y121.261 E36.29686
G1 X52.264 Y120.744 E36.46819
G1 X48.906 Y120.024 E36.63952
G1 X45.596 Y119.101 E36.81096
G1 X42.365 Y117.986 E36.98149
G1 X39.188 Y116.67 E37.15305
G1 X36.099 Y115.166 E37.32445
G1 X33.121 Y113.487 E37.49501
G1 X30.229 Y111.617 E37.66683
G1 X27.471 Y109.587 E37.83768
G1 X24.834 Y107.39 E38.00892
G1 X22.337 Y105.038 E38.18006
G1 X19.985 Y102.541 E38.3512
G1 X17.785 Y99.9 E38.52268
G1 X15.755 Y97.142 E38.69353
G1 X13.888 Y94.254 E38.8651
G1 X12.209 Y91.276 E39.03566
G1 X10.702 Y88.181 E39.2074
G1 X9.389 Y85.01 E39.37863
G1 X8.274 Y81.779 E39.54915
G1 X7.349 Y78.462 E39.72095
G1 X6.63 Y75.108 E39.89209
G1 X6.114 Y71.716 E40.06326
G1 X5.804 Y68.309 E40.23394
G1 X5.7 Y64.875 E40.40534
G1 X5.7 Y3.325 E43.47608
G1 X119.3 Y3.325 E49.14361
G1 X119.3 Y64.869 E52.21405
G1 X119.196 Y68.309 E52.38575
G1 X118.886 Y71.716 E52.55643
G1 X118.37 Y75.108 E52.72761
G1 X117.651 Y78.462 E52.89874
G1 X116.726 Y81.779 E53.07054
G1 X115.611 Y85.01 E53.24106
G1 X114.298 Y88.181 E53.41229
G1 X112.791 Y91.276 E53.58403
G1 X111.112 Y94.254 E53.75459
G1 X109.245 Y97.142 E53.92616
G1 X107.215 Y99.9 E54.09701
G1 X105.015 Y102.541 E54.2685
G1 X102.663 Y105.038 E54.43964
G1 X100.166 Y107.39 E54.61078
G1 X97.529 Y109.587 E54.78201
G1 X94.771 Y111.617 E54.95286
G1 X91.879 Y113.487 E55.12468
G1 X88.901 Y115.166 E55.29524
G1 X85.812 Y116.67 E55.46665
G1 X82.635 Y117.986 E55.63821
G0 F1200 X82.446 Y118.051
G0 X82.285 Y117.579
G0 X50.128 Y109.034
G0 X47.143 Y108.087
G0 X44.23 Y106.938
G0 X41.402 Y105.593
G0 X38.672 Y104.059
G0 X36.054 Y102.34
G0 X33.558 Y100.45
G0 X31.198 Y98.39
G0 X28.985 Y96.177
G0 X26.925 Y93.817
G0 X25.035 Y91.321
G0 X23.316 Y88.703
G0 X21.782 Y85.973
G0 X20.437 Y83.145
G0 X19.288 Y80.232
G0 X18.341 Y77.247
G0 X17.599 Y74.205
G0 X17.068 Y71.119
G0 X16.747 Y68.004
G0 X16.64 Y64.875
G0 X16.747 Y61.746
G0 X17.068 Y58.631
G0 X17.599 Y55.545
G0 X18.341 Y52.503
G0 X19.288 Y49.518
G0 X20.437 Y46.605
G0 X21.782 Y43.777
G0 X23.316 Y41.047
G0 X25.035 Y38.429
G0 X26.925 Y35.933
G0 X28.985 Y33.573
G0 X31.198 Y31.36
G0 X33.558 Y29.3
G0 X35.579 Y27.77
G0 X38.628 Y25.649
G0 X38.9 Y26.067
G1 F1080 X36.308 Y27.769 E55.79291
G1 X33.836 Y29.642 E55.94764
G1 X31.498 Y31.681 E56.10241
G1 X29.306 Y33.873 E56.25707
G1 X27.267 Y36.211 E56.41184
G1 X25.394 Y38.683 E56.56657
G1 X23.692 Y41.275 E56.72127
G1 X22.172 Y43.979 E56.87603
G1 X20.84 Y46.779 E57.03072
G1 X19.702 Y49.665 E57.1855
G1 X18.764 Y52.621 E57.34022
G1 X18.03 Y55.634 E57.49493
G1 X17.503 Y58.691 E57.6497
G1 X17.185 Y61.775 E57.80438
G1 X17.08 Y64.875 E57.95912
G1 X17.185 Y67.975 E58.11387
G1 X17.503 Y71.059 E58.26855
G1 X18.03 Y74.116 E58.42331
G1 X18.764 Y77.129 E58.57803
G1 X19.702 Y80.085 E58.73275
G1 X20.84 Y82.971 E58.88752
G1 X22.172 Y85.771 E59.04222
G1 X23.692 Y88.475 E59.19697
G1 X25.394 Y91.067 E59.35168
G1 X27.267 Y93.539 E59.50641
G1 X29.306 Y95.877 E59.66118
G1 X31.498 Y98.069 E59.81583
G1 X33.836 Y100.108 E59.9706
G1 X36.308 Y101.981 E60.12534
G1 X38.9 Y103.683 E60.28004
G1 X41.604 Y105.203 E60.43479
G1 X44.404 Y106.535 E60.58949
G1 X47.29 Y107.673 E60.74426
G1 X50.246 Y108.611 E60.89898
G1 X53.259 Y109.345 E61.0537
G1 X56.316 Y109.872 E61.20846
G1 X59.4 Y110.19 E61.36314
G1 X62.5 Y110.295 E61.51789
G1 X65.6 Y110.19 E61.67264
G1 X68.684 Y109.872 E61.82731
G1 X71.741 Y109.345 E61.98208
G1 X74.754 Y108.611 E62.13679
G1 X77.71 Y107.673 E62.29151
G1 X80.596 Y106.535 E62.44629
G1 X83.396 Y105.203 E62.60098
G1 X86.1 Y103.683 E62.75574
G1 X88.692 Y101.981 E62.91044
G1 X91.164 Y100.108 E63.06517
G1 X93.502 Y98.069 E63.21994
G1 X95.694 Y95.877 E63.3746
G1 X97.733 Y93.539 E63.52937
G1 X99.606 Y91.067 E63.6841
G1 X101.308 Y88.475 E63.8388
G1 X102.828 Y85.771 E63.99356
G1 X104.16 Y82.971 E64.14825
G1 X105.298 Y80.085 E64.30302
G1 X106.236 Y77.129 E64.45775
G1 X106.97 Y74.116 E64.61246
G1 X107.497 Y71.059 E64.76723
G1 X107.815 Y67.975 E64.9219
G1 X107.92 Y64.875 E65.07665
G1 X107.815 Y61.775 E65.2314
G1 X107.497 Y58.691 E65.38608
G1 X106.97 Y55.634 E65.54084
G1 X106.236 Y52.621 E65.69556
G1 X105.298 Y49.665 E65.85028
G1 X104.16 Y46.779 E66.00505
G1 X102.828 Y43.979 E66.15974
G1 X101.308 Y41.275 E66.3145
G1 X99.606 Y38.683 E66.4692
G1 X97.733 Y36.211 E66.62393
G1 X95.694 Y33.873 E66.7787
G1 X93.502 Y31.681 E66.93336
G1 X91.164 Y29.642 E67.08813
G1 X88.692 Y27.769 E67.24286
G1 X86.1 Y26.067 E67.39757
G1 X83.396 Y24.547 E67.55232
G1 X80.596 Y23.215 E67.70702
G1 X77.71 Y22.077 E67.86179
G1 X74.754 Y21.139 E68.01651
G1 X71.741 Y20.405 E68.17123
G1 X68.684 Y19.878 E68.32599
G1 X65.6 Y19.56 E68.48067
G1 X62.5 Y19.455 E68.63542
G1 X59.4 Y19.56 E68.79016
G1 X56.316 Y19.878 E68.94484
G1 X53.259 Y20.405 E69.0996
G1 X50.246 Y21.139 E69.25432
G1 X47.29 Y22.077 E69.40904
G1 X44.404 Y23.215 E69.56381
G1 X41.604 Y24.547 E69.71851
G1 X38.9 Y26.067 E69.87326
G0 F1200 X38.733 Y26.176
G0 X38.489 Y25.392
;TYPE:SKIN
G1 F1080 X35.852 Y27.124 E70.03066
G1 X33.337 Y29.029 E70.18807
G1 X30.958 Y31.104 E70.34556
G1 X28.729 Y33.333 E70.50283
G1 X26.654 Y35.712 E70.66032
G1 X24.749 Y38.227 E70.81773
G1 X23.017 Y40.864 E70.97513
G1 X21.47 Y43.616 E71.13263
G1 X20.115 Y46.464 E71.28998
G1 X18.957 Y49.4 E71.44744
G1 X18.003 Y52.408 E71.60488
G1 X17.256 Y55.473 E71.76227
G1 X16.721 Y58.583 E71.9197
G1 X16.396 Y61.721 E72.0771
G1 X16.29 Y64.875 E72.23454
G1 X16.396 Y68.029 E72.39198
G1 X16.721 Y71.167 E72.54938
G1 X17.256 Y74.277 E72.70681
G1 X18.003 Y77.342 E72.8642
G1 X18.957 Y80.35 E73.02164
G1 X20.115 Y83.286 E73.1791
G1 X21.47 Y86.134 E73.33645
G1 X23.017 Y88.886 E73.49395
G1 X24.749 Y91.523 E73.65135
G1 X26.654 Y94.038 E73.80876
G1 X28.729 Y96.417 E73.96625
G1 X30.958 Y98.646 E74.12352
G1 X33.337 Y100.721 E74.28101
G1 X35.852 Y102.626 E74.43841
G1 X38.489 Y104.358 E74.59581
G1 X41.241 Y105.905 E74.75332
G1 X44.089 Y107.26 E74.91067
G1 X47.025 Y108.418 E75.06813
G1 X50.033 Y109.372 E75.22556
G1 X53.098 Y110.119 E75.38295
G1 X56.208 Y110.654 E75.54039
G1 X59.346 Y110.979 E75.69778
G1 X62.5 Y111.085 E75.85523
G1 X65.654 Y110.979 E76.01267
G1 X68.792 Y110.654 E76.17006
G1 X71.902 Y110.119 E76.3275
G1 X74.967 Y109.372 E76.48489
G1 X77.975 Y108.418 E76.64232
G1 X80.911 Y107.26 E76.79978
G1 X83.759 Y105.905 E76.95713
G1 X86.511 Y104.358 E77.11464
G1 X89.148 Y102.626 E77.27204
G1 X91.663 Y100.721 E77.42944
G1 X94.042 Y98.646 E77.58693
G1 X96.271 Y96.417 E77.7442
G1 X98.346 Y94.038 E77.9017
G1 X100.251 Y91.523 E78.0591
G1 X101.983 Y88.886 E78.2165
G1 X103.53 Y86.134 E78.374
G1 X104.885 Y83.286 E78.53135
G1 X106.043 Y80.35 E78.68881
G1 X106.997 Y77.342 E78.84625
G1 X107.744 Y74.277 E79.00364
G1 X108.279 Y71.167 E79.16108
G1 X108.604 Y68.029 E79.31847
G1 X108.71 Y64.875 E79.47591
G1 X108.604 Y61.721 E79.63335
G1 X108.279 Y58.583 E79.79075
G1 X107.744 Y55.473 E79.94818
G1 X106.997 Y52.408 E80.10557
G1 X106.043 Y49.4 E80.26301
G1 X104.885 Y46.464 E80.42047
G1 X103.53 Y43.616 E80.57782
G1 X101.983 Y40.864 E80.73532
G1 X100.251 Y38.227 E80.89272
G1 X98.346 Y35.712 E81.05013
G1 X96.271 Y33.333 E81.20762
G1 X94.042 Y31.104 E81.36489
G1 X91.663 Y29.029 E81.52238
G1 X89.148 Y27.124 E81.67979
