;FLAVOR:Marlin
;TIME:6666
;Filament used: 0m
;Layer height: 0.15

;Generated with Cura_SteamEngine 3.6.0
M82 ;absolute extrusion mode
;Start GCode begin
M104 S200 ;Set Hotend Temperature
M140 S50 ;Set Bed Temperature
M109 ;Wait for Hotend Temperature
M190 ;Wait for Bed Temperature
G28 ;Home
G90 ;absolute positioning
G1 X-4 Y-4
G1 Z0 F3000
G92 E0
G1 F200 E20
G92 E0
;Start GCode end
G92 E0
G1 F1500 E-6.5
;LAYER_COUNT:143
;LAYER:0
M107
G0 F1500 X45.699 Y52.512 Z0.3
;TYPE:SKIRT
G1 F1500 E0
G1 F480 X46.229 Y52.085 E0.03396
G1 X46.806 Y51.722 E0.06797
G1 X47.421 Y51.43 E0.10193
G1 X48.066 Y51.212 E0.1359
G1 X48.732 Y51.07 E0.16987
G1 X49.41 Y51.008 E0.20384
G1 X50.09 Y51.026 E0.23778
G1 X50.2 Y51.042 E0.24332
G1 X50.2 Y50.867 E0.25205
G1 X50.24 Y50.187 E0.28604
G1 X50.359 Y49.517 E0.31999
G1 X50.556 Y48.865 E0.35397
G1 X50.828 Y48.241 E0.38793
G1 X51.172 Y47.653 E0.42191
G1 X51.582 Y47.109 E0.4559
G1 X51.899 Y46.766 E0.4792
G1 X52.016 Y46.649 E0.48746
G1 X52.525 Y46.196 E0.52145
G1 X53.083 Y45.807 E0.55539
G1 X53.683 Y45.485 E0.58936
G1 X54.317 Y45.236 E0.62334
G1 X54.976 Y45.063 E0.65733
G1 X55.65 Y44.969 E0.69128
G1 X56.117 Y44.95 E0.7146
G1 X68.883 Y44.95 E1.3515
G1 X69.563 Y44.99 E1.38548
G1 X70.233 Y45.109 E1.41943
G1 X70.885 Y45.306 E1.45341
G1 X71.509 Y45.578 E1.48738
G1 X72.097 Y45.922 E1.52136
G1 X72.641 Y46.332 E1.55535
G1 X72.984 Y46.649 E1.57865
G1 X73.101 Y46.766 E1.5869
G1 X73.554 Y47.275 E1.6209
G1 X73.943 Y47.833 E1.65483
G1 X74.265 Y48.433 E1.68881
G1 X74.514 Y49.067 E1.72279
G1 X74.687 Y49.726 E1.75678
G1 X74.781 Y50.4 E1.79073
G1 X74.8 Y50.867 E1.81405
G1 X74.8 Y51.039 E1.82263
G1 X75.146 Y51.004 E1.83998
G1 X75.827 Y51.014 E1.87396
G1 X76.502 Y51.104 E1.90793
G1 X77.161 Y51.272 E1.94186
G1 X77.797 Y51.516 E1.97585
G1 X78.399 Y51.834 E2.00981
G1 X78.96 Y52.219 E2.04376
G1 X79.473 Y52.668 E2.07777
G1 X79.928 Y53.174 E2.11172
G1 X80.322 Y53.73 E2.14572
G1 X80.648 Y54.328 E2.1797
G1 X80.833 Y54.767 E2.20347
G1 X81.443 Y56.399 E2.29039
G1 X81.628 Y56.989 E2.32124
G1 X81.971 Y58.326 E2.3901
G1 X82.085 Y58.884 E2.41851
G1 X82.278 Y60.137 E2.48176
G1 X82.339 Y60.744 E2.5122
G1 X82.406 Y62.152 E2.58252
G1 X82.408 Y62.676 E2.60867
G1 X82.342 Y64.221 E2.68582
G1 X82.278 Y64.863 E2.71801
G1 X82.09 Y66.073 E2.7791
G1 X81.983 Y66.6 E2.80593
G1 X81.625 Y68.021 E2.87904
G1 X81.424 Y68.66 E2.91246
G1 X80.823 Y70.245 E2.99703
G1 X80.545 Y70.867 E3.03102
G1 X80.196 Y71.451 E3.06496
G1 X79.78 Y71.991 E3.09897
G1 X79.305 Y72.478 E3.13291
G1 X78.775 Y72.906 E3.16689
G1 X78.199 Y73.269 E3.20086
G1 X77.584 Y73.562 E3.23485
G1 X76.94 Y73.781 E3.26878
G1 X76.274 Y73.923 E3.30276
G1 X75.596 Y73.986 E3.33673
G1 X74.915 Y73.969 E3.37071
G1 X74.8 Y73.952 E3.37651
G1 X74.8 Y74.133 E3.38554
G1 X74.76 Y74.813 E3.41953
G1 X74.641 Y75.483 E3.45348
G1 X74.444 Y76.135 E3.48746
G1 X74.172 Y76.759 E3.52142
G1 X73.828 Y77.347 E3.5554
G1 X73.418 Y77.891 E3.58939
G1 X73.101 Y78.234 E3.61269
G1 X72.984 Y78.351 E3.62095
G1 X72.475 Y78.804 E3.65494
G1 X71.917 Y79.193 E3.68888
G1 X71.317 Y79.515 E3.72285
G1 X70.683 Y79.764 E3.75683
G1 X70.024 Y79.937 E3.79082
G1 X69.35 Y80.031 E3.82477
G1 X68.883 Y80.05 E3.84809
G1 X56.117 Y80.05 E4.48499
G1 X55.437 Y80.01 E4.51898
G1 X54.767 Y79.891 E4.55292
G1 X54.115 Y79.694 E4.58691
G1 X53.491 Y79.422 E4.62087
G1 X52.903 Y79.078 E4.65485
G1 X52.359 Y78.668 E4.68884
G1 X52.016 Y78.351 E4.71214
G1 X51.899 Y78.234 E4.72039
G1 X51.446 Y77.725 E4.75439
G1 X51.057 Y77.167 E4.78832
G1 X50.735 Y76.567 E4.8223
G1 X50.486 Y75.933 E4.85628
G1 X50.313 Y75.274 E4.89027
G1 X50.219 Y74.6 E4.92422
G1 X50.2 Y74.133 E4.94754
G1 X50.2 Y73.943 E4.95702
G1 X49.854 Y73.978 E4.97437
G1 X49.173 Y73.968 E5.00835
G1 X48.498 Y73.878 E5.04232
G1 X47.839 Y73.71 E5.07625
G1 X47.203 Y73.466 E5.11024
G1 X46.601 Y73.148 E5.1442
G1 X46.04 Y72.763 E5.17815
G1 X45.527 Y72.314 E5.21216
G1 X45.072 Y71.808 E5.24611
G1 X44.678 Y71.252 E5.28011
G1 X44.352 Y70.654 E5.31409
G1 X44.182 Y70.254 E5.33577
G1 X43.573 Y68.66 E5.4209
G1 X43.368 Y68.011 E5.45486
G1 X43.033 Y66.685 E5.52309
G1 X42.921 Y66.127 E5.55149
G1 X42.719 Y64.785 E5.61919
G1 X42.66 Y64.182 E5.64942
G1 X42.593 Y62.69 E5.72393
G1 X42.593 Y62.159 E5.75042
G1 X42.659 Y60.75 E5.8208
G1 X42.723 Y60.121 E5.85234
G1 X42.916 Y58.892 E5.9144
G1 X43.022 Y58.375 E5.94073
G1 X43.379 Y56.958 E6.01364
G1 X43.582 Y56.314 E6.04733
G1 X44.179 Y54.744 E6.13113
G1 X44.458 Y54.122 E6.16514
G1 X44.807 Y53.538 E6.19908
G1 X45.223 Y52.999 E6.23305
G1 X45.699 Y52.512 E6.26702
G0 F1500 X46.037 Y52.747
G1 F480 X46.556 Y52.344 E6.2998
G1 X47.121 Y52.008 E6.3326
G1 X47.722 Y51.742 E6.36539
G1 X48.35 Y51.552 E6.39812
G1 X48.997 Y51.439 E6.43089
G1 X49.654 Y51.405 E6.46371
G1 X50.309 Y51.452 E6.49647
G1 X50.6 Y51.508 E6.51126
G1 X50.6 Y50.867 E6.54324
G1 X50.64 Y50.211 E6.57603
G1 X50.759 Y49.565 E6.6088
G1 X50.956 Y48.938 E6.64159
G1 X51.228 Y48.34 E6.67436
G1 X51.57 Y47.779 E6.70714
G1 X52.182 Y47.049 E6.75467
G1 X52.299 Y46.932 E6.76292
G1 X52.791 Y46.496 E6.79572
G1 X53.332 Y46.124 E6.82847
G1 X53.914 Y45.82 E6.86123
G1 X54.529 Y45.589 E6.89401
G1 X55.168 Y45.434 E6.92681
G1 X56.117 Y45.35 E6.97434
G1 X68.883 Y45.35 E7.61124
G1 X69.539 Y45.39 E7.64403
G1 X70.185 Y45.509 E7.6768
G1 X70.812 Y45.706 E7.70959
G1 X71.41 Y45.978 E7.74237
G1 X71.971 Y46.32 E7.77515
G1 X72.701 Y46.932 E7.82267
G1 X72.818 Y47.049 E7.83093
G1 X73.254 Y47.541 E7.86372
G1 X73.626 Y48.082 E7.89648
G1 X73.93 Y48.664 E7.92924
G1 X74.161 Y49.279 E7.96201
G1 X74.316 Y49.918 E7.99482
G1 X74.4 Y50.867 E8.04235
G1 X74.4 Y51.501 E8.07398
G1 X74.807 Y51.431 E8.09458
G1 X75.463 Y51.398 E8.12735
G1 X76.119 Y51.446 E8.16017
G1 X76.763 Y51.573 E8.19292
G1 X77.388 Y51.777 E8.22572
G1 X77.983 Y52.056 E8.2585
G1 X78.539 Y52.404 E8.29123
G1 X79.05 Y52.818 E8.32404
G1 X79.506 Y53.291 E8.35682
G1 X79.902 Y53.815 E8.38958
G1 X80.23 Y54.384 E8.42235
G1 X80.458 Y54.907 E8.45081
G1 X81.068 Y56.539 E8.53774
G1 X81.241 Y57.088 E8.56645
G1 X81.584 Y58.425 E8.63532
G1 X81.69 Y58.945 E8.66179
G1 X81.883 Y60.198 E8.72504
G1 X81.94 Y60.763 E8.75337
G1 X82.007 Y62.171 E8.8237
G1 X82.008 Y62.658 E8.848
G1 X81.942 Y64.203 E8.92515
G1 X81.883 Y64.802 E8.95518
G1 X81.695 Y66.012 E9.01627
G1 X81.595 Y66.502 E9.04122
G1 X81.237 Y67.923 E9.11433
G1 X81.05 Y68.519 E9.14549
G1 X80.449 Y70.104 E9.23006
G1 X80.179 Y70.703 E9.26284
G1 X79.839 Y71.264 E9.29557
G1 X79.432 Y71.781 E9.32839
G1 X78.966 Y72.244 E9.36117
G1 X78.448 Y72.647 E9.39391
G1 X77.884 Y72.984 E9.42669
G1 X77.283 Y73.25 E9.45948
G1 X76.655 Y73.441 E9.49223
G1 X76.008 Y73.555 E9.525
G1 X75.351 Y73.589 E9.55782
G1 X74.696 Y73.543 E9.59058
G1 X74.4 Y73.486 E9.60562
G1 X74.4 Y74.133 E9.6379
G1 X74.36 Y74.789 E9.67069
G1 X74.241 Y75.435 E9.70346
G1 X74.044 Y76.062 E9.73625
G1 X73.772 Y76.66 E9.76902
G1 X73.43 Y77.221 E9.8018
G1 X72.818 Y77.951 E9.84933
G1 X72.701 Y78.068 E9.85758
G1 X72.209 Y78.504 E9.89038
G1 X71.668 Y78.876 E9.92314
G1 X71.086 Y79.18 E9.9559
G1 X70.471 Y79.411 E9.98867
G1 X69.832 Y79.566 E10.02148
G1 X68.883 Y79.65 E10.06901
G1 X56.117 Y79.65 E10.7059
G1 X55.461 Y79.61 E10.73869
G1 X54.815 Y79.491 E10.77146
G1 X54.188 Y79.294 E10.80425
G1 X53.59 Y79.022 E10.83703
G1 X53.029 Y78.68 E10.86981
G1 X52.299 Y78.068 E10.91733
G1 X52.182 Y77.951 E10.92559
G1 X51.746 Y77.459 E10.95839
G1 X51.374 Y76.918 E10.99114
G1 X51.07 Y76.336 E11.0239
G1 X50.839 Y75.721 E11.05668
G1 X50.684 Y75.082 E11.08948
G1 X50.6 Y74.133 E11.13701
G1 X50.6 Y73.481 E11.16954
G1 X50.193 Y73.551 E11.19014
G1 X49.537 Y73.584 E11.22291
G1 X48.881 Y73.536 E11.25573
G1 X48.237 Y73.409 E11.28848
G1 X47.612 Y73.205 E11.32128
G1 X47.017 Y72.926 E11.35406
G1 X46.461 Y72.578 E11.38679
G1 X45.95 Y72.164 E11.4196
G1 X45.494 Y71.691 E11.45238
G1 X45.098 Y71.167 E11.48514
G1 X44.77 Y70.598 E11.51791
G1 X44.556 Y70.111 E11.54445
G1 X43.947 Y68.517 E11.62958
G1 X43.755 Y67.913 E11.6612
G1 X43.42 Y66.587 E11.72943
G1 X43.316 Y66.068 E11.75584
G1 X43.114 Y64.726 E11.82355
G1 X43.059 Y64.164 E11.85172
G1 X42.992 Y62.672 E11.92623
G1 X42.993 Y62.177 E11.95093
G1 X43.059 Y60.768 E12.0213
G1 X43.118 Y60.183 E12.05063
G1 X43.311 Y58.954 E12.1127
G1 X43.41 Y58.473 E12.1372
G1 X43.767 Y57.056 E12.2101
G1 X43.956 Y56.456 E12.24149
G1 X44.553 Y54.886 E12.32529
G1 X44.823 Y54.287 E12.35807
G1 X45.164 Y53.726 E12.39082
G1 X45.571 Y53.21 E12.42361
G1 X46.037 Y52.747 E12.45638
G0 F1500 X46.374 Y52.985
G1 F480 X46.881 Y52.609 E12.48787
G1 X47.433 Y52.299 E12.51946
G1 X48.018 Y52.062 E12.55095
G1 X48.63 Y51.9 E12.58253
G1 X49.256 Y51.817 E12.61404
G1 X49.888 Y51.813 E12.64557
G1 X50.516 Y51.89 E12.67713
G1 X51 Y52.012 E12.70203
G1 X51 Y50.867 E12.75916
G1 X51.04 Y50.236 E12.7907
G1 X51.159 Y49.615 E12.82225
G1 X51.356 Y49.015 E12.85375
G1 X51.627 Y48.443 E12.88533
G1 X51.967 Y47.911 E12.91683
G1 X52.464 Y47.331 E12.95494
G1 X52.581 Y47.214 E12.96319
G1 X53.056 Y46.797 E12.99473
G1 X53.579 Y46.442 E13.02626
G1 X54.143 Y46.156 E13.05781
G1 X54.738 Y45.944 E13.08932
G1 X55.356 Y45.808 E13.12089
G1 X56.117 Y45.75 E13.15897
G1 X68.883 Y45.75 E13.79587
G1 X69.514 Y45.79 E13.82741
G1 X70.135 Y45.909 E13.85896
G1 X70.735 Y46.106 E13.89047
G1 X71.307 Y46.377 E13.92204
G1 X71.839 Y46.717 E13.95354
G1 X72.419 Y47.214 E13.99165
G1 X72.536 Y47.331 E13.9999
G1 X72.953 Y47.806 E14.03144
G1 X73.308 Y48.329 E14.06297
G1 X73.594 Y48.893 E14.09452
G1 X73.806 Y49.488 E14.12604
G1 X73.942 Y50.106 E14.15761
G1 X74 Y50.867 E14.19568
G1 X74 Y52.004 E14.25241
G1 X74.509 Y51.878 E14.27857
G1 X75.137 Y51.805 E14.31011
G1 X75.769 Y51.812 E14.34164
G1 X76.395 Y51.898 E14.37317
G1 X77.005 Y52.063 E14.40469
G1 X77.59 Y52.303 E14.43624
G1 X78.14 Y52.615 E14.46779
G1 X78.646 Y52.995 E14.49936
G1 X79.1 Y53.434 E14.53087
G1 X79.494 Y53.928 E14.56239
G1 X79.824 Y54.468 E14.59396
G1 X80.084 Y55.047 E14.62563
G1 X80.694 Y56.679 E14.71255
G1 X80.853 Y57.188 E14.73915
G1 X81.196 Y58.525 E14.80802
G1 X81.295 Y59.006 E14.83252
G1 X81.488 Y60.259 E14.89577
G1 X81.54 Y60.782 E14.92199
G1 X81.607 Y62.19 E14.99231
G1 X81.608 Y62.641 E15.01481
G1 X81.542 Y64.186 E15.09197
G1 X81.488 Y64.741 E15.11979
G1 X81.3 Y65.951 E15.18088
G1 X81.207 Y66.405 E15.204
G1 X80.849 Y67.826 E15.27711
G1 X80.676 Y68.377 E15.30592
G1 X80.075 Y69.962 E15.39049
G1 X79.814 Y70.537 E15.42199
G1 X79.483 Y71.076 E15.45355
G1 X79.086 Y71.568 E15.48509
G1 X78.63 Y72.006 E15.51663
G1 X78.123 Y72.383 E15.54816
G1 X77.572 Y72.693 E15.5797
G1 X76.986 Y72.931 E15.61125
G1 X76.375 Y73.093 E15.64279
G1 X75.748 Y73.177 E15.67435
G1 X75.116 Y73.181 E15.70588
G1 X74.489 Y73.105 E15.73739
G1 X74 Y72.982 E15.76255
G1 X74 Y74.133 E15.81997
G1 X73.96 Y74.764 E15.85151
G1 X73.841 Y75.385 E15.88306
G1 X73.644 Y75.985 E15.91457
G1 X73.373 Y76.557 E15.94614
G1 X73.033 Y77.089 E15.97764
G1 X72.536 Y77.669 E16.01575
G1 X72.419 Y77.786 E16.024
G1 X71.944 Y78.203 E16.05554
G1 X71.421 Y78.558 E16.08707
G1 X70.857 Y78.844 E16.11862
G1 X70.262 Y79.056 E16.15014
G1 X69.644 Y79.192 E16.18171
G1 X68.883 Y79.25 E16.21978
G1 X56.117 Y79.25 E16.85668
G1 X55.486 Y79.21 E16.88822
G1 X54.865 Y79.091 E16.91977
G1 X54.265 Y78.894 E16.95128
G1 X53.693 Y78.623 E16.98285
G1 X53.161 Y78.283 E17.01435
G1 X52.581 Y77.786 E17.05246
G1 X52.464 Y77.669 E17.06072
G1 X52.047 Y77.194 E17.09225
G1 X51.692 Y76.671 E17.12378
G1 X51.406 Y76.107 E17.15533
G1 X51.194 Y75.512 E17.18685
G1 X51.058 Y74.894 E17.21842
G1 X51 Y74.133 E17.25649
G1 X51 Y72.978 E17.31412
G1 X50.491 Y73.104 E17.34028
G1 X49.863 Y73.177 E17.37182
G1 X49.231 Y73.17 E17.40335
G1 X48.605 Y73.084 E17.43488
G1 X47.995 Y72.919 E17.4664
G1 X47.41 Y72.679 E17.49795
G1 X46.86 Y72.367 E17.5295
G1 X46.354 Y71.987 E17.56107
G1 X45.9 Y71.548 E17.59257
G1 X45.506 Y71.054 E17.6241
G1 X45.176 Y70.514 E17.65567
G1 X44.929 Y69.968 E17.68557
G1 X44.32 Y68.374 E17.7707
G1 X44.143 Y67.815 E17.79995
G1 X43.808 Y66.489 E17.86819
G1 X43.712 Y66.008 E17.89266
G1 X43.51 Y64.666 E17.96036
G1 X43.459 Y64.146 E17.98643
G1 X43.392 Y62.654 E18.06094
G1 X43.392 Y62.196 E18.08379
G1 X43.458 Y60.787 E18.15417
G1 X43.514 Y60.245 E18.18135
G1 X43.707 Y59.016 E18.24342
G1 X43.798 Y58.57 E18.26613
G1 X44.155 Y57.153 E18.33903
G1 X44.329 Y56.598 E18.36805
G1 X44.926 Y55.028 E18.45185
G1 X45.188 Y54.452 E18.48342
G1 X45.52 Y53.915 E18.51491
G1 X45.917 Y53.423 E18.54645
G1 X46.374 Y52.985 E18.57804
G0 F1500 X46.708 Y53.228
G1 F480 X47.204 Y52.878 E18.60832
G1 X47.741 Y52.597 E18.63856
G1 X48.311 Y52.389 E18.66883
G1 X48.902 Y52.258 E18.69903
G1 X49.507 Y52.206 E18.72933
G1 X50.112 Y52.234 E18.75954
G1 X50.709 Y52.341 E18.7898
G1 X51.286 Y52.525 E18.82002
G1 X51.4 Y52.579 E18.82631
G1 X51.4 Y50.867 E18.91172
G1 X51.44 Y50.262 E18.94197
G1 X51.559 Y49.668 E18.97219
G1 X51.755 Y49.094 E19.00245
G1 X52.026 Y48.551 E19.03273
G1 X52.365 Y48.048 E19.06299
G1 X52.747 Y47.614 E19.09184
G1 X52.864 Y47.497 E19.10009
G1 X53.32 Y47.098 E19.13032
G1 X53.825 Y46.762 E19.16058
G1 X54.369 Y46.495 E19.19082
G1 X54.944 Y46.302 E19.22108
G1 X55.539 Y46.186 E19.25132
G1 X56.117 Y46.15 E19.28021
G1 X68.883 Y46.15 E19.91711
G1 X69.488 Y46.19 E19.94736
G1 X70.082 Y46.309 E19.97758
G1 X70.656 Y46.505 E20.00785
G1 X71.199 Y46.776 E20.03812
G1 X71.702 Y47.115 E20.06838
G1 X72.136 Y47.497 E20.09723
G1 X72.253 Y47.614 E20.10548
G1 X72.652 Y48.07 E20.13571
G1 X72.988 Y48.575 E20.16598
G1 X73.255 Y49.119 E20.19621
G1 X73.448 Y49.694 E20.22647
G1 X73.564 Y50.289 E20.25671
G1 X73.6 Y50.867 E20.2856
G1 X73.6 Y52.57 E20.37057
G1 X73.678 Y52.532 E20.3749
G1 X74.254 Y52.343 E20.40514
G1 X74.85 Y52.231 E20.43539
G1 X75.455 Y52.198 E20.46562
G1 X76.06 Y52.246 E20.4959
G1 X76.653 Y52.372 E20.52615
G1 X77.224 Y52.575 E20.55638
G1 X77.763 Y52.852 E20.58661
G1 X78.262 Y53.197 E20.61688
G1 X78.711 Y53.604 E20.64711
G1 X79.102 Y54.068 E20.67739
G1 X79.429 Y54.578 E20.70761
G1 X79.709 Y55.187 E20.74105
G1 X80.319 Y56.819 E20.82798
G1 X80.466 Y57.287 E20.85245
G1 X80.809 Y58.624 E20.92131
G1 X80.899 Y59.067 E20.94386
G1 X81.092 Y60.32 E21.00711
G1 X81.141 Y60.801 E21.03124
G1 X81.208 Y62.209 E21.10156
G1 X81.209 Y62.624 E21.12226
G1 X81.143 Y64.169 E21.19942
G1 X81.092 Y64.679 E21.22499
G1 X80.904 Y65.889 E21.28608
G1 X80.82 Y66.307 E21.30735
G1 X80.462 Y67.728 E21.38046
G1 X80.302 Y68.235 E21.40698
G1 X79.701 Y69.82 E21.49155
G1 X79.449 Y70.371 E21.52178
G1 X79.127 Y70.885 E21.55204
G1 X78.74 Y71.352 E21.5823
G1 X78.295 Y71.764 E21.61255
G1 X77.8 Y72.113 E21.64277
G1 X77.263 Y72.395 E21.67303
G1 X76.694 Y72.603 E21.70326
G1 X76.102 Y72.735 E21.73352
G1 X75.498 Y72.788 E21.76377
G1 X74.892 Y72.761 E21.79403
G1 X74.295 Y72.654 E21.82429
G1 X73.718 Y72.47 E21.8545
G1 X73.6 Y72.415 E21.861
G1 X73.6 Y74.133 E21.94671
G1 X73.56 Y74.738 E21.97696
G1 X73.441 Y75.332 E22.00718
G1 X73.245 Y75.906 E22.03744
G1 X72.974 Y76.449 E22.06772
G1 X72.635 Y76.952 E22.09798
G1 X72.253 Y77.386 E22.12683
G1 X72.136 Y77.503 E22.13508
G1 X71.68 Y77.902 E22.16531
G1 X71.175 Y78.238 E22.19557
G1 X70.631 Y78.505 E22.22581
G1 X70.056 Y78.698 E22.25607
G1 X69.461 Y78.814 E22.28631
G1 X68.883 Y78.85 E22.3152
G1 X56.117 Y78.85 E22.9521
G1 X55.512 Y78.81 E22.98235
G1 X54.918 Y78.691 E23.01257
G1 X54.344 Y78.495 E23.04283
G1 X53.801 Y78.224 E23.07311
G1 X53.298 Y77.885 E23.10337
G1 X52.864 Y77.503 E23.13222
G1 X52.747 Y77.386 E23.14047
G1 X52.348 Y76.93 E23.1707
G1 X52.012 Y76.425 E23.20096
G1 X51.745 Y75.881 E23.2312
G1 X51.552 Y75.306 E23.26146
G1 X51.436 Y74.711 E23.2917
G1 X51.4 Y74.133 E23.32059
G1 X51.4 Y72.412 E23.40645
G1 X51.322 Y72.45 E23.41078
G1 X50.746 Y72.639 E23.44103
G1 X50.15 Y72.751 E23.47128
G1 X49.545 Y72.784 E23.50151
G1 X48.94 Y72.736 E23.53179
G1 X48.347 Y72.61 E23.56203
G1 X47.776 Y72.407 E23.59227
G1 X47.237 Y72.13 E23.6225
G1 X46.738 Y71.785 E23.65277
G1 X46.289 Y71.378 E23.683
G1 X45.898 Y70.914 E23.71327
G1 X45.571 Y70.404 E23.7435
G1 X45.303 Y69.826 E23.77528
G1 X44.694 Y68.232 E23.86042
G1 X44.531 Y67.717 E23.88737
G1 X44.196 Y66.391 E23.9556
G1 X44.107 Y65.949 E23.97809
G1 X43.905 Y64.607 E24.0458
G1 X43.859 Y64.128 E24.06981
G1 X43.792 Y62.636 E24.14432
G1 X43.792 Y62.215 E24.16532
G1 X43.858 Y60.806 E24.23569
G1 X43.909 Y60.307 E24.26072
G1 X44.102 Y59.078 E24.32279
