;FLAVOR:Marlin
;TIME:10351
;Filament used: 5.20685m
;Layer height: 0.16
;MINX:0.982
;MINY:37.7
;MINZ:0.2
;MAXX:124.018
;MAXY:88.165
;MAXZ:41.16
;Generated with Cura_SteamEngine 4.12.1
M82 ;absolute extrusion mode
M104 S208.0 ;Set Hotend Temperature
M140 S58.0 ;Set Bed Temperature
G28 ;home
G90 ;absolute positioning
G1 X-10 Y-10 F3000 ;Move to corner 
G1 Z0 F1800 ;Go to zero offset
M109 S208.0 ;Wait for Hotend Temperature
M190 S58.0 ;Wait for Bed Temperature
G92 E0 ;Zero set extruder position
G1 E20 F200 ;Feed filament to clear nozzle
G92 E0 ;Zero set extruder position
G92 E0
G92 E0
G1 F1500 E-6.5
;LAYER_COUNT:257
;LAYER:0
M107
;MESH:toothbrush125-v2.stl
G0 F1440 X88.765 Y42.133 Z0.2
;TYPE:WALL-INNER
G1 F1500 E0
G1 F1080 X88.765 Y82.867 E1.35482
G1 X120.347 Y82.867 E2.40524
G1 X120.347 Y42.133 E3.76006
G1 X88.765 Y42.133 E4.81048
G0 F1440 X88.695 Y42.063
G0 X120.375 Y42.105
G0 X123.548 Y86.83
G0 X123.618 Y86.9
G1 F1080 X1.382 Y86.9 E8.87607
G1 X1.382 Y38.1 E10.49916
G1 X123.618 Y38.1 E14.56475
G1 X123.618 Y86.9 E16.18784
G0 F1440 X124.018 Y87.3
;TYPE:WALL-OUTER
G1 F1080 X0.982 Y87.3 E20.28003
G1 X0.982 Y37.7 E21.92974
G1 X124.018 Y37.7 E26.02193
G1 X124.018 Y87.3 E27.67163
G0 F1440 X123.818 Y87.3
G0 X123.548 Y86.83
G0 X88.737 Y82.895
G0 X88.665 Y42.533
G0 X89.165 Y42.533
G1 F1080 X89.165 Y82.467 E28.99984
G1 X119.947 Y82.467 E30.02366
G1 X119.947 Y42.533 E31.35187
G1 X89.165 Y42.533 E32.37568
G0 F1440 X89.165 Y42.733
G0 X88.665 Y42.733
G0 X88.737 Y42.105
G0 X123.437 Y38.584
;TYPE:SKIN
G1 F1080 X123.132 Y38.279 E32.39003
G0 F1440 X122.567 Y38.279
G1 F1080 X123.437 Y39.15 E32.43097
G0 F1440 X123.437 Y39.716
G1 F1080 X122.001 Y38.279 E32.49854
G0 F1440 X121.435 Y38.279
G1 F1080 X123.437 Y40.281 E32.59271
G0 F1440 X123.437 Y40.847
G1 F1080 X120.87 Y38.279 E32.71348
G0 F1440 X120.304 Y38.279
G1 F1080 X123.437 Y41.413 E32.86087
G0 F1440 X123.437 Y41.978
G1 F1080 X119.738 Y38.279 E33.03486
G0 F1440 X119.172 Y38.279
G1 F1080 X123.437 Y42.544 E33.23547
G0 F1440 X123.437 Y43.11
G1 F1080 X118.607 Y38.279 E33.46268
G0 F1440 X118.041 Y38.279
G1 F1080 X123.437 Y43.675 E33.71649
G0 F1440 X123.437 Y44.241
G1 F1080 X117.475 Y38.279 E33.99693
G0 F1440 X116.91 Y38.279
G1 F1080 X123.437 Y44.807 E34.30396
G0 F1440 X123.437 Y45.372
G1 F1080 X120.526 Y42.461 E34.44089
G0 F1440 X120.526 Y43.027
G1 F1080 X123.437 Y45.938 E34.57781
G0 F1440 X123.437 Y46.504
G1 F1080 X120.526 Y43.593 E34.71473
G0 F1440 X120.526 Y44.158
G1 F1080 X123.437 Y47.069 E34.85166
G0 F1440 X123.437 Y47.635
G1 F1080 X120.526 Y44.724 E34.98858
G0 F1440 X120.526 Y45.29
G1 F1080 X123.437 Y48.201 E35.12551
G0 F1440 X123.437 Y48.767
G1 F1080 X120.526 Y45.855 E35.26246
G0 F1440 X120.526 Y46.421
G1 F1080 X123.437 Y49.332 E35.39938
G0 F1440 X123.437 Y49.898
G1 F1080 X120.526 Y46.987 E35.5363
G0 F1440 X120.526 Y47.552
G1 F1080 X123.437 Y50.464 E35.67325
G0 F1440 X123.437 Y51.029
G1 F1080 X120.526 Y48.118 E35.81018
G0 F1440 X120.526 Y48.684
G1 F1080 X123.437 Y51.595 E35.9471
G0 F1440 X123.437 Y52.161
G1 F1080 X120.526 Y49.249 E36.08405
G0 F1440 X120.526 Y49.815
G1 F1080 X123.437 Y52.726 E36.22097
G0 F1440 X123.437 Y53.292
G1 F1080 X120.526 Y50.381 E36.3579
G0 F1440 X120.526 Y50.947
G1 F1080 X123.437 Y53.858 E36.49482
G0 F1440 X123.437 Y54.423
G1 F1080 X120.526 Y51.512 E36.63175
G0 F1440 X120.526 Y52.078
G1 F1080 X123.437 Y54.989 E36.76867
G0 F1440 X123.437 Y55.555
G1 F1080 X120.526 Y52.644 E36.9056
G0 F1440 X120.526 Y53.209
G1 F1080 X123.437 Y56.12 E37.04252
G0 F1440 X123.437 Y56.686
G1 F1080 X120.526 Y53.775 E37.17945
G0 F1440 X120.526 Y54.341
G1 F1080 X123.437 Y57.252 E37.31637
G0 F1440 X123.437 Y57.818
G1 F1080 X120.526 Y54.906 E37.45332
G0 F1440 X120.526 Y55.472
G1 F1080 X123.437 Y58.383 E37.59024
G0 F1440 X123.437 Y58.949
G1 F1080 X120.526 Y56.038 E37.72717
G0 F1440 X120.526 Y56.603
G1 F1080 X123.437 Y59.515 E37.86412
G0 F1440 X123.437 Y60.08
G1 F1080 X120.526 Y57.169 E38.00104
G0 F1440 X120.526 Y57.735
G1 F1080 X123.437 Y60.646 E38.13796
G0 F1440 X123.437 Y61.212
G1 F1080 X120.526 Y58.3 E38.27491
G0 F1440 X120.526 Y58.866
G1 F1080 X123.437 Y61.777 E38.41184
G0 F1440 X123.437 Y62.343
G1 F1080 X120.526 Y59.432 E38.54876
G0 F1440 X120.526 Y59.998
G1 F1080 X123.437 Y62.909 E38.68569
G0 F1440 X123.437 Y63.474
G1 F1080 X120.526 Y60.563 E38.82261
G0 F1440 X120.526 Y61.129
G1 F1080 X123.437 Y64.04 E38.95954
G0 F1440 X123.437 Y64.606
G1 F1080 X120.526 Y61.695 E39.09646
G0 F1440 X120.526 Y62.26
G1 F1080 X123.437 Y65.171 E39.23338
G0 F1440 X123.437 Y65.737
G1 F1080 X120.526 Y62.826 E39.37031
G0 F1440 X120.526 Y63.392
G1 F1080 X123.437 Y66.303 E39.50723
G0 F1440 X123.437 Y66.868
G1 F1080 X120.526 Y63.957 E39.64416
G0 F1440 X120.526 Y64.523
G1 F1080 X123.437 Y67.434 E39.78108
G0 F1440 X123.437 Y68
G1 F1080 X120.526 Y65.089 E39.91801
G0 F1440 X120.526 Y65.654
G1 F1080 X123.437 Y68.566 E40.05495
G0 F1440 X123.437 Y69.131
G1 F1080 X120.526 Y66.22 E40.19188
G0 F1440 X120.526 Y66.786
G1 F1080 X123.437 Y69.697 E40.3288
G0 F1440 X123.437 Y70.263
G1 F1080 X120.526 Y67.351 E40.46575
G0 F1440 X120.526 Y67.917
G1 F1080 X123.437 Y70.828 E40.60268
G0 F1440 X123.437 Y71.394
G1 F1080 X120.526 Y68.483 E40.7396
G0 F1440 X120.526 Y69.048
G1 F1080 X123.437 Y71.96 E40.87655
G0 F1440 X123.437 Y72.525
G1 F1080 X120.526 Y69.614 E41.01347
G0 F1440 X120.526 Y70.18
G1 F1080 X123.437 Y73.091 E41.1504
G0 F1440 X123.437 Y73.657
G1 F1080 X120.526 Y70.746 E41.28732
G0 F1440 X120.526 Y71.311
G1 F1080 X123.437 Y74.222 E41.42425
G0 F1440 X123.437 Y74.788
G1 F1080 X120.526 Y71.877 E41.56117
G0 F1440 X120.526 Y72.443
G1 F1080 X123.437 Y75.354 E41.6981
G0 F1440 X123.437 Y75.919
G1 F1080 X120.526 Y73.008 E41.83502
G0 F1440 X120.526 Y73.574
G1 F1080 X123.437 Y76.485 E41.97195
G0 F1440 X123.437 Y77.051
G1 F1080 X120.526 Y74.14 E42.10887
G0 F1440 X120.526 Y74.705
G1 F1080 X123.437 Y77.616 E42.24579
G0 F1440 X123.437 Y78.182
G1 F1080 X120.526 Y75.271 E42.38272
G0 F1440 X120.526 Y75.837
G1 F1080 X123.437 Y78.748 E42.51964
G0 F1440 X123.437 Y79.314
G1 F1080 X120.526 Y76.402 E42.65659
G0 F1440 X120.526 Y76.968
G1 F1080 X123.437 Y79.879 E42.79352
G0 F1440 X123.437 Y80.445
G1 F1080 X120.526 Y77.534 E42.93044
G0 F1440 X120.526 Y78.099
G1 F1080 X123.437 Y81.011 E43.06739
G0 F1440 X123.437 Y81.576
G1 F1080 X120.526 Y78.665 E43.20431
G0 F1440 X120.526 Y79.231
G1 F1080 X123.437 Y82.142 E43.34124
G0 F1440 X123.437 Y82.708
G1 F1080 X120.526 Y79.797 E43.47816
G0 F1440 X120.526 Y80.362
G1 F1080 X123.437 Y83.273 E43.61509
G0 F1440 X123.437 Y83.839
G1 F1080 X120.526 Y80.928 E43.75201
G0 F1440 X120.526 Y81.494
G1 F1080 X123.437 Y84.405 E43.88894
G0 F1440 X123.437 Y84.97
G1 F1080 X120.526 Y82.059 E44.02586
G0 F1440 X120.526 Y82.625
G1 F1080 X123.437 Y85.536 E44.16278
G0 F1440 X123.437 Y86.102
G1 F1080 X120.382 Y83.047 E44.30648
G0 F1440 X119.817 Y83.047
G1 F1080 X123.437 Y86.667 E44.47676
G0 F1440 X122.923 Y86.719
G1 F1080 X119.251 Y83.047 E44.64948
G0 F1440 X118.685 Y83.047
G1 F1080 X122.357 Y86.719 E44.8222
G0 F1440 X121.792 Y86.719
G1 F1080 X118.12 Y83.047 E44.99491
G0 F1440 X117.554 Y83.047
G1 F1080 X121.226 Y86.719 E45.16763
G0 F1440 X120.66 Y86.719
G1 F1080 X116.988 Y83.047 E45.34035
G0 F1440 X116.423 Y83.047
G1 F1080 X120.095 Y86.719 E45.51307
G0 F1440 X119.529 Y86.719
G1 F1080 X115.857 Y83.047 E45.68579
G0 F1440 X115.291 Y83.047
G1 F1080 X118.963 Y86.719 E45.85851
G0 F1440 X118.397 Y86.719
G1 F1080 X114.725 Y83.047 E46.03123
G0 F1440 X114.16 Y83.047
G1 F1080 X117.832 Y86.719 E46.20395
G0 F1440 X117.266 Y86.719
G1 F1080 X113.594 Y83.047 E46.37667
G0 F1440 X113.028 Y83.047
G1 F1080 X116.7 Y86.719 E46.54939
G0 F1440 X116.135 Y86.719
G1 F1080 X112.463 Y83.047 E46.72211
G0 F1440 X111.897 Y83.047
G1 F1080 X115.569 Y86.719 E46.89483
G0 F1440 X115.003 Y86.719
G1 F1080 X111.331 Y83.047 E47.06755
G0 F1440 X110.766 Y83.047
G1 F1080 X114.438 Y86.719 E47.24027
G0 F1440 X113.872 Y86.719
G1 F1080 X110.2 Y83.047 E47.41299
G0 F1440 X109.634 Y83.047
G1 F1080 X113.306 Y86.719 E47.58571
G0 F1440 X112.741 Y86.719
G1 F1080 X109.069 Y83.047 E47.75843
G0 F1440 X108.503 Y83.047
G1 F1080 X112.175 Y86.719 E47.93115
G0 F1440 X111.609 Y86.719
G1 F1080 X107.937 Y83.047 E48.10387
G0 F1440 X107.372 Y83.047
G1 F1080 X111.044 Y86.719 E48.27659
G0 F1440 X110.478 Y86.719
G1 F1080 X106.806 Y83.047 E48.44931
G0 F1440 X106.24 Y83.047
G1 F1080 X109.912 Y86.719 E48.62203
G0 F1440 X109.346 Y86.719
G1 F1080 X105.674 Y83.047 E48.79475
G0 F1440 X105.109 Y83.047
G1 F1080 X108.781 Y86.719 E48.96747
G0 F1440 X108.215 Y86.719
G1 F1080 X104.543 Y83.047 E49.14019
G0 F1440 X103.977 Y83.047
G1 F1080 X107.649 Y86.719 E49.31291
G0 F1440 X107.084 Y86.719
G1 F1080 X103.412 Y83.047 E49.48563
G0 F1440 X102.846 Y83.047
G1 F1080 X106.518 Y86.719 E49.65834
G0 F1440 X105.952 Y86.719
G1 F1080 X102.28 Y83.047 E49.83106
G0 F1440 X101.715 Y83.047
G1 F1080 X105.387 Y86.719 E50.00378
G0 F1440 X104.821 Y86.719
G1 F1080 X101.149 Y83.047 E50.1765
G0 F1440 X100.583 Y83.047
G1 F1080 X104.255 Y86.719 E50.34922
G0 F1440 X103.69 Y86.719
G1 F1080 X100.018 Y83.047 E50.52194
G0 F1440 X99.452 Y83.047
G1 F1080 X103.124 Y86.719 E50.69466
G0 F1440 X102.558 Y86.719
G1 F1080 X98.886 Y83.047 E50.86738
G0 F1440 X98.321 Y83.047
G1 F1080 X101.993 Y86.719 E51.0401
G0 F1440 X101.427 Y86.719
G1 F1080 X97.755 Y83.047 E51.21282
G0 F1440 X97.189 Y83.047
G1 F1080 X100.861 Y86.719 E51.38554
G0 F1440 X100.296 Y86.719
G1 F1080 X96.624 Y83.047 E51.55826
G0 F1440 X96.058 Y83.047
G1 F1080 X99.73 Y86.719 E51.73098
G0 F1440 X99.164 Y86.719
G1 F1080 X95.492 Y83.047 E51.9037
G0 F1440 X94.926 Y83.047
G1 F1080 X98.598 Y86.719 E52.07642
G0 F1440 X98.033 Y86.719
G1 F1080 X94.361 Y83.047 E52.24914
G0 F1440 X93.795 Y83.047
G1 F1080 X97.467 Y86.719 E52.42186
G0 F1440 X96.901 Y86.719
G1 F1080 X93.229 Y83.047 E52.59458
G0 F1440 X92.664 Y83.047
G1 F1080 X96.336 Y86.719 E52.7673
G0 F1440 X95.77 Y86.719
G1 F1080 X92.098 Y83.047 E52.94002
G0 F1440 X91.532 Y83.047
G1 F1080 X95.204 Y86.719 E53.11274
G0 F1440 X94.639 Y86.719
G1 F1080 X90.967 Y83.047 E53.28546
G0 F1440 X90.401 Y83.047
G1 F1080 X94.073 Y86.719 E53.45818
G0 F1440 X93.507 Y86.719
G1 F1080 X89.835 Y83.047 E53.6309
G0 F1440 X89.27 Y83.047
G1 F1080 X92.942 Y86.719 E53.80362
G0 F1440 X92.376 Y86.719
G1 F1080 X88.704 Y83.047 E53.97634
G0 F1440 X88.584 Y82.927
G1 F1080 X43.936 Y38.279 E56.07644
G0 F1440 X43.371 Y38.279
G1 F1080 X91.81 Y86.719 E58.35489
G0 F1440 X91.245 Y86.719
G1 F1080 X42.805 Y38.279 E60.63335
G0 F1440 X42.239 Y38.279
G1 F1080 X90.679 Y86.719 E62.91182
G0 F1440 X90.113 Y86.719
G1 F1080 X41.674 Y38.279 E65.19027
G0 F1440 X41.108 Y38.279
G1 F1080 X89.548 Y86.719 E67.46874
G0 F1440 X88.982 Y86.719
G1 F1080 X40.542 Y38.279 E69.74721
G0 F1440 X39.976 Y38.279
G1 F1080 X88.416 Y86.719 E72.02568
G0 F1440 X87.85 Y86.719
G1 F1080 X39.411 Y38.279 E74.30412
G0 F1440 X38.845 Y38.279
G1 F1080 X87.285 Y86.719 E76.58259
G0 F1440 X86.719 Y86.719
G1 F1080 X38.279 Y38.279 E78.86106
G0 F1440 X37.714 Y38.279
G1 F1080 X86.153 Y86.719 E81.13951
G0 F1440 X85.588 Y86.719
G1 F1080 X37.148 Y38.279 E83.41798
G0 F1440 X36.582 Y38.279
G1 F1080 X85.022 Y86.719 E85.69644
G0 F1440 X84.456 Y86.719
G1 F1080 X36.017 Y38.279 E87.97489
G0 F1440 X35.451 Y38.279
G1 F1080 X83.891 Y86.719 E90.25336
G0 F1440 X83.325 Y86.719
G1 F1080 X34.885 Y38.279 E92.53183
G0 F1440 X34.32 Y38.279
G1 F1080 X82.759 Y86.719 E94.81027
G0 F1440 X82.194 Y86.719
G1 F1080 X33.754 Y38.279 E97.08874
G0 F1440 X33.188 Y38.279
G1 F1080 X81.628 Y86.719 E99.36721
G0 F1440 X81.062 Y86.719
G1 F1080 X32.623 Y38.279 E101.64566
G0 F1440 X32.057 Y38.279
G1 F1080 X80.497 Y86.719 E103.92413
G0 F1440 X79.931 Y86.719
G1 F1080 X31.491 Y38.279 E106.2026
G0 F1440 X30.926 Y38.279
G1 F1080 X79.365 Y86.719 E108.48104
G0 F1440 X78.799 Y86.719
G1 F1080 X30.36 Y38.279 E110.75949
G0 F1440 X29.794 Y38.279
G1 F1080 X78.234 Y86.719 E113.03796
G0 F1440 X77.668 Y86.719
G1 F1080 X29.228 Y38.279 E115.31642
G0 F1440 X28.663 Y38.279
G1 F1080 X77.102 Y86.719 E117.59487
G0 F1440 X76.537 Y86.719
G1 F1080 X28.097 Y38.279 E119.87334
G0 F1440 X27.531 Y38.279
G1 F1080 X75.971 Y86.719 E122.15181
G0 F1440 X75.405 Y86.719
G1 F1080 X26.966 Y38.279 E124.43025
G0 F1440 X26.4 Y38.279
G1 F1080 X74.84 Y86.719 E126.70872
G0 F1440 X74.274 Y86.719
G1 F1080 X25.834 Y38.279 E128.98719
G0 F1440 X25.269 Y38.279
G1 F1080 X73.708 Y86.719 E131.26564
G0 F1440 X73.143 Y86.719
G1 F1080 X24.703 Y38.279 E133.54411
G0 F1440 X24.137 Y38.279
G1 F1080 X72.577 Y86.719 E135.82258
G0 F1440 X72.011 Y86.719
G1 F1080 X23.572 Y38.279 E138.10102
G0 F1440 X23.006 Y38.279
G1 F1080 X71.446 Y86.719 E140.37949
G0 F1440 X70.88 Y86.719
G1 F1080 X22.44 Y38.279 E142.65796
G0 F1440 X21.875 Y38.279
G1 F1080 X70.314 Y86.719 E144.93641
G0 F1440 X69.749 Y86.719
G1 F1080 X21.309 Y38.279 E147.21487
G0 F1440 X20.743 Y38.279
G1 F1080 X69.183 Y86.719 E149.49334
G0 F1440 X68.617 Y86.719
G1 F1080 X20.177 Y38.279 E151.77181
G0 F1440 X19.612 Y38.279
G1 F1080 X68.051 Y86.719 E154.05026
G0 F1440 X67.486 Y86.719
G1 F1080 X19.046 Y38.279 E156.32873
G0 F1440 X18.48 Y38.279
G1 F1080 X66.92 Y86.719 E158.6072
G0 F1440 X66.354 Y86.719
G1 F1080 X17.915 Y38.279 E160.88564
G0 F1440 X17.349 Y38.279
G1 F1080 X65.789 Y86.719 E163.16411
G0 F1440 X65.223 Y86.719
G1 F1080 X16.783 Y38.279 E165.44258
G0 F1440 X16.218 Y38.279
G1 F1080 X64.657 Y86.719 E167.72103
G0 F1440 X64.092 Y86.719
G1 F1080 X15.652 Y38.279 E169.99949
G0 F1440 X15.086 Y38.279
G1 F1080 X63.526 Y86.719 E172.27796
G0 F1440 X62.96 Y86.719
G1 F1080 X14.521 Y38.279 E174.55641
G0 F1440 X13.955 Y38.279
G1 F1080 X62.394 Y86.718 E176.83483
G0 F1440 X61.828 Y86.718
G1 F1080 X13.389 Y38.279 E179.11325
G0 F1440 X12.824 Y38.279
G1 F1080 X61.263 Y86.718 E181.39168
G0 F1440 X60.697 Y86.718
G1 F1080 X12.258 Y38.279 E183.6701
G0 F1440 X11.692 Y38.279
G1 F1080 X60.131 Y86.718 E185.94852
G0 F1440 X59.565 Y86.718
G1 F1080 X11.127 Y38.279 E188.22692
G0 F1440 X10.561 Y38.279
G1 F1080 X59 Y86.718 E190.50534
G0 F1440 X58.434 Y86.718
G1 F1080 X9.995 Y38.279 E192.78376
G0 F1440 X9.429 Y38.279
G1 F1080 X57.868 Y86.718 E195.06218
G0 F1440 X57.303 Y86.718
G1 F1080 X8.864 Y38.279 E197.34061
G0 F1440 X8.298 Y38.279
G1 F1080 X56.737 Y86.718 E199.61903
G0 F1440 X56.171 Y86.718
G1 F1080 X7.732 Y38.279 E201.89745
G0 F1440 X7.167 Y38.279
G1 F1080 X55.606 Y86.718 E204.17587
G0 F1440 X55.04 Y86.718
G1 F1080 X6.601 Y38.279 E206.45429
G0 F1440 X6.035 Y38.279
G1 F1080 X54.474 Y86.718 E208.73272
G0 F1440 X53.909 Y86.718
G1 F1080 X5.47 Y38.279 E211.01114
G0 F1440 X4.904 Y38.279
G1 F1080 X53.343 Y86.718 E213.28956
G0 F1440 X52.777 Y86.718
G1 F1080 X4.338 Y38.279 E215.56798
G0 F1440 X3.773 Y38.279
G1 F1080 X52.212 Y86.718 E217.8464
G0 F1440 X51.646 Y86.718
G1 F1080 X3.207 Y38.279 E220.12483
G0 F1440 X2.641 Y38.279
G1 F1080 X51.08 Y86.718 E222.40325
G0 F1440 X50.515 Y86.718
G1 F1080 X2.076 Y38.279 E224.68167
G0 F1440 X1.561 Y38.331
G1 F1080 X49.949 Y86.718 E226.95767
G0 F1440 X49.383 Y86.718
G1 F1080 X1.561 Y38.897 E229.20705
G0 F1440 X1.561 Y39.462
G1 F1080 X48.817 Y86.718 E231.42982
G0 F1440 X48.252 Y86.718
G1 F1080 X1.561 Y40.028 E233.626
G0 F1440 X1.561 Y40.594
G1 F1080 X47.686 Y86.718 E235.79556
G0 F1440 X47.12 Y86.718
G1 F1080 X1.561 Y41.159 E237.93851
G0 F1440 X1.561 Y41.725
G1 F1080 X46.555 Y86.718 E240.05487
G0 F1440 X45.989 Y86.718
G1 F1080 X1.561 Y42.291 E242.1446
G0 F1440 X1.561 Y42.857
G1 F1080 X45.423 Y86.718 E244.20771
G0 F1440 X44.858 Y86.718
G1 F1080 X1.561 Y43.422 E246.24425
G0 F1440 X1.561 Y43.988
G1 F1080 X44.292 Y86.718 E248.25416
G0 F1440 X43.726 Y86.718
G1 F1080 X1.561 Y44.554 E250.23745
G0 F1440 X1.561 Y45.119
G1 F1080 X43.161 Y86.718 E252.19416
G0 F1440 X42.595 Y86.718
G1 F1080 X1.561 Y45.685 E254.12425
G0 F1440 X1.561 Y46.251
G1 F1080 X42.029 Y86.718 E256.02772
G0 F1440 X41.464 Y86.718
G1 F1080 X1.561 Y46.816 E257.90461
G0 F1440 X1.561 Y47.382
G1 F1080 X40.898 Y86.718 E259.75488
G0 F1440 X40.332 Y86.718
G1 F1080 X1.561 Y47.948 E261.57852
G0 F1440 X1.561 Y48.513
G1 F1080 X39.766 Y86.718 E263.37557
G0 F1440 X39.201 Y86.718
G1 F1080 X1.561 Y49.079 E265.14602
G0 F1440 X1.561 Y49.645
G1 F1080 X38.635 Y86.718 E266.88984
G0 F1440 X38.069 Y86.718
G1 F1080 X1.561 Y50.21 E268.60706
G0 F1440 X1.561 Y50.776
