;FLAVOR:Marlin
;TIME:9731
;Filament used: 5.35376m
;Layer height: 0.16
;MINX:10.921
;MINY:4.837
;MINZ:0.2
;MAXX:114.05
;MAXY:120.162
;MAXZ:1.96
;Generated with Cura_SteamEngine 4.12.1
M82 ;absolute extrusion mode
M104 S208.0 ;Set Hotend Temperature
M140 S58.0 ;Set Bed Temperature
G28 ;home
G90 ;absolute positioning
G1 X-10 Y-10 F3000 ;Move to corner 
G1 Z0 F1800 ;Go to zero offset
M109 S208.0 ;Wait for Hotend Temperature
M190 S58.0 ;Wait for Bed Temperature
G92 E0 ;Zero set extruder position
G1 E20 F200 ;Feed filament to clear nozzle
G92 E0 ;Zero set extruder position
G92 E0
G92 E0
G1 F1500 E-6.5
;LAYER_COUNT:12
;LAYER:0
M107
;MESH:Konturlehre_Sled_2mm.stl(6)
G0 F1440 X22.721 Y93.449 Z0.2
;TYPE:WALL-INNER
G1 F1500 E0
G1 F1080 X25.721 Y93.449 E0.09978
G1 X25.721 Y101.005 E0.35109
G1 X11.809 Y95.787 E0.84529
G1 X11.721 Y95.702 E0.84935
G1 X11.721 Y93.449 E0.92429
G1 X14.721 Y93.449 E1.02407
G1 X14.721 Y31.449 E3.0862
G1 X11.721 Y31.449 E3.18598
G1 X11.721 Y23.893 E3.43729
G1 X25.633 Y29.111 E3.93148
G1 X25.721 Y29.2 E3.93565
G1 X25.721 Y31.449 E4.01045
G1 X22.721 Y31.449 E4.11023
G1 X22.721 Y93.449 E6.17236
G0 F1440 X23.121 Y93.049
G1 F1080 X26.121 Y93.049 E6.27214
G1 X26.121 Y101.583 E6.55598
G1 X11.628 Y96.147 E7.07081
G1 X11.423 Y96.011 E7.07899
G1 X11.326 Y95.801 E7.08669
G1 X11.321 Y95.73 E7.08905
G1 X11.321 Y93.049 E7.17823
G1 X14.321 Y93.049 E7.27801
G1 X14.321 Y31.849 E9.31353
G1 X11.321 Y31.849 E9.41331
G1 X11.321 Y23.315 E9.69715
G1 X25.812 Y28.75 E10.21191
G1 X26.004 Y28.876 E10.21954
G1 X26.101 Y29.041 E10.22591
G1 X26.121 Y29.171 E10.23028
G1 X26.121 Y31.849 E10.31936
G1 X23.121 Y31.849 E10.41914
G1 X23.121 Y93.049 E12.45466
G0 F1440 X23.521 Y92.649
;TYPE:WALL-OUTER
G1 F1080 X26.521 Y92.649 E12.55444
G1 X26.521 Y102.161 E12.87081
G1 X11.444 Y96.506 E13.40638
G1 X11.137 Y96.301 E13.41866
G1 X11 Y96.101 E13.42672
G1 X10.93 Y95.876 E13.43456
G1 X10.921 Y95.742 E13.43903
G1 X10.921 Y92.649 E13.5419
G1 X13.921 Y92.649 E13.64168
G1 X13.921 Y32.249 E15.65059
G1 X10.921 Y32.249 E15.75037
G1 X10.921 Y22.737 E16.06674
G1 X25.994 Y28.391 E16.60218
G1 X26.301 Y28.592 E16.61439
G1 X26.484 Y28.904 E16.62642
G1 X26.521 Y29.142 E16.63443
G1 X26.521 Y32.249 E16.73777
G1 X23.521 Y32.249 E16.83755
G1 X23.521 Y92.649 E18.84646
G0 F1440 X23.721 Y92.649
G0 X23.721 Y93.149
G0 X11.9 Y95.056
;TYPE:SKIN
G1 F1080 X12.817 Y95.972 E18.88957
G1 X12.887 Y96.042
G0 F1440 X13.722 Y96.312
G1 F1080 X11.9 Y94.49 E18.97527
G0 F1440 X11.9 Y93.924
G1 F1080 X14.627 Y96.651 E19.10354
G1 X14.697 Y96.721
G0 F1440 X15.532 Y96.991
G1 F1080 X12.17 Y93.628 E19.2617
G0 F1440 X12.735 Y93.628
G1 F1080 X16.437 Y97.33 E19.43584
G1 X16.507 Y97.4
G0 F1440 X17.342 Y97.669
G1 F1080 X13.301 Y93.628 E19.62591
G0 F1440 X13.867 Y93.628
G1 F1080 X18.247 Y98.009 E19.83196
G1 X18.317 Y98.079
G0 F1440 X19.152 Y98.348
G1 F1080 X14.432 Y93.628 E20.05397
G0 F1440 X14.9 Y93.531
G1 F1080 X20.057 Y98.688 E20.29654
G1 X20.127 Y98.758
G0 F1440 X20.962 Y99.027
G1 F1080 X14.9 Y92.965 E20.58168
G0 F1440 X14.9 Y92.399
G1 F1080 X21.868 Y99.367 E20.90943
G1 X21.938 Y99.437
G0 F1440 X22.773 Y99.707
G1 F1080 X14.9 Y91.834 E21.27975
G0 F1440 X14.9 Y91.268
G1 F1080 X23.678 Y100.046 E21.69264
G1 X23.748 Y100.116
G0 F1440 X24.583 Y100.385
G1 F1080 X14.9 Y90.702 E22.1481
G0 F1440 X14.9 Y90.137
G1 F1080 X25.489 Y100.725 E22.64615
G0 F1440 X25.541 Y100.211
G1 F1080 X14.9 Y89.571 E23.14665
G0 F1440 X14.9 Y89.005
G1 F1080 X25.541 Y99.646 E23.64717
G0 F1440 X25.541 Y99.08
G1 F1080 X14.9 Y88.439 E24.14769
G0 F1440 X14.9 Y87.874
G1 F1080 X25.541 Y98.514 E24.64819
G0 F1440 X25.541 Y97.949
G1 F1080 X14.9 Y87.308 E25.14871
G0 F1440 X14.9 Y86.742
G1 F1080 X25.541 Y97.383 E25.64923
G0 F1440 X25.541 Y96.817
G1 F1080 X14.9 Y86.177 E26.14972
G0 F1440 X14.9 Y85.611
G1 F1080 X22.541 Y93.251 E26.50911
G0 F1440 X22.917 Y93.628
G1 F1080 X25.541 Y96.252 E26.63253
G0 F1440 X25.541 Y95.686
G1 F1080 X23.483 Y93.628 E26.72934
G0 F1440 X24.048 Y93.628
G1 F1080 X25.541 Y95.12 E26.79954
G0 F1440 X25.541 Y94.555
G1 F1080 X24.614 Y93.628 E26.84314
G0 F1440 X25.18 Y93.628
G1 F1080 X25.541 Y93.989 E26.86012
G0 F1440 X23.093 Y93.077
G0 X22.541 Y92.686
G1 F1080 X14.9 Y85.045 E27.21953
G0 F1440 X14.9 Y84.48
G1 F1080 X22.541 Y92.12 E27.57892
G0 F1440 X22.541 Y91.554
G1 F1080 X14.9 Y83.914 E27.9383
G0 F1440 X14.9 Y83.348
G1 F1080 X22.541 Y90.989 E28.29771
G0 F1440 X22.541 Y90.423
G1 F1080 X14.9 Y82.783 E28.6571
G0 F1440 X14.9 Y82.217
G1 F1080 X22.541 Y89.857 E29.01648
G0 F1440 X22.541 Y89.292
G1 F1080 X14.9 Y81.651 E29.37589
G0 F1440 X14.9 Y81.086
G1 F1080 X22.541 Y88.726 E29.73528
G0 F1440 X22.541 Y88.16
G1 F1080 X14.9 Y80.52 E30.09466
G0 F1440 X14.9 Y79.954
G1 F1080 X22.541 Y87.594 E30.45405
G0 F1440 X22.541 Y87.029
G1 F1080 X14.9 Y79.388 E30.81346
G0 F1440 X14.9 Y78.823
G1 F1080 X22.541 Y86.463 E31.17284
G0 F1440 X22.541 Y85.897
G1 F1080 X14.9 Y78.257 E31.53223
G0 F1440 X14.9 Y77.691
G1 F1080 X22.541 Y85.332 E31.89164
G0 F1440 X22.541 Y84.766
G1 F1080 X14.9 Y77.126 E32.25102
G0 F1440 X14.9 Y76.56
G1 F1080 X22.541 Y84.2 E32.61041
G0 F1440 X22.541 Y83.635
G1 F1080 X14.9 Y75.994 E32.96982
G0 F1440 X14.9 Y75.429
G1 F1080 X22.541 Y83.069 E33.3292
G0 F1440 X22.541 Y82.503
G1 F1080 X14.9 Y74.863 E33.68859
G0 F1440 X14.9 Y74.297
G1 F1080 X22.541 Y81.938 E34.048
G0 F1440 X22.541 Y81.372
G1 F1080 X14.9 Y73.732 E34.40739
G0 F1440 X14.9 Y73.166
G1 F1080 X22.541 Y80.806 E34.76677
G0 F1440 X22.541 Y80.241
G1 F1080 X14.9 Y72.6 E35.12618
G0 F1440 X14.9 Y72.035
G1 F1080 X22.541 Y79.675 E35.48557
G0 F1440 X22.541 Y79.109
G1 F1080 X14.9 Y71.469 E35.84495
G0 F1440 X14.9 Y70.903
G1 F1080 X22.541 Y78.544 E36.20436
G0 F1440 X22.541 Y77.978
G1 F1080 X14.9 Y70.338 E36.56375
G0 F1440 X14.9 Y69.772
G1 F1080 X22.541 Y77.412 E36.92313
G0 F1440 X22.541 Y76.846
G1 F1080 X14.9 Y69.206 E37.28252
G0 F1440 X14.9 Y68.64
G1 F1080 X22.541 Y76.281 E37.64193
G0 F1440 X22.541 Y75.715
G1 F1080 X14.9 Y68.075 E38.00131
G0 F1440 X14.9 Y67.509
G1 F1080 X22.541 Y75.149 E38.3607
G0 F1440 X22.541 Y74.584
G1 F1080 X14.9 Y66.943 E38.72011
G0 F1440 X14.9 Y66.378
G1 F1080 X22.541 Y74.018 E39.07949
G0 F1440 X22.541 Y73.452
G1 F1080 X14.9 Y65.812 E39.43888
G0 F1440 X14.9 Y65.246
G1 F1080 X22.541 Y72.887 E39.79829
G0 F1440 X22.541 Y72.321
G1 F1080 X14.9 Y64.681 E40.15767
G0 F1440 X14.9 Y64.115
G1 F1080 X22.541 Y71.755 E40.51706
G0 F1440 X22.541 Y71.19
G1 F1080 X14.9 Y63.549 E40.87647
G0 F1440 X14.9 Y62.984
G1 F1080 X22.541 Y70.624 E41.23585
G0 F1440 X22.541 Y70.058
G1 F1080 X14.9 Y62.418 E41.59524
G0 F1440 X14.9 Y61.852
G1 F1080 X22.541 Y69.493 E41.95465
G0 F1440 X22.541 Y68.927
G1 F1080 X14.9 Y61.287 E42.31404
G0 F1440 X14.9 Y60.721
G1 F1080 X22.541 Y68.361 E42.67342
G0 F1440 X22.541 Y67.795
G1 F1080 X14.9 Y60.155 E43.03281
G0 F1440 X14.9 Y59.59
G1 F1080 X22.541 Y67.23 E43.39219
G0 F1440 X22.541 Y66.664
G1 F1080 X14.9 Y59.024 E43.75158
G0 F1440 X14.9 Y58.458
G1 F1080 X22.541 Y66.098 E44.11096
G0 F1440 X22.541 Y65.533
G1 F1080 X14.9 Y57.892 E44.47037
G0 F1440 X14.9 Y57.327
G1 F1080 X22.541 Y64.967 E44.82976
G0 F1440 X22.541 Y64.401
G1 F1080 X14.9 Y56.761 E45.18914
G0 F1440 X14.9 Y56.195
G1 F1080 X22.541 Y63.836 E45.54855
G0 F1440 X22.541 Y63.27
G1 F1080 X14.9 Y55.63 E45.90794
G0 F1440 X14.9 Y55.064
G1 F1080 X22.541 Y62.704 E46.26733
G0 F1440 X22.541 Y62.139
G1 F1080 X14.9 Y54.498 E46.62673
G0 F1440 X14.9 Y53.933
G1 F1080 X22.541 Y61.573 E46.98612
G0 F1440 X22.541 Y61.007
G1 F1080 X14.9 Y53.367 E47.34551
G0 F1440 X14.9 Y52.801
G1 F1080 X22.541 Y60.442 E47.70492
G0 F1440 X22.541 Y59.876
G1 F1080 X14.9 Y52.236 E48.0643
G0 F1440 X14.9 Y51.67
G1 F1080 X22.541 Y59.31 E48.42369
G0 F1440 X22.541 Y58.745
G1 F1080 X14.9 Y51.104 E48.7831
G0 F1440 X14.9 Y50.539
G1 F1080 X22.541 Y58.179 E49.14248
G0 F1440 X22.541 Y57.613
G1 F1080 X14.9 Y49.973 E49.50187
G0 F1440 X14.9 Y49.407
G1 F1080 X22.541 Y57.047 E49.86125
G0 F1440 X22.541 Y56.482
G1 F1080 X14.9 Y48.841 E50.22066
G0 F1440 X14.9 Y48.276
G1 F1080 X22.541 Y55.916 E50.58005
G0 F1440 X22.541 Y55.35
G1 F1080 X14.9 Y47.71 E50.93943
G0 F1440 X14.9 Y47.144
G1 F1080 X22.541 Y54.785 E51.29884
G0 F1440 X22.541 Y54.219
G1 F1080 X14.9 Y46.579 E51.65823
G0 F1440 X14.9 Y46.013
G1 F1080 X22.541 Y53.653 E52.01761
G0 F1440 X22.541 Y53.088
G1 F1080 X14.9 Y45.447 E52.37702
G0 F1440 X14.9 Y44.882
G1 F1080 X22.541 Y52.522 E52.73641
G0 F1440 X22.541 Y51.956
G1 F1080 X14.9 Y44.316 E53.09579
G0 F1440 X14.9 Y43.75
G1 F1080 X22.541 Y51.391 E53.4552
G0 F1440 X22.541 Y50.825
G1 F1080 X14.9 Y43.185 E53.81459
G0 F1440 X14.9 Y42.619
G1 F1080 X22.541 Y50.259 E54.17398
G0 F1440 X22.541 Y49.694
G1 F1080 X14.9 Y42.053 E54.53338
G0 F1440 X14.9 Y41.488
G1 F1080 X22.541 Y49.128 E54.89277
G0 F1440 X22.541 Y48.562
G1 F1080 X14.9 Y40.922 E55.25216
G0 F1440 X14.9 Y40.356
G1 F1080 X22.541 Y47.996 E55.61154
G0 F1440 X22.541 Y47.431
G1 F1080 X14.9 Y39.791 E55.97093
G0 F1440 X14.9 Y39.225
G1 F1080 X22.541 Y46.865 E56.33031
G0 F1440 X22.541 Y46.299
G1 F1080 X14.9 Y38.659 E56.6897
G0 F1440 X14.9 Y38.093
G1 F1080 X22.541 Y45.734 E57.04911
G0 F1440 X22.541 Y45.168
G1 F1080 X14.9 Y37.528 E57.40849
G0 F1440 X14.9 Y36.962
G1 F1080 X22.541 Y44.602 E57.76788
G0 F1440 X22.541 Y44.037
G1 F1080 X14.9 Y36.396 E58.12729
G0 F1440 X14.9 Y35.831
G1 F1080 X22.541 Y43.471 E58.48667
G0 F1440 X22.541 Y42.905
G1 F1080 X14.9 Y35.265 E58.84606
G0 F1440 X14.9 Y34.699
G1 F1080 X22.541 Y42.34 E59.20547
G0 F1440 X22.541 Y41.774
G1 F1080 X14.9 Y34.134 E59.56485
G0 F1440 X14.9 Y33.568
G1 F1080 X22.541 Y41.208 E59.92424
G0 F1440 X22.541 Y40.643
G1 F1080 X14.9 Y33.002 E60.28365
G0 F1440 X14.9 Y32.437
G1 F1080 X22.541 Y40.077 E60.64304
G0 F1440 X22.541 Y39.511
G1 F1080 X14.9 Y31.871 E61.00242
G0 F1440 X14.9 Y31.305
G1 F1080 X22.541 Y38.946 E61.36183
G0 F1440 X22.541 Y38.38
G1 F1080 X11.9 Y27.739 E61.86235
G0 F1440 X11.9 Y27.174
G1 F1080 X22.541 Y37.814 E62.36285
G0 F1440 X22.541 Y37.248
G1 F1080 X11.9 Y26.608 E62.86334
G0 F1440 X11.9 Y26.042
G1 F1080 X22.541 Y36.683 E63.36386
G0 F1440 X22.541 Y36.117
G1 F1080 X11.9 Y25.477 E63.86436
G0 F1440 X11.9 Y24.911
G1 F1080 X22.541 Y35.551 E64.36486
G0 F1440 X22.541 Y34.986
G1 F1080 X11.9 Y24.345 E64.86538
G0 F1440 X12.494 Y24.373
G1 F1080 X22.541 Y34.42 E65.33796
G0 F1440 X22.541 Y33.854
G1 F1080 X13.399 Y24.713 E65.76794
G1 X13.329 Y24.643
G0 F1440 X14.304 Y25.052
G1 F1080 X22.541 Y33.289 E66.15539
G0 F1440 X22.541 Y32.723
G1 F1080 X15.21 Y25.392 E66.50022
G1 X15.14 Y25.322
G0 F1440 X16.115 Y25.732
G1 F1080 X22.541 Y32.157 E66.80245
G0 F1440 X22.541 Y31.592
G1 F1080 X17.02 Y26.071 E67.06214
G1 X16.95 Y26.001
G0 F1440 X17.925 Y26.411
G1 F1080 X22.782 Y31.268 E67.2906
G0 F1440 X23.348 Y31.268
G1 F1080 X18.83 Y26.75 E67.50311
G1 X18.76 Y26.68
G0 F1440 X19.736 Y27.089
G1 F1080 X23.914 Y31.268 E67.69966
G0 F1440 X24.48 Y31.268
G1 F1080 X20.641 Y27.43 E67.88021
G1 X20.571 Y27.36
G0 F1440 X21.546 Y27.769
G1 F1080 X25.045 Y31.268 E68.04479
G0 F1440 X25.54 Y31.197
G1 F1080 X22.452 Y28.108 E68.19006
G1 X22.382 Y28.038
G0 F1440 X23.357 Y28.448
G1 F1080 X25.54 Y30.631 E68.29275
G0 F1440 X25.54 Y30.066
G1 F1080 X24.262 Y28.787 E68.35288
G1 X24.192 Y28.717
G0 F1440 X25.167 Y29.127
G1 F1080 X25.54 Y29.5 E68.37043
G0 F1440 X14.863 Y31.268
G1 F1080 X11.9 Y28.305 E68.5098
G0 F1440 X11.9 Y28.871
G1 F1080 X14.297 Y31.268 E68.62255
G0 F1440 X13.732 Y31.268
G1 F1080 X11.9 Y29.436 E68.70872
G0 F1440 X11.9 Y30.002
G1 F1080 X13.166 Y31.268 E68.76827
G0 F1440 X12.6 Y31.268
G1 F1080 X11.9 Y30.568 E68.80119
G0 F1440 X11.9 Y31.133
G1 F1080 X12.034 Y31.268 E68.80752
G1 F1500 E62.30752
;MESH:Konturlehre_Sled_2mm.stl(4)
G0 F1440 X14.349 Y31.821
G0 X23.107 Y93.063
G0 X24.374 Y91.796
G0 X27.374 Y91.796
G0 X27.585 Y93.164
G0 X28.864 Y93.164
G0 X40.25 Y93.55
;TYPE:WALL-INNER
G1 F1500 E68.80752
G1 F1080 X43.25 Y93.55 E68.9073
G1 X43.25 Y101.106 E69.15861
G1 X29.336 Y95.888 E69.65287
G1 X29.25 Y95.766 E69.65783
G1 X29.25 Y93.55 E69.73153
G1 X32.25 Y93.55 E69.83132
G1 X32.25 Y31.55 E71.89344
G1 X29.25 Y31.55 E71.99322
G1 X29.25 Y23.994 E72.24454
G1 X43.164 Y29.212 E72.73879
G1 X43.25 Y29.329 E72.74362
G1 X43.25 Y31.55 E72.81749
G1 X40.25 Y31.55 E72.91727
G1 X40.25 Y93.55 E74.9794
G0 F1440 X40.65 Y93.15
G1 F1080 X43.65 Y93.15 E75.07918
G1 X43.65 Y101.684 E75.36302
G1 X29.143 Y96.243 E75.87835
G1 X28.933 Y96.089 E75.88701
G1 X28.85 Y95.83 E75.89606
G1 X28.85 Y93.15 E75.98519
G1 X31.85 Y93.15 E76.08497
G1 X31.85 Y31.95 E78.12049
G1 X28.85 Y31.95 E78.22027
G1 X28.85 Y23.416 E78.50412
G1 X43.357 Y28.857 E79.01944
G1 X43.575 Y29.02 E79.0285
G1 X43.65 Y29.272 E79.03724
G1 X43.65 Y31.95 E79.12631
G1 X40.65 Y31.95 E79.22609
G1 X40.65 Y93.15 E81.26161
G0 F1440 X41.05 Y92.75
;TYPE:WALL-OUTER
G1 F1080 X44.05 Y92.75 E81.36139
G1 X44.05 Y102.262 E81.67776
G1 X28.977 Y96.608 E82.2132
G1 X28.762 Y96.49 E82.22136
G1 X28.589 Y96.306 E82.22976
G1 X28.459 Y95.977 E82.24152
G1 X28.45 Y95.843 E82.24599
G1 X28.45 Y92.75 E82.34887
G1 X31.45 Y92.75 E82.44865
G1 X31.45 Y32.35 E84.45756
G1 X28.45 Y32.35 E84.55734
G1 X28.45 Y22.838 E84.87371
G1 X43.523 Y28.492 E85.40915
G1 X43.74 Y28.613 E85.41741
G1 X43.909 Y28.791 E85.42558
G1 X44.013 Y29.005 E85.43349
G1 X44.05 Y29.243 E85.4415
G1 X44.05 Y32.35 E85.54484
G1 X41.05 Y32.35 E85.64462
G1 X41.05 Y92.75 E87.65353
G0 F1440 X41.25 Y92.75
G0 X41.25 Y93.25
G0 X29.429 Y95.614
;TYPE:SKIN
G1 F1080 X29.614 Y95.799 E87.66223
G0 F1440 X29.429 Y95.049
G1 F1080 X30.519 Y96.138 E87.71348
G1 X30.589 Y96.208
G0 F1440 X31.424 Y96.478
G1 F1080 X29.429 Y94.483 E87.80732
G0 F1440 X29.429 Y93.917
G1 F1080 X32.329 Y96.817 E87.94373
G1 X32.399 Y96.887
G0 F1440 X33.234 Y97.157
G1 F1080 X29.806 Y93.729 E88.10497
G0 F1440 X30.372 Y93.729
G1 F1080 X34.14 Y97.497 E88.2822
G1 X34.21 Y97.567
G0 F1440 X35.045 Y97.836
G1 F1080 X30.938 Y93.729 E88.47539
G0 F1440 X31.503 Y93.729
G1 F1080 X35.95 Y98.176 E88.68456
G1 X36.02 Y98.246
G0 F1440 X36.855 Y98.515
G1 F1080 X32.069 Y93.729 E88.90968
G0 F1440 X32.429 Y93.523
G1 F1080 X37.76 Y98.854 E89.16043
G1 X37.83 Y98.924
G0 F1440 X38.666 Y99.194
G1 F1080 X32.429 Y92.957 E89.4538
G0 F1440 X32.429 Y92.391
G1 F1080 X39.571 Y99.533 E89.78974
G1 X39.641 Y99.603
G0 F1440 X40.476 Y99.873
G1 F1080 X32.429 Y91.826 E90.16824
G0 F1440 X32.429 Y91.26
G1 F1080 X41.381 Y100.212 E90.58932
G1 X41.451 Y100.282
G0 F1440 X42.286 Y100.551
G1 F1080 X32.429 Y90.694 E91.05296
G0 F1440 X32.429 Y90.129
G1 F1080 X43.069 Y100.769 E91.55343
G0 F1440 X43.069 Y100.204
G1 F1080 X32.429 Y89.563 E92.05393
G0 F1440 X32.429 Y88.997
G1 F1080 X43.069 Y99.638 E92.55443
G0 F1440 X43.069 Y99.072
G1 F1080 X32.429 Y88.432 E93.0549
G0 F1440 X32.429 Y87.866
G1 F1080 X43.069 Y98.507 E93.5554
G0 F1440 X43.069 Y97.941
G1 F1080 X32.429 Y87.3 E94.05589
G0 F1440 X32.429 Y86.735
G1 F1080 X43.069 Y97.375 E94.55637
G0 F1440 X43.069 Y96.809
G1 F1080 X32.429 Y86.169 E95.05684
G0 F1440 X32.429 Y85.603
G1 F1080 X40.069 Y93.244 E95.41623
G0 F1440 X40.069 Y92.678
G1 F1080 X32.429 Y85.038 E95.77559
G0 F1440 X32.429 Y84.472
G1 F1080 X40.069 Y92.112 E96.13495
G0 F1440 X40.069 Y91.546
G1 F1080 X32.429 Y83.906 E96.49431
G0 F1440 X32.429 Y83.341
G1 F1080 X40.069 Y90.981 E96.85367
G0 F1440 X40.069 Y90.415
G1 F1080 X32.429 Y82.775 E97.21304
G0 F1440 X32.429 Y82.209
G1 F1080 X40.069 Y89.849 E97.5724
G0 F1440 X40.069 Y89.284
G1 F1080 X32.429 Y81.643 E97.93178
G0 F1440 X32.429 Y81.078
G1 F1080 X40.069 Y88.718 E98.29115
G0 F1440 X40.069 Y88.152
G1 F1080 X32.429 Y80.512 E98.65051
G0 F1440 X32.429 Y79.946
G1 F1080 X40.069 Y87.587 E99.00989
G0 F1440 X40.069 Y87.021
G1 F1080 X32.429 Y79.381 E99.36926
G0 F1440 X32.429 Y78.815
G1 F1080 X40.069 Y86.455 E99.72862
G0 F1440 X40.069 Y85.89
G1 F1080 X32.429 Y78.249 E100.088
G0 F1440 X32.429 Y77.684
G1 F1080 X40.069 Y85.324 E100.44737
G0 F1440 X40.069 Y84.758
G1 F1080 X32.429 Y77.118 E100.80673
G0 F1440 X32.429 Y76.552
G1 F1080 X40.069 Y84.193 E101.16611
G0 F1440 X40.069 Y83.627
G1 F1080 X32.429 Y75.987 E101.52548
G0 F1440 X32.429 Y75.421
G1 F1080 X40.069 Y83.061 E101.88484
G0 F1440 X40.069 Y82.496
G1 F1080 X32.429 Y74.855 E102.24422
G0 F1440 X32.429 Y74.29
G1 F1080 X40.069 Y81.93 E102.60359
G0 F1440 X40.069 Y81.364
G1 F1080 X32.429 Y73.724 E102.96295
G0 F1440 X32.429 Y73.158
