;FLAVOR:Marlin
;TIME:896
;Filament used: 0.394153m
;Layer height: 0.16
;MINX:54.383
;MINY:49.428
;MINZ:0.2
;MAXX:70.606
;MAXY:77.15
;MAXZ:5
;Generated with Cura_SteamEngine 4.12.1
M82 ;absolute extrusion mode
M104 S208.0 ;Set Hotend Temperature
M140 S58.0 ;Set Bed Temperature
G28 ;home
G90 ;absolute positioning
G1 X-10 Y-10 F3000 ;Move to corner 
G1 Z0 F1800 ;Go to zero offset
M109 S208.0 ;Wait for Hotend Temperature
M190 S58.0 ;Wait for Bed Temperature
G92 E0 ;Zero set extruder position
G1 E20 F200 ;Feed filament to clear nozzle
G92 E0 ;Zero set extruder position
G92 E0
G92 E0
G1 F1500 E-6.5
;LAYER_COUNT:31
;LAYER:0
M107
;MESH:fit-test1.stl
G0 F1440 X67.8 Y70.424 Z0.2
;TYPE:WALL-INNER
G1 F1500 E0
G1 F1080 X68.587 Y70.931 E0.03114
G1 X68.981 Y71.275 E0.04853
G1 X69.299 Y71.67 E0.0654
G1 X69.551 Y72.121 E0.08258
G1 X69.718 Y72.595 E0.0993
G1 X69.805 Y73.115 E0.11683
G1 X69.801 Y73.634 E0.1341
G1 X69.708 Y74.144 E0.15134
G1 X69.536 Y74.613 E0.16795
G1 X69.265 Y75.083 E0.186
G1 X69.083 Y75.315 E0.19581
G1 X68.697 Y75.685 E0.21359
G1 X68.271 Y75.971 E0.23066
G1 X67.812 Y76.176 E0.24738
G1 X67.301 Y76.307 E0.26492
G1 X66.785 Y76.346 E0.28213
G1 X66.284 Y76.298 E0.29887
G1 X65.776 Y76.16 E0.31638
G1 X65.312 Y75.943 E0.33342
G1 X64.898 Y75.653 E0.35023
G1 X64.532 Y75.289 E0.3674
G1 X64.236 Y74.87 E0.38446
G1 X64.014 Y74.407 E0.40154
G1 X63.874 Y73.911 E0.41868
G1 X63.821 Y73.393 E0.436
G1 X63.855 Y72.9 E0.45243
G1 X63.982 Y72.38 E0.47024
G1 X64.188 Y71.913 E0.48721
G1 X64.446 Y71.522 E0.5028
G1 X64.757 Y71.518 E0.51314
G1 X65.389 Y71.358 E0.53482
G1 X65.973 Y71.008 E0.55747
G1 X66.424 Y70.502 E0.58001
G1 X66.711 Y69.892 E0.60244
G1 X66.8 Y69.291 E0.62264
G1 X66.8 Y53.455 E1.14935
G1 X66.706 Y52.848 E1.16978
G1 X66.414 Y52.239 E1.19224
G1 X65.958 Y51.737 E1.2148
G1 X65.374 Y51.393 E1.23734
G1 X64.764 Y51.239 E1.25827
G1 X64.524 Y51.228 E1.26626
G1 X60.427 Y51.228 E1.40253
G1 X59.82 Y51.322 E1.42296
G1 X59.211 Y51.614 E1.44542
G1 X58.709 Y52.07 E1.46798
G1 X58.365 Y52.654 E1.49052
G1 X58.211 Y53.264 E1.51144
G1 X58.2 Y53.504 E1.51943
G1 X58.2 Y69.299 E2.04478
G1 X58.294 Y69.907 E2.06524
G1 X58.586 Y70.517 E2.08773
G1 X59.042 Y71.019 E2.11029
G1 X59.627 Y71.364 E2.13288
G1 X60.25 Y71.519 E2.15423
G1 X60.547 Y71.523 E2.16411
G1 X60.633 Y71.627 E2.1686
G1 X60.897 Y72.083 E2.18613
G1 X61.076 Y72.57 E2.20338
G1 X61.164 Y73.053 E2.21971
G1 X61.171 Y73.577 E2.23714
G1 X61.087 Y74.083 E2.2542
G1 X60.92 Y74.566 E2.2712
G1 X60.672 Y75.018 E2.28835
G1 X60.349 Y75.42 E2.3055
G1 X59.966 Y75.758 E2.32249
G1 X59.527 Y76.029 E2.33965
G1 X59.05 Y76.217 E2.3567
G1 X58.538 Y76.324 E2.3741
G1 X58.021 Y76.343 E2.3913
G1 X57.53 Y76.276 E2.40779
G1 X57.033 Y76.118 E2.42513
G1 X56.58 Y75.882 E2.44212
G1 X56.167 Y75.569 E2.45936
G1 X55.814 Y75.187 E2.47666
G1 X55.542 Y74.77 E2.49322
G1 X55.335 Y74.285 E2.51075
G1 X55.218 Y73.789 E2.5277
G1 X55.185 Y73.29 E2.54434
G1 X55.243 Y72.765 E2.56191
G1 X55.381 Y72.284 E2.57855
G1 X55.614 Y71.803 E2.59633
G1 X55.907 Y71.399 E2.61292
G1 X56.269 Y71.043 E2.62981
G1 X57.2 Y70.412 E2.66722
G1 X57.2 Y52.267 E3.27072
G1 X57.243 Y51.841 E3.28496
G1 X57.362 Y51.447 E3.29865
G1 X57.542 Y51.116 E3.31118
G1 X57.791 Y50.814 E3.3242
G1 X58.096 Y50.566 E3.33728
G1 X58.437 Y50.383 E3.35015
G1 X58.817 Y50.269 E3.36335
G1 X59.243 Y50.228 E3.37758
G1 X65.76 Y50.228 E3.59434
G1 X66.189 Y50.271 E3.60868
G1 X66.571 Y50.387 E3.62195
G1 X66.916 Y50.573 E3.63499
G1 X67.214 Y50.821 E3.64789
G1 X67.462 Y51.124 E3.66091
G1 X67.644 Y51.464 E3.67373
G1 X67.758 Y51.842 E3.68687
G1 X67.8 Y52.267 E3.70107
G1 X67.8 Y70.424 E4.30498
G0 F1440 X68.2 Y70.206
G1 F1080 X68.826 Y70.609 E4.32974
G1 X69.271 Y70.997 E4.34937
G1 X69.633 Y71.448 E4.36861
G1 X69.916 Y71.953 E4.38786
G1 X70.108 Y72.499 E4.40711
G1 X70.205 Y73.08 E4.4267
G1 X70.201 Y73.674 E4.44646
G1 X70.097 Y74.244 E4.46573
G1 X69.897 Y74.788 E4.48501
G1 X69.601 Y75.302 E4.50474
G1 X69.379 Y75.584 E4.51668
G1 X68.947 Y75.999 E4.5366
G1 X68.466 Y76.322 E4.55587
G1 X67.94 Y76.557 E4.57503
G1 X67.368 Y76.703 E4.59467
G1 X66.784 Y76.748 E4.61415
G1 X66.211 Y76.693 E4.63329
G1 X65.638 Y76.537 E4.65304
G1 X65.111 Y76.29 E4.6724
G1 X64.639 Y75.96 E4.69156
G1 X64.225 Y75.548 E4.71098
G1 X63.89 Y75.074 E4.73029
G1 X63.639 Y74.55 E4.74961
G1 X63.48 Y73.987 E4.76907
G1 X63.419 Y73.4 E4.7887
G1 X63.459 Y72.835 E4.80754
G1 X63.601 Y72.252 E4.8275
G1 X63.835 Y71.722 E4.84677
G1 X64.152 Y71.242 E4.8659
G1 X64.254 Y71.125 E4.87106
G1 X64.705 Y71.119 E4.88606
G1 X65.234 Y70.985 E4.90421
G1 X65.715 Y70.696 E4.92288
G1 X66.087 Y70.279 E4.94146
G1 X66.324 Y69.775 E4.95999
G1 X66.4 Y69.262 E4.97724
G1 X66.4 Y53.486 E5.50195
G1 X66.32 Y52.968 E5.51938
G1 X66.079 Y52.465 E5.53793
G1 X65.703 Y52.051 E5.55653
G1 X65.221 Y51.767 E5.57514
G1 X64.705 Y51.637 E5.59284
G1 X64.515 Y51.628 E5.59917
G1 X60.458 Y51.628 E5.7341
G1 X59.94 Y51.708 E5.75153
G1 X59.437 Y51.949 E5.77009
G1 X59.023 Y52.325 E5.78869
G1 X58.739 Y52.807 E5.80729
G1 X58.609 Y53.323 E5.82499
G1 X58.6 Y53.513 E5.83132
G1 X58.6 Y69.268 E6.35533
G1 X58.68 Y69.788 E6.37283
G1 X58.921 Y70.291 E6.39138
G1 X59.297 Y70.705 E6.40998
G1 X59.78 Y70.99 E6.42864
G1 X60.302 Y71.12 E6.44653
G1 X60.739 Y71.126 E6.46106
G1 X60.961 Y71.395 E6.47266
G1 X61.262 Y71.914 E6.49262
G1 X61.462 Y72.459 E6.51193
G1 X61.564 Y73.017 E6.5308
G1 X61.571 Y73.609 E6.55049
G1 X61.477 Y74.18 E6.56973
G1 X61.286 Y74.732 E6.58916
G1 X61.008 Y75.238 E6.60836
G1 X60.638 Y75.699 E6.62802
G1 X60.204 Y76.082 E6.64728
G1 X59.709 Y76.387 E6.66661
G1 X59.162 Y76.603 E6.68617
G1 X58.588 Y76.723 E6.70568
G1 X58.004 Y76.744 E6.72512
G1 X57.441 Y76.667 E6.74402
G1 X56.876 Y76.488 E6.76373
G1 X56.364 Y76.221 E6.78293
G1 X55.896 Y75.866 E6.80247
G1 X55.5 Y75.438 E6.82186
G1 X55.187 Y74.957 E6.84095
G1 X54.954 Y74.412 E6.86067
G1 X54.821 Y73.848 E6.87994
G1 X54.784 Y73.278 E6.89894
G1 X54.848 Y72.693 E6.91851
G1 X55.008 Y72.136 E6.93779
G1 X55.268 Y71.6 E6.9576
G1 X55.602 Y71.138 E6.97656
G1 X56.015 Y70.732 E6.99582
G1 X56.8 Y70.2 E7.02736
G1 X56.8 Y52.247 E7.62448
G1 X56.849 Y51.761 E7.64073
G1 X56.99 Y51.295 E7.65692
G1 X57.21 Y50.89 E7.67225
G1 X57.509 Y50.528 E7.68787
G1 X57.872 Y50.232 E7.70345
G1 X58.284 Y50.012 E7.71898
G1 X58.74 Y49.875 E7.73482
G1 X59.225 Y49.828 E7.75102
G1 X65.78 Y49.828 E7.96904
G1 X66.269 Y49.877 E7.98539
G1 X66.725 Y50.015 E8.00124
G1 X67.143 Y50.241 E8.01704
G1 X67.498 Y50.536 E8.03239
G1 X67.796 Y50.9 E8.04804
G1 X68.016 Y51.312 E8.06357
G1 X68.152 Y51.762 E8.07921
G1 X68.2 Y52.248 E8.09545
G1 X68.2 Y70.206 E8.69274
G0 F1440 X68.6 Y69.988
;TYPE:WALL-OUTER
G1 F1080 X69.064 Y70.286 E8.71108
G1 X69.563 Y70.722 E8.73312
G1 X69.964 Y71.22 E8.75438
G1 X70.282 Y71.788 E8.77603
G1 X70.498 Y72.403 E8.79771
G1 X70.605 Y73.045 E8.81936
G1 X70.601 Y73.709 E8.84145
G1 X70.484 Y74.35 E8.86312
G1 X70.259 Y74.96 E8.88474
G1 X69.935 Y75.524 E8.90638
G1 X69.672 Y75.858 E8.92052
G1 X69.201 Y76.31 E8.94223
G1 X68.662 Y76.672 E8.96382
G1 X68.068 Y76.938 E8.98547
G1 X67.435 Y77.099 E9.0072
G1 X66.783 Y77.15 E9.02895
G1 X66.137 Y77.088 E9.05053
G1 X65.5 Y76.914 E9.0725
G1 X64.91 Y76.637 E9.09417
G1 X64.384 Y76.27 E9.11551
G1 X63.915 Y75.803 E9.13752
G1 X63.545 Y75.28 E9.15883
G1 X63.263 Y74.69 E9.18058
G1 X63.086 Y74.063 E9.20225
G1 X63.018 Y73.407 E9.22418
G1 X63.063 Y72.77 E9.24542
G1 X63.22 Y72.126 E9.26747
G1 X63.483 Y71.529 E9.28917
G1 X63.835 Y70.996 E9.31041
G1 X64.07 Y70.728 E9.32227
G1 X64.652 Y70.72 E9.34163
G1 X65.078 Y70.612 E9.35624
G1 X65.457 Y70.384 E9.37095
G1 X65.75 Y70.056 E9.38558
G1 X65.937 Y69.658 E9.40021
G1 X66 Y69.233 E9.4145
G1 X66 Y53.517 E9.93721
G1 X65.934 Y53.087 E9.95168
G1 X65.744 Y52.691 E9.96629
G1 X65.448 Y52.365 E9.98094
G1 X65.068 Y52.141 E9.99561
G1 X64.646 Y52.035 E10.01008
G1 X64.505 Y52.028 E10.01478
G1 X60.489 Y52.028 E10.14835
G1 X60.059 Y52.094 E10.16282
G1 X59.663 Y52.284 E10.17743
G1 X59.337 Y52.58 E10.19207
G1 X59.113 Y52.96 E10.20674
G1 X59.007 Y53.382 E10.22121
G1 X59 Y53.523 E10.22591
G1 X59 Y69.238 E10.74859
G1 X59.066 Y69.669 E10.7631
G1 X59.256 Y70.065 E10.7777
G1 X59.552 Y70.391 E10.79235
G1 X59.933 Y70.616 E10.80707
G1 X60.354 Y70.721 E10.8215
G1 X60.93 Y70.728 E10.84066
G1 X61.292 Y71.168 E10.85961
G1 X61.624 Y71.741 E10.88163
G1 X61.849 Y72.353 E10.90332
G1 X61.964 Y72.981 E10.92456
G1 X61.971 Y73.641 E10.94651
G1 X61.867 Y74.277 E10.96794
G1 X61.654 Y74.893 E10.98962
G1 X61.341 Y75.462 E11.01122
G1 X60.927 Y75.978 E11.03322
G1 X60.446 Y76.402 E11.05455
G1 X59.887 Y76.747 E11.0764
G1 X59.275 Y76.989 E11.09829
G1 X58.638 Y77.122 E11.11993
G1 X57.987 Y77.145 E11.1416
G1 X57.352 Y77.058 E11.16291
G1 X56.722 Y76.858 E11.1849
G1 X56.15 Y76.561 E11.20634
G1 X55.626 Y76.162 E11.22824
G1 X55.184 Y75.685 E11.24987
G1 X54.832 Y75.144 E11.27134
G1 X54.573 Y74.539 E11.29323
G1 X54.424 Y73.906 E11.31486
G1 X54.383 Y73.266 E11.33619
G1 X54.453 Y72.619 E11.35783
G1 X54.634 Y71.992 E11.37954
G1 X54.923 Y71.395 E11.4016
G1 X55.297 Y70.877 E11.42285
G1 X55.761 Y70.421 E11.44448
G1 X56.4 Y69.988 E11.47016
G1 X56.4 Y52.227 E12.06089
G1 X56.455 Y51.681 E12.07914
G1 X56.618 Y51.143 E12.09784
G1 X56.88 Y50.661 E12.11609
G1 X57.224 Y50.244 E12.13407
G1 X57.65 Y49.897 E12.15234
G1 X58.128 Y49.641 E12.17038
G1 X58.663 Y49.481 E12.18895
G1 X59.207 Y49.428 E12.20713
G1 X65.8 Y49.428 E12.42641
G1 X66.349 Y49.483 E12.44476
G1 X66.879 Y49.644 E12.46319
G1 X67.367 Y49.908 E12.48164
G1 X67.784 Y50.254 E12.49966
G1 X68.131 Y50.678 E12.51788
G1 X68.387 Y51.156 E12.53592
G1 X68.546 Y51.684 E12.55426
G1 X68.6 Y52.228 E12.57244
G1 X68.6 Y69.988 E13.16314
G0 F1440 X68.768 Y70.096
G0 X68.497 Y70.516
G0 X66.439 Y69.264
G0 X66.439 Y53.483
G0 X66.112 Y52.443
G0 X65.236 Y51.73
G0 X64.515 Y51.589
G0 X60.455 Y51.589
G0 X59.415 Y51.916
G0 X58.702 Y52.792
G0 X58.589 Y53.375
G0 X57.366 Y76.033
;TYPE:SKIN
G1 F1080 X55.49 Y74.157 E13.25138
G0 F1440 X55.377 Y73.479
G1 F1080 X58.057 Y76.159 E13.37744
G0 F1440 X58.591 Y76.127
G1 F1080 X55.403 Y72.94 E13.52737
G0 F1440 X55.51 Y72.481
G1 F1080 X59.051 Y76.021 E13.69391
G0 F1440 X59.455 Y75.86
G1 F1080 X55.677 Y72.082 E13.87161
G0 F1440 X55.889 Y71.728
G1 F1080 X59.805 Y75.644 E14.05581
G0 F1440 X60.113 Y75.387
G1 F1080 X56.144 Y71.417 E14.24252
G0 F1440 X56.437 Y71.145
G1 F1080 X60.382 Y75.09 E14.42808
G0 F1440 X60.611 Y74.753
G1 F1080 X56.775 Y70.917 E14.60852
G0 F1440 X57.111 Y70.688
G1 F1080 X60.796 Y74.372 E14.78182
G0 F1440 X60.929 Y73.94
G1 F1080 X57.379 Y70.39 E14.94881
G0 F1440 X57.379 Y69.824
G1 F1080 X60.989 Y73.434 E15.11861
G0 F1440 X60.937 Y72.817
G1 F1080 X59.684 Y71.564 E15.17755
G0 F1440 X60.386 Y71.7
G1 F1080 X60.581 Y71.895 E15.18672
G0 F1440 X58.156 Y70.036
G1 F1080 X57.379 Y69.258 E15.22329
G0 F1440 X57.379 Y68.693
G1 F1080 X58.025 Y69.338 E15.25365
G0 F1440 X58.02 Y68.768
G1 F1080 X57.379 Y68.127 E15.2838
G0 F1440 X57.379 Y67.561
G1 F1080 X58.02 Y68.202 E15.31395
G0 F1440 X58.02 Y67.636
G1 F1080 X57.379 Y66.996 E15.34408
G0 F1440 X57.379 Y66.43
G1 F1080 X58.02 Y67.071 E15.37423
G0 F1440 X58.02 Y66.505
G1 F1080 X57.379 Y65.864 E15.40438
G0 F1440 X57.379 Y65.299
G1 F1080 X58.02 Y65.939 E15.43451
G0 F1440 X58.02 Y65.374
G1 F1080 X57.379 Y64.733 E15.46466
G0 F1440 X57.379 Y64.167
G1 F1080 X58.02 Y64.808 E15.49481
G0 F1440 X58.02 Y64.242
G1 F1080 X57.379 Y63.602 E15.52494
G0 F1440 X57.379 Y63.036
G1 F1080 X58.02 Y63.677 E15.55509
G0 F1440 X58.02 Y63.111
G1 F1080 X57.379 Y62.47 E15.58524
G0 F1440 X57.379 Y61.905
G1 F1080 X58.02 Y62.545 E15.61537
G0 F1440 X58.02 Y61.98
G1 F1080 X57.379 Y61.339 E15.64552
G0 F1440 X57.379 Y60.773
G1 F1080 X58.02 Y61.414 E15.67567
G0 F1440 X58.02 Y60.848
G1 F1080 X57.379 Y60.208 E15.70579
G0 F1440 X57.379 Y59.642
G1 F1080 X58.02 Y60.282 E15.73592
G0 F1440 X58.02 Y59.717
G1 F1080 X57.379 Y59.076 E15.76607
G0 F1440 X57.379 Y58.51
G1 F1080 X58.02 Y59.151 E15.79622
G0 F1440 X58.02 Y58.585
G1 F1080 X57.379 Y57.945 E15.82635
G0 F1440 X57.379 Y57.379
G1 F1080 X58.02 Y58.02 E15.8565
G0 F1440 X58.02 Y57.454
G1 F1080 X57.379 Y56.813 E15.88665
G0 F1440 X57.379 Y56.248
G1 F1080 X58.02 Y56.888 E15.91678
G0 F1440 X58.02 Y56.323
G1 F1080 X57.379 Y55.682 E15.94693
G0 F1440 X57.379 Y55.116
G1 F1080 X58.02 Y55.757 E15.97708
G0 F1440 X58.02 Y55.191
G1 F1080 X57.379 Y54.551 E16.00721
G0 F1440 X57.379 Y53.985
G1 F1080 X58.02 Y54.626 E16.03736
G0 F1440 X58.02 Y54.06
G1 F1080 X57.379 Y53.419 E16.06751
G0 F1440 X57.379 Y52.854
G1 F1080 X58.02 Y53.494 E16.09764
G0 F1440 X58.09 Y52.999
G1 F1080 X57.379 Y52.288 E16.13108
G0 F1440 X57.444 Y51.787
G1 F1080 X58.212 Y52.555 E16.1672
G0 F1440 X58.422 Y52.2
G1 F1080 X57.602 Y51.379 E16.2058
G0 F1440 X57.832 Y51.044
G1 F1080 X58.658 Y51.869 E16.24463
G0 F1440 X58.955 Y51.601
G1 F1080 X58.127 Y50.773 E16.28357
G0 F1440 X58.481 Y50.562
G1 F1080 X59.293 Y51.373 E16.32174
G0 F1440 X59.676 Y51.19
G1 F1080 X58.924 Y50.439 E16.35709
G0 F1440 X59.459 Y50.408
G1 F1080 X60.14 Y51.089 E16.38912
G0 F1440 X60.664 Y51.048
G1 F1080 X60.024 Y50.408 E16.41923
G0 F1440 X60.59 Y50.408
G1 F1080 X61.23 Y51.048 E16.44933
G0 F1440 X61.796 Y51.048
G1 F1080 X61.156 Y50.408 E16.47943
G0 F1440 X61.721 Y50.408
G1 F1080 X62.361 Y51.048 E16.50954
G0 F1440 X62.927 Y51.048
G1 F1080 X62.287 Y50.408 E16.53964
G0 F1440 X62.853 Y50.408
G1 F1080 X63.493 Y51.048 E16.56975
G0 F1440 X64.058 Y51.048
G1 F1080 X63.418 Y50.408 E16.59985
G0 F1440 X63.984 Y50.408
G1 F1080 X64.628 Y51.052 E16.63014
G0 F1440 X64.55 Y50.408
G1 F1080 X65.34 Y51.198 E16.6673
G1 X65.41 Y51.268
G0 F1440 X65.116 Y50.408
G1 F1080 X67.619 Y52.912 E16.78506
G0 F1440 X67.619 Y53.477
G1 F1080 X66.825 Y52.682 E16.82243
G0 F1440 X66.972 Y53.395
G1 F1080 X67.619 Y54.043 E16.85288
G0 F1440 X67.619 Y54.609
G1 F1080 X66.979 Y53.968 E16.88301
G0 F1440 X66.979 Y54.534
G1 F1080 X67.619 Y55.174 E16.91312
G0 F1440 X67.619 Y55.74
G1 F1080 X66.979 Y55.099 E16.94324
G0 F1440 X66.979 Y55.665
G1 F1080 X67.619 Y56.306 E16.97337
G0 F1440 X67.619 Y56.871
G1 F1080 X66.979 Y56.231 E17.00347
G0 F1440 X66.979 Y56.796
G1 F1080 X67.619 Y57.437 E17.0336
G0 F1440 X67.619 Y58.003
G1 F1080 X66.979 Y57.362 E17.06373
G0 F1440 X66.979 Y57.928
G1 F1080 X67.619 Y58.568 E17.09383
G0 F1440 X67.619 Y59.134
G1 F1080 X66.979 Y58.493 E17.12396
G0 F1440 X66.979 Y59.059
G1 F1080 X67.619 Y59.7 E17.15409
G0 F1440 X67.619 Y60.266
G1 F1080 X66.979 Y59.625 E17.18421
G0 F1440 X66.979 Y60.191
G1 F1080 X67.619 Y60.831 E17.21432
G0 F1440 X67.619 Y61.397
G1 F1080 X66.979 Y60.756 E17.24444
G0 F1440 X66.979 Y61.322
G1 F1080 X67.619 Y61.963 E17.27457
G0 F1440 X67.619 Y62.528
G1 F1080 X66.979 Y61.888 E17.30467
G0 F1440 X66.979 Y62.453
G1 F1080 X67.619 Y63.094 E17.3348
G0 F1440 X67.619 Y63.66
G1 F1080 X66.979 Y63.019 E17.36493
G0 F1440 X66.979 Y63.585
G1 F1080 X67.619 Y64.225 E17.39503
G0 F1440 X67.619 Y64.791
G1 F1080 X66.979 Y64.15 E17.42516
G0 F1440 X66.979 Y64.716
G1 F1080 X67.619 Y65.357 E17.45529
G0 F1440 X67.619 Y65.922
G1 F1080 X66.979 Y65.282 E17.48539
G0 F1440 X66.979 Y65.847
G1 F1080 X67.619 Y66.488 E17.51552
G0 F1440 X67.619 Y67.054
G1 F1080 X66.979 Y66.413 E17.54564
G0 F1440 X66.979 Y66.979
G1 F1080 X67.619 Y67.619 E17.57575
G0 F1440 X67.619 Y68.185
G1 F1080 X66.979 Y67.544 E17.60588
G0 F1440 X66.979 Y68.11
G1 F1080 X67.619 Y68.751 E17.636
G0 F1440 X67.619 Y69.316
G1 F1080 X66.979 Y68.676 E17.66611
G0 F1440 X66.979 Y69.242
G1 F1080 X67.619 Y69.882 E17.69621
G0 F1440 X67.619 Y70.448
G1 F1080 X66.914 Y69.742 E17.72939
G0 F1440 X66.777 Y70.171
G1 F1080 X69.602 Y72.996 E17.86227
G0 F1440 X69.621 Y73.581
G1 F1080 X66.596 Y70.556 E18.00456
G0 F1440 X66.34 Y70.865
G1 F1080 X69.539 Y74.065 E18.15506
G0 F1440 X69.391 Y74.483
G1 F1080 X66.069 Y71.16 E18.31134
G0 F1440 X65.715 Y71.372
G1 F1080 X69.192 Y74.849 E18.47488
G0 F1440 X68.959 Y75.182
G1 F1080 X65.335 Y71.557 E18.64537
G0 F1440 X64.883 Y71.671
G1 F1080 X68.671 Y75.459 E18.82354
G0 F1440 X68.348 Y75.702
G1 F1080 X64.464 Y71.818 E19.00624
G0 F1440 X64.263 Y72.183
G1 F1080 X67.981 Y75.901 E19.18112
G0 F1440 X67.566 Y76.051
G1 F1080 X64.112 Y72.597 E19.34358
G0 F1440 X64.023 Y73.074
G1 F1080 X67.09 Y76.141 E19.48785
G0 F1440 X66.523 Y76.139
G1 F1080 X64.027 Y73.643 E19.60525
G0 F1440 X64.202 Y74.384
