;FLAVOR:Marlin
;TIME:6666
;Filament used: 0m
;Layer height: 0.15

;Generated with Cura_SteamEngine 3.6.0
M82 ;absolute extrusion mode
;Start GCode begin
M104 S225 ;Set Hotend Temperature
M140 S65 ;Set Bed Temperature
M109 ;Wait for Hotend Temperature
M190 ;Wait for Bed Temperature
G28 ;Home
G90 ;absolute positioning
G1 X-4 Y-4
G1 Z0 F3000
G92 E0
G1 F200 E20
G92 E0
;Start GCode end
G92 E0
G1 F1500 E-6.5
;LAYER_COUNT:151
;LAYER:0
M107
G0 F1500 X56.354 Y57.106 Z0.3
;TYPE:SKIRT
G1 F1500 E0
G1 F480 X55.942 Y57.845 E0.04221
G1 X55.419 Y59.048 E0.10766
G1 X55.111 Y59.655 E0.14161
G1 X54.735 Y60.222 E0.17556
G1 X54.294 Y60.741 E0.20954
G1 X53.795 Y61.205 E0.24353
G1 X53.246 Y61.608 E0.27751
G1 X52.653 Y61.943 E0.31149
G1 X52.026 Y62.206 E0.34541
G1 X51.371 Y62.394 E0.37941
G1 X50.716 Y62.501 E0.41252
G1 X50.78 Y62.505 E0.41572
G1 X51.45 Y62.624 E0.44967
G1 X52.102 Y62.821 E0.48365
G1 X52.726 Y63.093 E0.51761
G1 X53.314 Y63.437 E0.55159
G1 X53.858 Y63.847 E0.58558
G1 X54.349 Y64.318 E0.61952
G1 X54.783 Y64.843 E0.65351
G1 X55.152 Y65.415 E0.68747
G1 X55.414 Y65.942 E0.71683
G1 X55.973 Y67.22 E0.78642
G1 X56.409 Y67.989 E0.83052
G1 X56.519 Y68.138 E0.83976
G1 X70.897 Y68.138 E1.55709
G1 X70.97 Y68.033 E1.56347
G1 X71.426 Y67.226 E1.60971
G1 X71.835 Y66.308 E1.65985
G1 X72.137 Y65.41 E1.70712
G1 X72.362 Y64.459 E1.75587
G1 X72.498 Y63.488 E1.80479
G1 X72.543 Y62.465 E1.85587
G1 X72.496 Y61.492 E1.90447
G1 X72.356 Y60.511 E1.95391
G1 X72.128 Y59.559 E2.00275
G1 X71.829 Y58.673 E2.0494
G1 X71.436 Y57.793 E2.09749
G1 X71.046 Y57.106 E2.1369
G1 X56.354 Y57.106 E2.86989
G0 F1500 X56.083 Y56.771
G1 F480 X55.582 Y57.669 E2.92119
G1 X55.052 Y58.888 E2.9875
G1 X54.754 Y59.474 E3.0203
G1 X54.387 Y60.019 E3.05308
G1 X53.957 Y60.515 E3.08583
G1 X53.469 Y60.955 E3.11861
G1 X52.932 Y61.333 E3.15138
G1 X52.352 Y61.643 E3.18419
G1 X51.74 Y61.88 E3.21693
G1 X51.103 Y62.041 E3.24971
G1 X50.451 Y62.124 E3.2825
G1 X50.1 Y62.135 E3.30002
G1 X39.446 Y62.135 E3.83155
G1 X38.79 Y62.095 E3.86434
G1 X38.144 Y61.976 E3.89711
G1 X37.517 Y61.779 E3.9299
G1 X36.919 Y61.507 E3.96267
G1 X36.358 Y61.165 E3.99545
G1 X35.843 Y60.757 E4.02823
G1 X35.381 Y60.29 E4.06101
G1 X34.98 Y59.77 E4.09377
G1 X34.644 Y59.206 E4.12652
G1 X34.38 Y58.604 E4.15931
G1 X34.19 Y57.975 E4.1921
G1 X34.079 Y57.328 E4.22485
G1 X34.046 Y56.735 E4.25448
G1 X34.046 Y53.848 E4.39851
G1 X33.83 Y53.483 E4.41967
G1 X33.623 Y53.063 E4.44303
G1 X33.369 Y52.457 E4.47581
G1 X33.191 Y51.825 E4.50857
G1 X33.09 Y51.176 E4.54134
G1 X33.067 Y50.676 E4.56631
G1 X33.067 Y46.451 E4.7771
G1 X33.107 Y45.795 E4.80988
G1 X33.226 Y45.149 E4.84266
G1 X33.423 Y44.522 E4.87544
G1 X33.626 Y44.059 E4.90067
G1 X33.833 Y43.64 E4.92398
G1 X34.159 Y43.07 E4.95674
G1 X34.552 Y42.544 E4.9895
G1 X35.006 Y42.069 E5.02228
G1 X35.388 Y41.747 E5.04721
G1 X35.881 Y41.369 E5.0782
G1 X36.426 Y41.001 E5.11101
G1 X37.011 Y40.703 E5.14376
G1 X37.793 Y40.432 E5.18505
G1 X38.097 Y40.352 E5.20074
G1 X38.741 Y40.224 E5.23349
G1 X39.443 Y40.174 E5.26861
G1 X45.322 Y40.143 E5.56191
G1 X45.335 Y40.132 E5.56276
G1 X47.105 Y38.683 E5.67689
G1 X47.626 Y38.306 E5.70897
G1 X50.025 Y36.779 E5.85085
G1 X50.523 Y36.497 E5.8794
G1 X52.551 Y35.49 E5.99236
G1 X52.92 Y35.324 E6.01255
G1 X53.966 Y34.899 E6.06888
G1 X54.39 Y34.747 E6.09135
G1 X57.078 Y33.908 E6.23183
G1 X57.854 Y33.728 E6.27158
G1 X61.185 Y33.208 E6.43977
G1 X62.018 Y33.143 E6.48146
G1 X65.383 Y33.143 E6.64934
G1 X66.216 Y33.208 E6.69102
G1 X69.548 Y33.728 E6.85927
G1 X70.326 Y33.909 E6.89912
G1 X73.013 Y34.749 E7.03957
G1 X73.556 Y34.951 E7.06848
G1 X75.63 Y35.853 E7.18131
G1 X76.12 Y36.097 E7.20862
G1 X78.095 Y37.206 E7.32163
G1 X78.438 Y37.416 E7.34169
G1 X79.864 Y38.363 E7.42709
G1 X80.3 Y38.684 E7.45411
G1 X82.067 Y40.132 E7.56808
G1 X82.072 Y40.137 E7.56843
G1 X84.357 Y40.142 E7.68243
G1 X85.013 Y40.183 E7.71522
G1 X85.658 Y40.304 E7.74796
G1 X86.415 Y40.555 E7.78775
G1 X86.986 Y40.792 E7.8186
G1 X87.576 Y41.08 E7.85135
G1 X88.127 Y41.438 E7.88413
G1 X88.631 Y41.86 E7.91693
G1 X89.194 Y42.484 E7.95886
G1 X89.573 Y42.976 E7.98984
G1 X89.941 Y43.519 E8.02257
G1 X90.241 Y44.104 E8.05537
G1 X90.514 Y44.885 E8.09665
G1 X90.595 Y45.19 E8.11239
G1 X90.725 Y45.834 E8.14517
G1 X90.776 Y46.569 E8.18192
G1 X90.785 Y54.208 E8.56304
G1 X91.492 Y57.118 E8.71244
G1 X91.621 Y57.888 E8.75139
G1 X91.951 Y61.406 E8.92767
G1 X91.97 Y62.137 E8.96416
G1 X91.846 Y65.078 E9.11101
G1 X91.814 Y65.481 E9.13118
G1 X91.608 Y67.236 E9.21934
G1 X91.498 Y67.859 E9.2509
G1 X90.823 Y70.687 E9.39596
G1 X90.776 Y78.461 E9.78381
G1 X90.732 Y79.116 E9.81656
G1 X90.609 Y79.762 E9.84937
G1 X90.488 Y80.167 E9.87046
G1 X90.338 Y80.608 E9.8937
G1 X90.089 Y81.216 E9.92648
G1 X89.768 Y81.789 E9.95924
G1 X89.279 Y82.437 E9.99974
G1 X88.97 Y82.788 E10.02307
G1 X88.507 Y83.254 E10.05585
G1 X87.99 Y83.66 E10.08864
G1 X87.3 Y84.066 E10.12858
G1 X86.881 Y84.272 E10.15188
G1 X86.274 Y84.525 E10.18469
G1 X85.642 Y84.703 E10.21744
G1 X84.993 Y84.803 E10.25021
G1 X84.584 Y84.825 E10.27064
G1 X82.07 Y84.865 E10.39608
G1 X82.068 Y84.867 E10.39622
G1 X80.299 Y86.316 E10.5103
G1 X79.775 Y86.696 E10.5426
G1 X77.374 Y88.223 E10.68456
G1 X76.879 Y88.502 E10.71291
G1 X74.854 Y89.508 E10.82571
G1 X74.481 Y89.676 E10.84612
G1 X73.436 Y90.1 E10.90239
G1 X73.016 Y90.25 E10.92464
G1 X70.324 Y91.091 E11.06534
G1 X69.547 Y91.272 E11.10514
G1 X66.216 Y91.792 E11.27334
G1 X65.383 Y91.857 E11.31503
G1 X62.018 Y91.857 E11.48291
G1 X61.185 Y91.792 E11.52459
G1 X57.854 Y91.272 E11.69279
G1 X57.076 Y91.091 E11.73264
G1 X54.391 Y90.252 E11.87298
G1 X53.978 Y90.104 E11.89487
G1 X52.932 Y89.681 E11.95116
G1 X52.555 Y89.512 E11.97177
G1 X50.526 Y88.505 E12.08478
G1 X50.027 Y88.223 E12.11338
G1 X47.624 Y86.693 E12.2555
G1 X47.102 Y86.315 E12.28766
G1 X45.371 Y84.897 E12.39929
G1 X39.449 Y84.888 E12.69474
G1 X38.793 Y84.847 E12.72753
G1 X38.147 Y84.727 E12.76031
G1 X37.67 Y84.584 E12.78516
G1 X37.228 Y84.429 E12.80853
G1 X36.622 Y84.174 E12.84133
G1 X36.052 Y83.848 E12.87409
G1 X35.412 Y83.355 E12.91439
G1 X35.066 Y83.045 E12.93757
G1 X34.604 Y82.578 E12.97034
G1 X34.202 Y82.058 E13.00313
G1 X33.976 Y81.695 E13.02447
G1 X33.82 Y81.421 E13.0402
G1 X33.531 Y80.831 E13.07297
G1 X33.315 Y80.211 E13.10573
G1 X33.214 Y79.79 E13.12733
G1 X33.126 Y79.342 E13.15011
G1 X33.039 Y78.691 E13.18287
G1 X33.025 Y78.243 E13.20524
G1 X33.067 Y74.329 E13.40052
G1 X33.114 Y73.674 E13.43328
G1 X33.241 Y73.029 E13.46608
G1 X33.444 Y72.404 E13.49886
G1 X33.626 Y71.995 E13.5212
G1 X33.833 Y71.576 E13.54451
G1 X34.046 Y71.204 E13.5659
G1 X34.046 Y68.265 E13.71253
G1 X34.086 Y67.609 E13.74531
G1 X34.205 Y66.963 E13.77809
G1 X34.402 Y66.336 E13.81087
G1 X34.674 Y65.738 E13.84365
G1 X35.016 Y65.177 E13.87643
G1 X35.424 Y64.662 E13.90921
G1 X35.891 Y64.2 E13.94198
G1 X36.411 Y63.799 E13.97474
G1 X36.975 Y63.463 E14.0075
G1 X37.577 Y63.199 E14.04029
G1 X38.206 Y63.009 E14.07307
G1 X38.853 Y62.898 E14.10582
G1 X39.446 Y62.865 E14.13545
G1 X50.1 Y62.865 E14.66698
G1 X50.756 Y62.905 E14.69977
G1 X51.402 Y63.024 E14.73254
G1 X52.029 Y63.221 E14.76533
G1 X52.627 Y63.493 E14.79811
G1 X53.188 Y63.835 E14.83089
G1 X53.703 Y64.243 E14.86367
G1 X54.165 Y64.71 E14.89644
G1 X54.566 Y65.23 E14.9292
G1 X54.902 Y65.794 E14.96195
G1 X55.048 Y66.102 E14.97896
G1 X55.617 Y67.403 E15.0498
G1 X56.076 Y68.211 E15.09616
G1 X56.317 Y68.538 E15.11643
G1 X71.105 Y68.538 E15.85421
G1 X71.308 Y68.248 E15.87187
G1 X71.781 Y67.412 E15.91979
G1 X72.211 Y66.446 E15.97254
G1 X72.521 Y65.523 E16.02112
G1 X72.756 Y64.531 E16.07198
G1 X72.896 Y63.531 E16.12236
G1 X72.943 Y62.46 E16.17584
G1 X72.894 Y61.448 E16.22639
G1 X72.75 Y60.437 E16.27734
G1 X72.513 Y59.448 E16.32807
G1 X72.203 Y58.53 E16.37641
G1 X71.796 Y57.619 E16.42619
G1 X71.286 Y56.721 E16.47772
G1 X71.276 Y56.706 E16.47861
G1 X56.128 Y56.706 E17.23435
G1 X56.083 Y56.771 E17.2383
G0 F1500 X55.749 Y56.55
G1 F480 X55.222 Y57.493 E17.29219
G1 X54.685 Y58.729 E17.35942
G1 X54.397 Y59.291 E17.39093
G1 X54.04 Y59.813 E17.42248
G1 X53.62 Y60.286 E17.45404
G1 X53.144 Y60.701 E17.48554
G1 X52.619 Y61.054 E17.51711
G1 X52.054 Y61.337 E17.54863
G1 X51.458 Y61.547 E17.58016
G1 X50.84 Y61.68 E17.6117
G1 X50.1 Y61.735 E17.64872
G1 X39.446 Y61.735 E18.18025
G1 X38.815 Y61.695 E18.21179
G1 X38.194 Y61.576 E18.24334
G1 X37.594 Y61.379 E18.27484
G1 X37.022 Y61.108 E18.30642
G1 X36.49 Y60.768 E18.33792
G1 X36.005 Y60.362 E18.36948
G1 X35.575 Y59.899 E18.401
G1 X35.206 Y59.385 E18.43257
G1 X34.906 Y58.829 E18.46409
G1 X34.678 Y58.24 E18.4956
G1 X34.526 Y57.626 E18.52716
G1 X34.446 Y56.735 E18.57179
G1 X34.446 Y53.747 E18.72086
G1 X34.189 Y53.306 E18.74632
G1 X33.982 Y52.886 E18.76968
G1 X33.739 Y52.303 E18.8012
G1 X33.572 Y51.693 E18.83275
G1 X33.482 Y51.068 E18.86425
G1 X33.467 Y50.676 E18.88382
G1 X33.467 Y46.451 E19.09461
G1 X33.507 Y45.82 E19.12615
G1 X33.626 Y45.199 E19.1577
G1 X33.823 Y44.599 E19.1892
G1 X33.984 Y44.236 E19.20902
G1 X34.191 Y43.817 E19.23233
G1 X34.506 Y43.269 E19.26387
G1 X34.888 Y42.766 E19.29538
G1 X35.331 Y42.314 E19.32695
G1 X35.632 Y42.064 E19.34647
G1 X36.125 Y41.686 E19.37747
G1 X36.65 Y41.334 E19.409
G1 X37.215 Y41.051 E19.44053
G1 X37.895 Y40.819 E19.47637
G1 X38.199 Y40.739 E19.49206
G1 X38.819 Y40.617 E19.52358
G1 X39.445 Y40.574 E19.55489
G1 X45.476 Y40.543 E19.85578
G1 X45.589 Y40.441 E19.86337
G1 X47.359 Y38.992 E19.9775
G1 X47.841 Y38.643 E20.00718
G1 X50.24 Y37.116 E20.14906
G1 X50.701 Y36.856 E20.17546
G1 X52.729 Y35.849 E20.28843
G1 X53.071 Y35.695 E20.30714
G1 X54.117 Y35.27 E20.36347
G1 X54.509 Y35.129 E20.38425
G1 X57.197 Y34.29 E20.52474
G1 X57.916 Y34.123 E20.56156
G1 X61.247 Y33.603 E20.72976
G1 X62.018 Y33.543 E20.76834
G1 X65.383 Y33.543 E20.93622
G1 X66.154 Y33.603 E20.97481
G1 X69.486 Y34.123 E21.14305
G1 X70.207 Y34.291 E21.17999
G1 X72.894 Y35.131 E21.32044
G1 X73.396 Y35.318 E21.34716
G1 X75.47 Y36.22 E21.46
G1 X75.924 Y36.445 E21.48528
G1 X77.899 Y37.554 E21.59828
G1 X78.217 Y37.749 E21.61689
G1 X79.643 Y38.696 E21.7023
G1 X80.046 Y38.994 E21.7273
G1 X81.813 Y40.442 E21.84128
G1 X81.918 Y40.537 E21.84834
G1 X84.356 Y40.542 E21.96997
G1 X84.987 Y40.583 E22.00152
G1 X85.607 Y40.704 E22.03304
G1 X86.262 Y40.924 E22.06751
G1 X86.833 Y41.161 E22.09835
G1 X87.4 Y41.44 E22.12988
G1 X87.928 Y41.788 E22.16143
G1 X88.407 Y42.2 E22.19295
G1 X88.877 Y42.728 E22.22821
G1 X89.256 Y43.22 E22.2592
G1 X89.609 Y43.744 E22.29072
G1 X89.894 Y44.308 E22.32225
G1 X90.127 Y44.988 E22.35811
G1 X90.208 Y45.293 E22.37385
G1 X90.332 Y45.913 E22.4054
G1 X90.376 Y46.57 E22.43825
G1 X90.385 Y54.253 E22.82155
G1 X91.104 Y57.212 E22.97348
G1 X91.223 Y57.925 E23.00954
G1 X91.553 Y61.443 E23.18582
G1 X91.571 Y62.121 E23.21966
G1 X91.447 Y65.062 E23.36652
G1 X91.417 Y65.434 E23.38514
G1 X91.211 Y67.189 E23.4733
G1 X91.108 Y67.767 E23.50259
G1 X90.424 Y70.635 E23.64969
G1 X90.376 Y78.458 E24.03998
G1 X90.332 Y79.089 E24.07154
G1 X90.209 Y79.709 E24.10308
G1 X90.11 Y80.038 E24.12022
G1 X89.96 Y80.479 E24.14346
G1 X89.719 Y81.063 E24.17498
G1 X89.406 Y81.613 E24.20655
G1 X88.979 Y82.173 E24.24168
G1 X88.67 Y82.524 E24.26501
G1 X88.223 Y82.971 E24.29655
G1 X87.723 Y83.358 E24.32809
G1 X87.123 Y83.707 E24.36272
G1 X86.704 Y83.913 E24.38602
G1 X86.12 Y84.156 E24.41757
G1 X85.511 Y84.322 E24.44907
G1 X84.577 Y84.425 E24.49595
G1 X81.915 Y84.467 E24.62877
G1 X81.814 Y84.558 E24.63555
G1 X80.045 Y86.007 E24.74964
G1 X79.56 Y86.358 E24.77951
G1 X77.159 Y87.885 E24.92146
G1 X76.701 Y88.144 E24.94772
G1 X74.676 Y89.15 E25.06052
G1 X74.331 Y89.305 E25.07939
G1 X73.286 Y89.729 E25.13566
G1 X72.897 Y89.869 E25.15628
G1 X70.205 Y90.71 E25.29699
G1 X69.485 Y90.877 E25.33386
G1 X66.154 Y91.397 E25.50206
G1 X65.383 Y91.457 E25.54064
G1 X62.018 Y91.457 E25.70852
G1 X61.247 Y91.397 E25.7471
G1 X57.916 Y90.877 E25.9153
G1 X57.196 Y90.709 E25.95219
G1 X54.511 Y89.87 E26.09253
G1 X54.127 Y89.733 E26.11287
G1 X53.081 Y89.31 E26.16916
G1 X52.733 Y89.154 E26.18819
G1 X50.704 Y88.147 E26.30119
G1 X50.242 Y87.886 E26.32767
G1 X47.839 Y86.356 E26.46979
G1 X47.356 Y86.006 E26.49955
G1 X45.587 Y84.557 E26.61363
G1 X45.52 Y84.497 E26.61812
G1 X39.45 Y84.488 E26.92095
G1 X38.819 Y84.447 E26.9525
G1 X38.198 Y84.327 E26.98406
G1 X37.802 Y84.206 E27.00472
G1 X37.36 Y84.051 E27.02808
G1 X36.778 Y83.805 E27.05961
G1 X36.232 Y83.487 E27.09113
G1 X35.679 Y83.057 E27.12608
G1 X35.333 Y82.747 E27.14926
G1 X34.889 Y82.296 E27.18083
G1 X34.507 Y81.793 E27.21234
G1 X34.324 Y81.497 E27.2297
G1 X34.168 Y81.223 E27.24543
G1 X33.89 Y80.655 E27.27698
G1 X33.687 Y80.056 E27.30854
G1 X33.607 Y79.713 E27.32611
G1 X33.519 Y79.265 E27.34889
G1 X33.436 Y78.638 E27.38044
G1 X33.425 Y78.247 E27.39995
G1 X33.467 Y74.333 E27.59524
G1 X33.514 Y73.703 E27.62675
G1 X33.64 Y73.083 E27.65832
G1 X33.843 Y72.485 E27.68983
G1 X33.984 Y72.172 E27.70695
G1 X34.191 Y71.753 E27.73027
G1 X34.446 Y71.309 E27.75581
G1 X34.446 Y68.265 E27.90768
G1 X34.486 Y67.634 E27.93922
G1 X34.605 Y67.013 E27.97077
G1 X34.802 Y66.413 E28.00227
G1 X35.073 Y65.841 E28.03385
G1 X35.413 Y65.309 E28.06535
G1 X35.819 Y64.824 E28.09691
G1 X36.282 Y64.394 E28.12843
G1 X36.796 Y64.025 E28.16
G1 X37.352 Y63.725 E28.19152
G1 X37.941 Y63.497 E28.22303
G1 X38.555 Y63.345 E28.25459
G1 X39.446 Y63.265 E28.29922
G1 X50.1 Y63.265 E28.83075
G1 X50.731 Y63.305 E28.86229
G1 X51.352 Y63.424 E28.89384
G1 X51.952 Y63.621 E28.92534
G1 X52.524 Y63.892 E28.95692
G1 X53.056 Y64.232 E28.98842
G1 X53.541 Y64.638 E29.01998
G1 X53.971 Y65.101 E29.0515
G1 X54.34 Y65.615 E29.08307
G1 X54.681 Y66.262 E29.11955
G1 X55.258 Y67.583 E29.19147
G1 X55.739 Y68.43 E29.24007
G1 X56.114 Y68.938 E29.27157
G1 X71.313 Y68.938 E30.02985
G1 X71.646 Y68.463 E30.05879
G1 X72.138 Y67.593 E30.10866
G1 X72.585 Y66.589 E30.16349
G1 X72.906 Y65.634 E30.21375
G1 X73.149 Y64.607 E30.2664
G1 X73.296 Y63.561 E30.3191
G1 X73.344 Y62.468 E30.37368
G1 X73.293 Y61.415 E30.42628
G1 X73.143 Y60.362 E30.47934
G1 X72.898 Y59.336 E30.53197
G1 X72.574 Y58.378 E30.58242
G1 X72.155 Y57.44 E30.63368
G1 X71.628 Y56.512 E30.68692
G1 X71.483 Y56.306 E30.69949
G1 X55.919 Y56.306 E31.47598
G1 X55.749 Y56.55 E31.49082
G0 F1500 X55.408 Y56.34
G1 F480 X54.861 Y57.321 E31.54685
G1 X54.318 Y58.569 E31.61475
G1 X54.041 Y59.108 E31.64499
G1 X53.694 Y59.606 E31.67527
G1 X53.285 Y60.054 E31.70553
G1 X52.821 Y60.444 E31.73577
G1 X52.31 Y60.769 E31.76599
G1 X51.76 Y61.025 E31.79625
G1 X51.182 Y61.206 E31.82647
G1 X50.584 Y61.309 E31.85675
G1 X50.1 Y61.335 E31.88093
G1 X39.446 Y61.335 E32.41246
G1 X38.841 Y61.295 E32.44271
G1 X38.247 Y61.176 E32.47293
G1 X37.673 Y60.98 E32.50319
G1 X37.13 Y60.709 E32.53347
G1 X36.627 Y60.37 E32.56373
G1 X36.174 Y59.968 E32.59395
G1 X35.777 Y59.51 E32.62418
G1 X35.444 Y59.003 E32.65445
G1 X35.18 Y58.457 E32.6847
G1 X34.991 Y57.881 E32.71495
G1 X34.879 Y57.285 E32.7452
G1 X34.846 Y56.735 E32.77269
G1 X34.846 Y53.647 E32.92675
G1 X34.548 Y53.13 E32.95652
G1 X34.341 Y52.71 E32.97989
G1 X34.109 Y52.149 E33.01017
G1 X33.953 Y51.563 E33.04043
G1 X33.867 Y50.676 E33.08489
G1 X33.867 Y46.451 E33.29567
G1 X33.907 Y45.846 E33.32592
G1 X34.026 Y45.252 E33.35615
G1 X34.343 Y44.414 E33.40084
G1 X34.55 Y43.995 E33.42416
G1 X34.854 Y43.47 E33.45443
G1 X35.224 Y42.99 E33.48466
G1 X35.875 Y42.382 E33.5291
G1 X36.368 Y42.004 E33.5601
G1 X36.872 Y41.667 E33.59035
G1 X37.417 Y41.4 E33.62062
G1 X37.996 Y41.205 E33.6511
G1 X38.3 Y41.125 E33.66679
G1 X38.896 Y41.01 E33.69707
G1 X39.447 Y40.974 E33.72462
G1 X45.631 Y40.942 E34.03314
G1 X45.842 Y40.751 E34.04734
G1 X47.612 Y39.302 E34.16146
G1 X48.056 Y38.98 E34.18883
G1 X50.455 Y37.453 E34.3307
G1 X50.879 Y37.214 E34.35499
G1 X52.907 Y36.207 E34.46795
G1 X53.221 Y36.065 E34.48514
G1 X54.267 Y35.64 E34.54147
G1 X54.628 Y35.511 E34.5606
G1 X57.316 Y34.672 E34.70108
G1 X57.977 Y34.518 E34.73494
G1 X61.308 Y33.998 E34.90314
G1 X62.018 Y33.943 E34.93867
G1 X65.383 Y33.943 E35.10655
G1 X66.092 Y33.998 E35.14203
G1 X69.424 Y34.518 E35.31027
G1 X70.088 Y34.673 E35.34429
G1 X72.775 Y35.513 E35.48474
G1 X73.237 Y35.685 E35.50934
G1 X75.311 Y36.587 E35.62217
G1 X75.728 Y36.794 E35.6454
G1 X77.703 Y37.903 E35.7584
G1 X77.996 Y38.082 E35.77553
