;FLAVOR:Marlin
;TIME:6666
;Filament used: 0m
;Layer height: 0.15

;Generated with Cura_SteamEngine 3.6.0
M82 ;absolute extrusion mode
;Start GCode begin
M104 S225 ;Set Hotend Temperature
M140 S65 ;Set Bed Temperature
M109 ;Wait for Hotend Temperature
M190 ;Wait for Bed Temperature
G28 ;Home
G90 ;absolute positioning
G1 X-4 Y-4
G1 Z0 F3000
G92 E0
G1 F200 E20
G92 E0
;Start GCode end
G92 E0
G1 F1500 E-6.5
;LAYER_COUNT:151
;LAYER:0
M107
G0 F1500 X59.183 Y55.099 Z0.3
;TYPE:SKIRT
G1 F1500 E0
G1 F480 X58.134 Y56.261 E0.0781
G1 X57.645 Y56.961 E0.1207
G1 X57.151 Y57.843 E0.17114
G1 X56.627 Y59.048 E0.23669
G1 X56.319 Y59.655 E0.27065
G1 X55.943 Y60.222 E0.30459
G1 X55.502 Y60.741 E0.33857
G1 X55.003 Y61.205 E0.37257
G1 X54.454 Y61.608 E0.40654
G1 X53.861 Y61.943 E0.44052
G1 X53.234 Y62.206 E0.47444
G1 X52.579 Y62.394 E0.50844
G1 X51.924 Y62.501 E0.54155
G1 X51.988 Y62.505 E0.54475
G1 X52.658 Y62.624 E0.5787
G1 X53.31 Y62.821 E0.61268
G1 X53.934 Y63.093 E0.64664
G1 X54.522 Y63.437 E0.68063
G1 X55.066 Y63.847 E0.71462
G1 X55.557 Y64.318 E0.74856
G1 X55.991 Y64.843 E0.78254
G1 X56.36 Y65.415 E0.8165
G1 X56.621 Y65.939 E0.84571
G1 X57.181 Y67.219 E0.91541
G1 X57.661 Y68.065 E0.96394
G1 X58.127 Y68.731 E1.00449
G1 X59.18 Y69.899 E1.08295
G1 X59.77 Y70.411 E1.12192
G1 X60.488 Y70.921 E1.16586
G1 X61.273 Y71.363 E1.21081
G1 X61.963 Y71.666 E1.2484
G1 X63.252 Y72.044 E1.31542
G1 X64.59 Y72.216 E1.38272
G1 X65.28 Y72.214 E1.41715
G1 X66.516 Y72.054 E1.47933
G1 X67.865 Y71.662 E1.54941
G1 X68.565 Y71.354 E1.58757
G1 X69.356 Y70.903 E1.63299
G1 X69.931 Y70.497 E1.66811
G1 X71.174 Y69.363 E1.75205
G1 X71.294 Y69.23 E1.76099
G1 X72.209 Y67.979 E1.83832
G1 X72.631 Y67.233 E1.88108
G1 X73.047 Y66.299 E1.93209
G1 X73.323 Y65.479 E1.97525
G1 X73.658 Y63.882 E2.05666
G1 X73.742 Y62.964 E2.10265
G1 X73.741 Y62.008 E2.15035
G1 X73.65 Y61.025 E2.1996
G1 X73.47 Y60.067 E2.24823
G1 X73.19 Y59.094 E2.29874
G1 X72.863 Y58.258 E2.34353
G1 X72.4 Y57.338 E2.39491
G1 X71.919 Y56.577 E2.43983
G1 X71.333 Y55.821 E2.48755
G1 X70.729 Y55.182 E2.53141
G1 X70.059 Y54.6 E2.57569
G1 X69.315 Y54.07 E2.62126
G1 X68.582 Y53.655 E2.66329
G1 X67.863 Y53.336 E2.70253
G1 X66.549 Y52.952 E2.77083
G1 X65.259 Y52.785 E2.83572
G1 X64.538 Y52.786 E2.87169
G1 X63.246 Y52.957 E2.93672
G1 X61.97 Y53.331 E3.00305
G1 X61.251 Y53.647 E3.04224
G1 X60.489 Y54.079 E3.08594
G1 X59.77 Y54.589 E3.12992
G1 X59.183 Y55.099 E3.16871
G0 F1500 X58.901 Y54.814
G1 F480 X57.82 Y56.012 E3.24921
G1 X57.307 Y56.746 E3.29389
G1 X56.79 Y57.67 E3.34671
G1 X56.26 Y58.888 E3.41298
G1 X55.962 Y59.474 E3.44578
G1 X55.595 Y60.019 E3.47856
G1 X55.165 Y60.515 E3.51131
G1 X54.677 Y60.955 E3.5441
G1 X54.14 Y61.333 E3.57686
G1 X53.56 Y61.643 E3.60967
G1 X52.948 Y61.88 E3.64241
G1 X52.311 Y62.041 E3.67519
G1 X51.659 Y62.124 E3.70798
G1 X51.308 Y62.135 E3.7255
G1 X40.654 Y62.135 E4.25703
G1 X39.998 Y62.095 E4.28982
G1 X39.352 Y61.976 E4.32259
G1 X38.725 Y61.779 E4.35538
G1 X38.127 Y61.507 E4.38816
G1 X37.566 Y61.165 E4.42093
G1 X37.051 Y60.757 E4.45371
G1 X36.589 Y60.29 E4.48649
G1 X36.188 Y59.77 E4.51925
G1 X35.852 Y59.206 E4.552
G1 X35.588 Y58.604 E4.5848
G1 X35.398 Y57.975 E4.61758
G1 X35.287 Y57.328 E4.65033
G1 X35.254 Y56.735 E4.67996
G1 X35.254 Y53.872 E4.82279
G1 X35.166 Y53.743 E4.83059
G1 X34.862 Y53.16 E4.86339
G1 X34.581 Y52.367 E4.90536
G1 X34.42 Y51.769 E4.93626
G1 X34.288 Y51.125 E4.96906
G1 X34.234 Y50.351 E5.00776
G1 X34.244 Y46.59 E5.1954
G1 X34.286 Y45.934 E5.2282
G1 X34.407 Y45.288 E5.26099
G1 X34.658 Y44.531 E5.30078
G1 X34.895 Y43.961 E5.33157
G1 X35.183 Y43.371 E5.36433
G1 X35.542 Y42.82 E5.39714
G1 X36.063 Y42.216 E5.43693
G1 X36.286 Y41.993 E5.45267
G1 X36.778 Y41.557 E5.48546
G1 X37.319 Y41.185 E5.51822
G1 X37.726 Y40.963 E5.54135
G1 X38.144 Y40.758 E5.56458
G1 X38.751 Y40.505 E5.59738
G1 X39.383 Y40.327 E5.63014
G1 X40.033 Y40.228 E5.66294
G1 X40.494 Y40.206 E5.68597
G1 X46.495 Y40.175 E5.98537
G1 X46.543 Y40.132 E5.98858
G1 X48.313 Y38.683 E6.1027
G1 X48.834 Y38.306 E6.13479
G1 X51.233 Y36.779 E6.27666
G1 X51.731 Y36.497 E6.30521
G1 X53.759 Y35.49 E6.41818
G1 X54.128 Y35.324 E6.43836
G1 X55.174 Y34.899 E6.49469
G1 X55.598 Y34.747 E6.51716
G1 X58.286 Y33.908 E6.65765
G1 X59.062 Y33.728 E6.69739
G1 X62.394 Y33.208 E6.86564
G1 X63.227 Y33.143 E6.90732
G1 X66.592 Y33.143 E7.0752
G1 X67.425 Y33.208 E7.11689
G1 X70.757 Y33.728 E7.28514
G1 X71.536 Y33.909 E7.32504
G1 X74.222 Y34.749 E7.46544
G1 X74.764 Y34.951 E7.4943
G1 X76.838 Y35.853 E7.60713
G1 X77.327 Y36.096 E7.63437
G1 X79.303 Y37.205 E7.74742
G1 X79.649 Y37.417 E7.76767
G1 X81.074 Y38.364 E7.85303
G1 X81.507 Y38.683 E7.87986
G1 X83.275 Y40.131 E7.99387
G1 X83.32 Y40.172 E7.99691
G1 X84.395 Y40.176 E8.05054
G1 X85.05 Y40.218 E8.08329
G1 X85.696 Y40.34 E8.11609
G1 X86.163 Y40.48 E8.14041
G1 X86.602 Y40.634 E8.16362
G1 X87.207 Y40.889 E8.19638
G1 X87.777 Y41.216 E8.22916
G1 X88.303 Y41.609 E8.26192
G1 X88.663 Y41.942 E8.28638
G1 X89.098 Y42.384 E8.31732
G1 X89.529 Y42.88 E8.35011
G1 X89.897 Y43.424 E8.38287
G1 X90.28 Y44.21 E8.42649
G1 X90.397 Y44.51 E8.44256
G1 X90.598 Y45.135 E8.47531
G1 X90.722 Y45.781 E8.50813
G1 X90.766 Y46.472 E8.54268
G1 X90.766 Y55.97 E9.01653
G1 X90.726 Y56.626 E9.04932
G1 X90.607 Y57.272 E9.08209
G1 X90.586 Y57.339 E9.0856
G1 X90.621 Y57.456 E9.09169
G1 X90.733 Y58.103 E9.12445
G1 X90.766 Y58.699 E9.15423
G1 X90.766 Y66.383 E9.53758
G1 X90.726 Y67.039 E9.57037
G1 X90.607 Y67.685 E9.60314
G1 X90.586 Y67.752 E9.60665
G1 X90.622 Y67.872 E9.6129
G1 X90.733 Y68.519 E9.64565
G1 X90.766 Y69.112 E9.67528
G1 X90.766 Y78.607 E10.14899
G1 X90.726 Y79.263 E10.18177
G1 X90.607 Y79.909 E10.21455
G1 X90.355 Y80.672 E10.25463
G1 X90.23 Y80.974 E10.27094
G1 X89.943 Y81.565 E10.30372
G1 X89.585 Y82.116 E10.3365
G1 X89.262 Y82.513 E10.36204
G1 X88.951 Y82.86 E10.38528
G1 X88.484 Y83.322 E10.41806
G1 X87.964 Y83.723 E10.45082
G1 X87.399 Y84.059 E10.48361
G1 X86.961 Y84.26 E10.50766
G1 X86.382 Y84.495 E10.53883
G1 X85.759 Y84.704 E10.57161
G1 X85.116 Y84.837 E10.60437
G1 X84.366 Y84.891 E10.64189
G1 X83.243 Y84.894 E10.69791
G1 X81.507 Y86.316 E10.80987
G1 X80.984 Y86.695 E10.84209
G1 X78.584 Y88.222 E10.98401
G1 X78.087 Y88.503 E11.0125
G1 X76.061 Y89.509 E11.12535
G1 X75.691 Y89.675 E11.14558
G1 X74.647 Y90.099 E11.2018
G1 X74.225 Y90.25 E11.22416
G1 X71.532 Y91.091 E11.36491
G1 X70.755 Y91.272 E11.40471
G1 X67.425 Y91.792 E11.57286
G1 X66.592 Y91.857 E11.61455
G1 X63.227 Y91.857 E11.78243
G1 X62.394 Y91.792 E11.82411
G1 X59.063 Y91.272 E11.99231
G1 X58.285 Y91.091 E12.03216
G1 X55.6 Y90.252 E12.1725
G1 X55.188 Y90.105 E12.19433
G1 X54.141 Y89.682 E12.25066
G1 X53.763 Y89.512 E12.27134
G1 X51.734 Y88.505 E12.38435
G1 X51.235 Y88.223 E12.41295
G1 X48.832 Y86.693 E12.55507
G1 X48.309 Y86.315 E12.58726
G1 X46.579 Y84.897 E12.69886
G1 X40.66 Y84.888 E12.99416
G1 X40.004 Y84.847 E13.02696
G1 X39.358 Y84.727 E13.05974
G1 X38.888 Y84.586 E13.08422
G1 X38.447 Y84.432 E13.10752
G1 X37.841 Y84.178 E13.1403
G1 X37.27 Y83.853 E13.17308
G1 X36.633 Y83.364 E13.21315
G1 X36.282 Y83.051 E13.23661
G1 X35.819 Y82.585 E13.26938
G1 X35.416 Y82.066 E13.30216
G1 X35.01 Y81.362 E13.34271
G1 X34.808 Y80.942 E13.36596
G1 X34.559 Y80.333 E13.39878
G1 X34.387 Y79.699 E13.43156
G1 X34.293 Y79.049 E13.46432
G1 X34.274 Y78.641 E13.4847
G1 X34.244 Y74.58 E13.68731
G1 X34.279 Y73.924 E13.72009
G1 X34.394 Y73.277 E13.75287
G1 X34.658 Y72.467 E13.79537
G1 X34.895 Y71.897 E13.82617
G1 X35.183 Y71.307 E13.85893
G1 X35.254 Y71.198 E13.86542
G1 X35.254 Y68.265 E14.01174
G1 X35.294 Y67.609 E14.04453
G1 X35.413 Y66.963 E14.0773
G1 X35.61 Y66.336 E14.11009
G1 X35.882 Y65.738 E14.14287
G1 X36.224 Y65.177 E14.17565
G1 X36.632 Y64.662 E14.20843
G1 X37.099 Y64.2 E14.2412
G1 X37.619 Y63.799 E14.27396
G1 X38.183 Y63.463 E14.30671
G1 X38.785 Y63.199 E14.33951
G1 X39.414 Y63.009 E14.37229
G1 X40.061 Y62.898 E14.40504
G1 X40.654 Y62.865 E14.43467
G1 X51.308 Y62.865 E14.9662
G1 X51.964 Y62.905 E14.99899
G1 X52.61 Y63.024 E15.03176
G1 X53.237 Y63.221 E15.06455
G1 X53.835 Y63.493 E15.09733
G1 X54.396 Y63.835 E15.13011
G1 X54.911 Y64.243 E15.16289
G1 X55.373 Y64.71 E15.19566
G1 X55.774 Y65.23 E15.22842
G1 X56.11 Y65.794 E15.26117
G1 X56.255 Y66.1 E15.27807
G1 X56.825 Y67.403 E15.34902
G1 X57.314 Y68.265 E15.39846
G1 X57.821 Y68.99 E15.4426
G1 X58.89 Y70.175 E15.52222
G1 X59.531 Y70.733 E15.56462
G1 X60.272 Y71.258 E15.60993
G1 X61.098 Y71.724 E15.65724
G1 X61.825 Y72.043 E15.69685
G1 X63.17 Y72.437 E15.76677
G1 X64.563 Y72.616 E15.83684
G1 X65.308 Y72.614 E15.87401
G1 X66.601 Y72.446 E15.93906
G1 X67.992 Y72.042 E16.01133
G1 X68.746 Y71.711 E16.05241
G1 X69.571 Y71.241 E16.09978
G1 X70.184 Y70.806 E16.13728
G1 X71.459 Y69.645 E16.22331
G1 X71.604 Y69.483 E16.23416
G1 X72.545 Y68.197 E16.31366
G1 X72.991 Y67.41 E16.35879
G1 X73.419 Y66.447 E16.41136
G1 X73.708 Y65.588 E16.45658
G1 X74.054 Y63.94 E16.54059
G1 X74.142 Y62.978 E16.58879
G1 X74.141 Y61.992 E16.63798
G1 X74.046 Y60.967 E16.68933
G1 X73.86 Y59.979 E16.73949
G1 X73.567 Y58.958 E16.79249
G1 X73.227 Y58.09 E16.83899
G1 X72.754 Y57.152 E16.8914
G1 X72.245 Y56.345 E16.93901
G1 X71.634 Y55.556 E16.98879
G1 X71.011 Y54.897 E17.03404
G1 X70.305 Y54.283 E17.08072
G1 X69.532 Y53.733 E17.12805
G1 X68.767 Y53.3 E17.1719
G1 X67.996 Y52.958 E17.21398
G1 X66.629 Y52.558 E17.28504
G1 X65.287 Y52.385 E17.35255
G1 X64.516 Y52.386 E17.39101
G1 X63.157 Y52.565 E17.4594
G1 X61.836 Y52.954 E17.5281
G1 X61.067 Y53.292 E17.57001
G1 X60.282 Y53.737 E17.61503
G1 X59.521 Y54.275 E17.66153
G1 X58.901 Y54.814 E17.70251
G0 F1500 X58.619 Y54.529
G1 F480 X57.506 Y55.762 E17.78538
G1 X56.969 Y56.531 E17.83218
G1 X56.43 Y57.494 E17.88723
G1 X55.893 Y58.729 E17.95442
G1 X55.605 Y59.291 E17.98593
G1 X55.248 Y59.813 E18.01748
G1 X54.828 Y60.286 E18.04903
G1 X54.352 Y60.701 E18.08054
G1 X53.827 Y61.054 E18.1121
G1 X53.262 Y61.337 E18.14363
G1 X52.666 Y61.547 E18.17516
G1 X52.048 Y61.68 E18.20669
G1 X51.308 Y61.735 E18.24371
G1 X40.654 Y61.735 E18.77524
G1 X40.023 Y61.695 E18.80679
G1 X39.402 Y61.576 E18.83833
G1 X38.802 Y61.379 E18.86984
G1 X38.23 Y61.108 E18.90142
G1 X37.698 Y60.768 E18.93292
G1 X37.213 Y60.362 E18.96447
G1 X36.783 Y59.899 E18.996
G1 X36.414 Y59.385 E19.02757
G1 X36.114 Y58.829 E19.05908
G1 X35.886 Y58.24 E19.09059
G1 X35.734 Y57.626 E19.12215
G1 X35.654 Y56.735 E19.16678
G1 X35.654 Y53.748 E19.3158
G1 X35.484 Y53.496 E19.33097
G1 X35.199 Y52.932 E19.3625
G1 X34.967 Y52.263 E19.39782
G1 X34.806 Y51.665 E19.42872
G1 X34.68 Y51.045 E19.46028
G1 X34.634 Y50.352 E19.49493
G1 X34.644 Y46.591 E19.68257
G1 X34.686 Y45.96 E19.71412
G1 X34.807 Y45.339 E19.74569
G1 X35.027 Y44.684 E19.78016
G1 X35.264 Y44.114 E19.81096
G1 X35.543 Y43.547 E19.84248
G1 X35.892 Y43.02 E19.87402
G1 X36.345 Y42.498 E19.9085
G1 X36.568 Y42.275 E19.92423
G1 X37.043 Y41.858 E19.95577
G1 X37.566 Y41.503 E19.9873
G1 X37.902 Y41.322 E20.00634
G1 X38.32 Y41.117 E20.02957
G1 X38.904 Y40.875 E20.06111
G1 X39.514 Y40.709 E20.09265
G1 X40.14 Y40.621 E20.12419
G1 X40.496 Y40.606 E20.14196
G1 X46.649 Y40.574 E20.44894
G1 X46.797 Y40.441 E20.45887
G1 X48.567 Y38.992 E20.57299
G1 X49.049 Y38.643 E20.60268
G1 X51.448 Y37.116 E20.74456
G1 X51.909 Y36.856 E20.77096
G1 X53.937 Y35.849 E20.88393
G1 X54.279 Y35.695 E20.90264
G1 X55.325 Y35.27 E20.95897
G1 X55.717 Y35.129 E20.97975
G1 X58.405 Y34.29 E21.12024
G1 X59.124 Y34.123 E21.15706
G1 X62.456 Y33.603 E21.32531
G1 X63.227 Y33.543 E21.36389
G1 X66.592 Y33.543 E21.53177
G1 X67.363 Y33.603 E21.57035
G1 X70.695 Y34.123 E21.7386
G1 X71.416 Y34.291 E21.77553
G1 X74.102 Y35.131 E21.91594
G1 X74.604 Y35.318 E21.94266
G1 X76.678 Y36.22 E22.0555
G1 X77.131 Y36.445 E22.08073
G1 X79.107 Y37.554 E22.19378
G1 X79.427 Y37.75 E22.2125
G1 X80.852 Y38.697 E22.29786
G1 X81.253 Y38.993 E22.32273
G1 X83.021 Y40.441 E22.43674
G1 X83.166 Y40.571 E22.44646
G1 X84.393 Y40.576 E22.50767
G1 X85.024 Y40.618 E22.53922
G1 X85.644 Y40.74 E22.57075
G1 X86.03 Y40.858 E22.59089
G1 X86.469 Y41.012 E22.6141
G1 X87.051 Y41.258 E22.64562
G1 X87.598 Y41.576 E22.67719
G1 X88.099 Y41.961 E22.70871
G1 X88.378 Y42.223 E22.7278
G1 X88.813 Y42.665 E22.75874
G1 X89.227 Y43.142 E22.79025
G1 X89.577 Y43.669 E22.82182
G1 X89.907 Y44.355 E22.8598
G1 X90.024 Y44.655 E22.87586
G1 X90.216 Y45.258 E22.90743
G1 X90.331 Y45.879 E22.93894
G1 X90.366 Y46.472 E22.96858
G1 X90.366 Y55.97 E23.44244
G1 X90.326 Y56.601 E23.47398
G1 X90.207 Y57.222 E23.50552
G1 X90.169 Y57.337 E23.51157
G1 X90.285 Y57.805 E23.53562
G1 X90.366 Y58.699 E23.58041
G1 X90.366 Y66.383 E23.96376
G1 X90.326 Y67.014 E23.99531
G1 X90.207 Y67.635 E24.02685
G1 X90.169 Y67.75 E24.0329
G1 X90.286 Y68.221 E24.05711
G1 X90.366 Y69.112 E24.10174
G1 X90.366 Y78.607 E24.57545
G1 X90.326 Y79.238 E24.60699
G1 X90.207 Y79.859 E24.63854
G1 X89.986 Y80.519 E24.67326
G1 X89.861 Y80.821 E24.68957
G1 X89.583 Y81.389 E24.72112
G1 X89.235 Y81.917 E24.75266
G1 X88.964 Y82.246 E24.77393
G1 X88.653 Y82.593 E24.79718
G1 X88.203 Y83.036 E24.82868
G1 X87.699 Y83.419 E24.86026
G1 X87.152 Y83.735 E24.89178
G1 X86.81 Y83.889 E24.91049
G1 X86.231 Y84.124 E24.94167
G1 X85.632 Y84.324 E24.97317
G1 X85.012 Y84.447 E25.00471
G1 X84.365 Y84.491 E25.03706
G1 X83.092 Y84.494 E25.10057
G1 X83.022 Y84.558 E25.1053
G1 X81.253 Y86.007 E25.21939
G1 X80.769 Y86.358 E25.24922
G1 X78.369 Y87.885 E25.39113
G1 X77.909 Y88.144 E25.41747
G1 X75.883 Y89.15 E25.53032
G1 X75.54 Y89.305 E25.5491
G1 X74.496 Y89.729 E25.60532
G1 X74.105 Y89.869 E25.62604
G1 X71.412 Y90.71 E25.76679
G1 X70.693 Y90.877 E25.80362
G1 X67.363 Y91.397 E25.97176
G1 X66.592 Y91.457 E26.01035
G1 X63.227 Y91.457 E26.17823
G1 X62.456 Y91.397 E26.21681
G1 X59.125 Y90.877 E26.38501
G1 X58.405 Y90.709 E26.42189
G1 X55.72 Y89.87 E26.56223
G1 X55.338 Y89.734 E26.58246
G1 X54.291 Y89.311 E26.6388
G1 X53.941 Y89.154 E26.65794
G1 X51.912 Y88.147 E26.77095
G1 X51.45 Y87.886 E26.79742
G1 X49.047 Y86.356 E26.93954
G1 X48.563 Y86.005 E26.96937
G1 X46.795 Y84.556 E27.08342
G1 X46.73 Y84.497 E27.0878
G1 X40.661 Y84.488 E27.39058
G1 X40.03 Y84.447 E27.42213
G1 X39.409 Y84.327 E27.45368
G1 X39.02 Y84.208 E27.47398
G1 X38.579 Y84.054 E27.49728
G1 X37.996 Y83.809 E27.52883
G1 X37.449 Y83.492 E27.56037
G1 X36.899 Y83.066 E27.59508
G1 X36.548 Y82.753 E27.61854
G1 X36.104 Y82.303 E27.65008
G1 X35.72 Y81.801 E27.68162
G1 X35.37 Y81.188 E27.71683
G1 X35.168 Y80.768 E27.74008
G1 X34.931 Y80.182 E27.77162
G1 X34.769 Y79.571 E27.80316
G1 X34.674 Y78.638 E27.84994
G1 X34.644 Y74.577 E28.05255
G1 X34.679 Y73.946 E28.08408
G1 X34.794 Y73.324 E28.11564
G1 X35.027 Y72.62 E28.15264
G1 X35.264 Y72.05 E28.18343
G1 X35.543 Y71.483 E28.21496
G1 X35.654 Y71.315 E28.22501
G1 X35.654 Y68.265 E28.37717
G1 X35.694 Y67.634 E28.40872
G1 X35.813 Y67.013 E28.44026
G1 X36.01 Y66.413 E28.47177
G1 X36.281 Y65.841 E28.50335
G1 X36.621 Y65.309 E28.53485
G1 X37.027 Y64.824 E28.5664
G1 X37.49 Y64.394 E28.59793
G1 X38.004 Y64.025 E28.62949
G1 X38.56 Y63.725 E28.66101
G1 X39.149 Y63.497 E28.69252
G1 X39.763 Y63.345 E28.72408
G1 X40.654 Y63.265 E28.76871
G1 X51.308 Y63.265 E29.30024
G1 X51.939 Y63.305 E29.33178
G1 X52.56 Y63.424 E29.36333
G1 X53.16 Y63.621 E29.39484
G1 X53.732 Y63.892 E29.42641
G1 X54.264 Y64.232 E29.45791
G1 X54.749 Y64.638 E29.48947
G1 X55.179 Y65.101 E29.52099
G1 X55.548 Y65.615 E29.55256
G1 X55.888 Y66.26 E29.58894
G1 X56.465 Y67.578 E29.66072
G1 X56.982 Y68.489 E29.71298
G1 X57.505 Y69.237 E29.75851
G1 X58.611 Y70.463 E29.84089
G1 X59.276 Y71.042 E29.88488
G1 X60.063 Y71.6 E29.93301
G1 X60.915 Y72.08 E29.9818
G1 X61.684 Y72.417 E30.02369
G1 X63.093 Y72.831 E30.09695
G1 X64.537 Y73.016 E30.16958
G1 X65.338 Y73.014 E30.20954
G1 X66.68 Y72.84 E30.27706
G1 X68.128 Y72.419 E30.35229
G1 X68.93 Y72.067 E30.39599
G1 X69.786 Y71.579 E30.44515
G1 X70.438 Y71.118 E30.48498
G1 X71.739 Y69.931 E30.57285
G1 X71.913 Y69.738 E30.58581
G1 X72.882 Y68.414 E30.66767
G1 X73.347 Y67.592 E30.71478
G1 X73.793 Y66.589 E30.76955
G1 X74.096 Y65.69 E30.81688
G1 X74.451 Y63.998 E30.90313
G1 X74.542 Y63.003 E30.95298
G1 X74.541 Y61.977 E31.00416
G1 X74.442 Y60.91 E31.05763
G1 X74.248 Y59.879 E31.10997
G1 X73.95 Y58.841 E31.16384
