;FLAVOR:Marlin
;TIME:6666
;Filament used: 0m
;Layer height: 0.1

;Generated with Cura_SteamEngine 3.6.0
M82 ;absolute extrusion mode
;Start GCode begin
M104 S200 ;Set Hotend Temperature
M140 S50 ;Set Bed Temperature
M109 ;Wait for Hotend Temperature
M190 ;Wait for Bed Temperature
G28 ;Home
G90 ;absolute positioning
G1 X-4 Y-4
G1 Z0 F3000
G92 E0
G1 F200 E20
G92 E0
;Start GCode end
G92 E0
G1 F1500 E-6.5
;LAYER_COUNT:61
;LAYER:0
M107
G0 F900 X57.378 Y42.684 Z0.3
;TYPE:SKIRT
G1 F1500 E0
G1 F480 X57.733 Y42.245 E0.02817
G1 X58.147 Y41.859 E0.05641
G1 X58.428 Y41.652 E0.07382
G1 X59.233 Y41.111 E0.12221
G1 X59.723 Y40.83 E0.15039
G1 X60.436 Y40.565 E0.18834
G1 X60.752 Y40.481 E0.20465
G1 X61.308 Y40.375 E0.23289
G1 X61.837 Y40.347 E0.25932
G1 X63.372 Y40.369 E0.33591
G1 X63.936 Y40.417 E0.36415
G1 X64.487 Y40.544 E0.39236
G1 X64.836 Y40.669 E0.41085
G1 X65.398 Y40.9 E0.44117
G1 X65.904 Y41.152 E0.46937
G1 X66.369 Y41.471 E0.4975
G1 X66.792 Y41.808 E0.52448
G1 X67.209 Y42.191 E0.55273
G1 X67.688 Y42.81 E0.59178
G1 X68.103 Y43.471 E0.63072
G1 X68.369 Y43.97 E0.65893
G1 X68.569 Y44.527 E0.68845
G1 X68.654 Y44.833 E0.7043
G1 X68.767 Y45.387 E0.73251
G1 X68.796 Y45.726 E0.74948
G1 X69.099 Y52.551 E1.09032
G1 X69.648 Y57.936 E1.36037
G1 X70.505 Y63.307 E1.63172
G1 X71.661 Y68.616 E1.90279
G1 X72.348 Y71.226 E2.03744
G1 X73.664 Y75.71 E2.27058
G1 X73.797 Y76.358 E2.30359
G1 X73.955 Y77.669 E2.36947
G1 X73.974 Y78.43 E2.40744
G1 X73.87 Y79.904 E2.48117
G1 X73.767 Y80.564 E2.51449
G1 X73.528 Y81.55 E2.56511
G1 X73.357 Y82.089 E2.59332
G1 X73.111 Y82.598 E2.62152
G1 X72.796 Y83.067 E2.64971
G1 X72.417 Y83.487 E2.67793
G1 X71.984 Y83.85 E2.70612
G1 X71.503 Y84.148 E2.73435
G1 X70.986 Y84.375 E2.76252
G1 X70.441 Y84.527 E2.79075
G1 X69.96 Y84.595 E2.81499
G1 X68.821 Y84.686 E2.87199
G1 X68.415 Y84.698 E2.89226
G1 X63.992 Y84.601 E3.11297
G1 X55.39 Y84.648 E3.54214
G1 X54.826 Y84.611 E3.57034
G1 X54.272 Y84.495 E3.59857
G1 X53.741 Y84.302 E3.62676
G1 X53.242 Y84.036 E3.65497
G1 X52.786 Y83.703 E3.68314
G1 X52.381 Y83.308 E3.71137
G1 X52.036 Y82.86 E3.73958
G1 X51.757 Y82.368 E3.7678
G1 X51.478 Y81.581 E3.80945
G1 X51.218 Y80.497 E3.86507
G1 X51.121 Y79.884 E3.89603
G1 X51.031 Y78.764 E3.95209
G1 X51.022 Y78.257 E3.97739
G1 X51.068 Y77.274 E4.02648
G1 X51.135 Y76.713 E4.05467
G1 X51.208 Y76.398 E4.0708
G1 X53.163 Y69.304 E4.43792
G1 X54.377 Y63.928 E4.71288
G1 X54.848 Y61.329 E4.84466
G1 X55.592 Y55.939 E5.11611
G1 X56.03 Y50.505 E5.3881
G1 X56.171 Y45.911 E5.6174
G1 X56.228 Y45.349 E5.64558
G1 X56.369 Y44.786 E5.67454
G1 X56.592 Y44.107 E5.71019
G1 X56.806 Y43.584 E5.73839
G1 X57.111 Y43.067 E5.76833
G1 X57.378 Y42.684 E5.79163
G0 F900 X57.706 Y42.913
G1 F480 X58.044 Y42.497 E5.81837
G1 X58.651 Y41.984 E5.85802
G1 X59.456 Y41.443 E5.90641
G1 X59.922 Y41.178 E5.93315
G1 X60.539 Y40.952 E5.96593
G1 X60.855 Y40.868 E5.98225
G1 X61.382 Y40.769 E6.009
G1 X61.832 Y40.747 E6.03148
G1 X63.367 Y40.769 E6.10806
G1 X63.901 Y40.817 E6.13481
G1 X64.422 Y40.943 E6.16156
G1 X64.684 Y41.039 E6.17548
G1 X65.246 Y41.27 E6.20579
G1 X65.725 Y41.511 E6.23254
G1 X66.12 Y41.784 E6.2565
G1 X66.543 Y42.121 E6.28348
G1 X66.937 Y42.486 E6.31028
G1 X67.349 Y43.023 E6.34404
G1 X67.764 Y43.684 E6.38298
G1 X68.014 Y44.158 E6.40972
G1 X68.184 Y44.634 E6.43493
G1 X68.269 Y44.94 E6.45078
G1 X68.373 Y45.466 E6.47753
G1 X68.396 Y45.744 E6.49145
G1 X68.699 Y52.574 E6.83253
G1 X69.251 Y57.988 E7.10404
G1 X70.112 Y63.387 E7.3768
G1 X71.266 Y68.684 E7.64726
G1 X71.972 Y71.368 E7.78572
G1 X73.28 Y75.823 E8.01737
G1 X73.4 Y76.406 E8.04706
G1 X73.558 Y77.717 E8.11294
G1 X73.575 Y78.401 E8.14708
G1 X73.471 Y79.875 E8.2208
G1 X73.379 Y80.47 E8.25084
G1 X73.14 Y81.456 E8.30145
G1 X72.975 Y81.966 E8.3282
G1 X72.736 Y82.447 E8.35499
G1 X72.429 Y82.886 E8.38172
G1 X72.059 Y83.275 E8.4085
G1 X71.636 Y83.604 E8.43524
G1 X71.169 Y83.868 E8.462
G1 X70.668 Y84.058 E8.48873
G1 X69.928 Y84.197 E8.5263
G1 X68.789 Y84.288 E8.5833
G1 X68.423 Y84.298 E8.60157
G1 X63.998 Y84.201 E8.82239
G1 X55.388 Y84.248 E9.25195
G1 X54.853 Y84.211 E9.2787
G1 X54.329 Y84.095 E9.30548
G1 X53.828 Y83.902 E9.33226
G1 X53.362 Y83.637 E9.35901
G1 X52.94 Y83.306 E9.38577
G1 X52.572 Y82.916 E9.41252
G1 X52.266 Y82.476 E9.43926
G1 X52.029 Y81.995 E9.46601
G1 X51.867 Y81.488 E9.49256
G1 X51.607 Y80.404 E9.54818
G1 X51.52 Y79.852 E9.57606
G1 X51.43 Y78.732 E9.63211
G1 X51.422 Y78.276 E9.65487
G1 X51.468 Y77.293 E9.70396
G1 X51.593 Y76.505 E9.74377
G1 X53.552 Y69.397 E10.11161
G1 X54.772 Y63.995 E10.3879
G1 X55.241 Y61.404 E10.51927
G1 X55.99 Y55.975 E10.79269
G1 X56.43 Y50.529 E11.06528
G1 X56.571 Y45.924 E11.29513
G1 X56.627 Y45.39 E11.32192
G1 X56.749 Y44.911 E11.34658
G1 X56.972 Y44.232 E11.38223
G1 X57.177 Y43.736 E11.40901
G1 X57.439 Y43.296 E11.43456
G1 X57.706 Y42.913 E11.45785
G0 F900 X58.034 Y43.142
G1 F480 X58.355 Y42.751 E11.48309
G1 X58.874 Y42.316 E11.51687
G1 X59.679 Y41.775 E11.56526
G1 X60.12 Y41.527 E11.5905
G1 X60.642 Y41.338 E11.6182
G1 X60.958 Y41.254 E11.63451
G1 X61.455 Y41.164 E11.65971
G1 X61.826 Y41.147 E11.67824
G1 X63.361 Y41.169 E11.75483
G1 X63.864 Y41.216 E11.78003
G1 X64.532 Y41.409 E11.81472
G1 X65.094 Y41.64 E11.84504
G1 X65.545 Y41.869 E11.87027
G1 X65.871 Y42.097 E11.89012
G1 X66.294 Y42.434 E11.9171
G1 X66.663 Y42.779 E11.94231
G1 X67.01 Y43.235 E11.97089
G1 X67.425 Y43.896 E12.00983
G1 X67.659 Y44.345 E12.03509
G1 X67.798 Y44.742 E12.05608
G1 X67.883 Y45.048 E12.07192
G1 X67.997 Y45.762 E12.10799
G1 X68.301 Y52.598 E12.44938
G1 X68.857 Y58.055 E12.72304
G1 X69.717 Y63.447 E12.99545
G1 X70.884 Y68.802 E13.26888
G1 X71.587 Y71.477 E13.40687
G1 X72.896 Y75.936 E13.63872
G1 X73.003 Y76.454 E13.66511
G1 X73.161 Y77.765 E13.73099
G1 X73.176 Y78.373 E13.76133
G1 X73.072 Y79.847 E13.83505
G1 X72.99 Y80.376 E13.86176
G1 X72.751 Y81.362 E13.91237
G1 X72.593 Y81.842 E13.93758
G1 X72.362 Y82.292 E13.96282
G1 X72.063 Y82.699 E13.98802
G1 X71.703 Y83.055 E14.01328
G1 X71.292 Y83.349 E14.03849
G1 X70.84 Y83.575 E14.0637
G1 X70.358 Y83.727 E14.08891
G1 X69.896 Y83.798 E14.11223
G1 X68.757 Y83.889 E14.16924
G1 X68.432 Y83.898 E14.18546
G1 X64.005 Y83.801 E14.40638
G1 X55.385 Y83.848 E14.83644
G1 X54.881 Y83.811 E14.86165
G1 X54.389 Y83.695 E14.88687
G1 X53.922 Y83.502 E14.91208
G1 X53.49 Y83.239 E14.93731
G1 X53.105 Y82.911 E14.96254
G1 X52.777 Y82.526 E14.98778
G1 X52.514 Y82.095 E15.01297
G1 X52.256 Y81.394 E15.05023
G1 X51.996 Y80.31 E15.10585
G1 X51.918 Y79.82 E15.1306
G1 X51.828 Y78.7 E15.18666
G1 X51.821 Y78.294 E15.20692
G1 X51.867 Y77.311 E15.25601
G1 X51.979 Y76.611 E15.29138
G1 X53.943 Y69.484 E15.6602
G1 X55.157 Y64.107 E15.93521
G1 X55.637 Y61.457 E16.06957
G1 X56.387 Y56.026 E16.3431
G1 X56.83 Y50.534 E16.61799
G1 X56.971 Y45.936 E16.84749
G1 X57.026 Y45.433 E16.87273
G1 X57.129 Y45.036 E16.8932
G1 X57.352 Y44.357 E16.92885
G1 X57.547 Y43.89 E16.9541
G1 X57.767 Y43.525 E16.97536
G1 X58.034 Y43.142 E16.99865
G1 F1500 E10.49865
;MESH:/Users/x/Library/Application Support/snapmakerjs/Tmp/antenna_wrench_20201026182171571.stl
G0 F900 X59.521 Y45.841
G0 X60.773 Y46.112
G0 X60.831 Y71.747
G0 X60.75 Y71.689
;TYPE:WALL-INNER
G1 F1500 E16.99865
G1 F480 X60.754 Y46.11 E18.2748
G1 X60.809 Y45.864 E18.28737
G1 X60.865 Y45.723 E18.29494
G1 X60.917 Y45.618 E18.30079
G1 X61.018 Y45.462 E18.31006
G1 X61.085 Y45.379 E18.31538
G1 X61.176 Y45.286 E18.32187
G1 X61.285 Y45.194 E18.32899
G1 X61.411 Y45.105 E18.33668
G1 X61.502 Y45.054 E18.34189
G1 X61.716 Y44.965 E18.35345
G1 X61.788 Y44.944 E18.35719
G1 X61.943 Y44.914 E18.36507
G1 X62.122 Y44.901 E18.37402
G1 X62.863 Y44.901 E18.41099
G1 X63.046 Y44.914 E18.42014
G1 X63.191 Y44.942 E18.42751
G1 X63.371 Y45 E18.43695
G1 X63.488 Y45.053 E18.44336
G1 X63.585 Y45.107 E18.44889
G1 X63.778 Y45.252 E18.46094
G1 X63.875 Y45.345 E18.46764
G1 X63.958 Y45.443 E18.47405
G1 X64.037 Y45.556 E18.48093
G1 X64.133 Y45.738 E18.49119
G1 X64.205 Y45.936 E18.5017
G1 X64.227 Y46.039 E18.50696
G1 X64.251 Y46.229 E18.51651
G1 X64.251 Y71.684 E19.78647
G1 X64.968 Y71.928 E19.82425
G1 X65.618 Y72.221 E19.85983
G1 X66.715 Y72.907 E19.92437
G1 X67.215 Y73.331 E19.95708
G1 X67.764 Y73.908 E19.99682
G1 X67.842 Y74.002 E20.00291
G1 X68.528 Y75.017 E20.06403
G1 X68.63 Y75.224 E20.07554
G1 X68.95 Y75.917 E20.11362
G1 X68.993 Y76.035 E20.11989
G1 X69.195 Y76.731 E20.15605
G1 X69.246 Y77.009 E20.17015
G1 X69.327 Y77.38 E20.18909
G1 X69.396 Y78.214 E20.23084
G1 X69.311 Y79.454 E20.29285
G1 X69.157 Y80.099 E20.32594
G1 X67.597 Y80.099 E20.40377
G1 X67.596 Y75.427 E20.63685
G1 X62.499 Y72.483 E20.93051
G1 X57.404 Y75.427 E21.22409
G1 X57.403 Y79.898 E21.44715
G1 X57.403 Y80.098 E21.45712
G1 X57.203 Y80.098 E21.46358
G1 X55.837 Y80.096 E21.53173
G1 X55.778 Y79.861 E21.54382
G1 X55.686 Y79.442 E21.56522
G1 X55.625 Y78.928 E21.59105
G1 X55.604 Y78.176 E21.62858
G1 X55.648 Y77.554 E21.65969
G1 X55.805 Y76.7 E21.70301
G1 X56.003 Y76.049 E21.73696
G1 X56.059 Y75.897 E21.74504
G1 X56.328 Y75.294 E21.77798
G1 X56.834 Y74.433 E21.8278
G1 X56.884 Y74.365 E21.83202
G1 X57.531 Y73.584 E21.88261
G1 X57.603 Y73.507 E21.88787
G1 X58.225 Y72.948 E21.92959
G1 X58.468 Y72.77 E21.94462
G1 X59.372 Y72.22 E21.99741
G1 X60.024 Y71.928 E22.03306
G1 X60.75 Y71.689 E22.07119
G0 F900 X60.831 Y71.747
G0 X62.499 Y72.443
G0 X67.63 Y75.407
G0 X69.096 Y80.021
G0 X69.441 Y80.408
;TYPE:WALL-OUTER
G1 F480 X69.367 Y80.494 E22.07685
G1 X69.332 Y80.499 E22.07861
G1 X67.197 Y80.499 E22.18513
G1 X67.196 Y75.658 E22.42665
G1 X62.499 Y72.945 E22.69726
G1 X57.804 Y75.658 E22.96779
G1 X57.803 Y80.299 E23.19933
G1 X57.803 Y80.499 E23.20931
G1 X57.603 Y80.499 E23.21577
G1 X55.665 Y80.496 E23.31246
G1 X55.659 Y80.48 E23.31331
G1 X55.517 Y80.465 E23.32043
G1 X55.387 Y79.947 E23.34708
G1 X55.292 Y79.515 E23.36915
G1 X55.225 Y78.953 E23.39738
G1 X55.204 Y78.169 E23.43651
G1 X55.25 Y77.508 E23.46957
G1 X55.417 Y76.6 E23.51563
G1 X55.622 Y75.925 E23.55082
G1 X55.687 Y75.749 E23.56018
G1 X55.974 Y75.106 E23.59531
G1 X56.5 Y74.211 E23.64711
G1 X56.562 Y74.127 E23.65231
G1 X57.239 Y73.31 E23.70525
G1 X57.314 Y73.23 E23.71072
G1 X57.976 Y72.635 E23.75513
G1 X58.249 Y72.434 E23.77204
G1 X59.182 Y71.867 E23.82651
G1 X59.882 Y71.554 E23.86477
G1 X60.35 Y71.4 E23.88935
G1 X60.354 Y46.079 E25.15262
G1 X60.371 Y45.963 E25.15847
G1 X60.428 Y45.742 E25.16985
G1 X60.5 Y45.558 E25.17971
G1 X60.573 Y45.413 E25.18781
G1 X60.689 Y45.234 E25.19845
G1 X60.79 Y45.109 E25.20647
G1 X60.902 Y44.993 E25.21451
G1 X61.036 Y44.88 E25.22326
G1 X61.201 Y44.764 E25.23332
G1 X61.32 Y44.697 E25.24013
G1 X61.478 Y44.626 E25.24878
G1 X61.582 Y44.588 E25.2543
G1 X61.704 Y44.553 E25.26063
G1 X61.889 Y44.517 E25.27003
G1 X62.105 Y44.501 E25.28084
G1 X62.877 Y44.501 E25.31936
G1 X63.103 Y44.517 E25.33066
G1 X63.287 Y44.553 E25.34001
G1 X63.512 Y44.625 E25.3518
G1 X63.671 Y44.697 E25.36051
G1 X63.795 Y44.767 E25.36761
G1 X63.933 Y44.862 E25.37597
G1 X64.044 Y44.952 E25.3831
G1 X64.165 Y45.069 E25.3915
G1 X64.276 Y45.201 E25.4001
G1 X64.377 Y45.345 E25.40888
G1 X64.499 Y45.575 E25.42186
G1 X64.541 Y45.675 E25.42728
G1 X64.592 Y45.835 E25.43565
G1 X64.622 Y45.974 E25.44275
G1 X64.651 Y46.203 E25.45426
G1 X64.651 Y71.397 E26.7112
G1 X65.113 Y71.554 E26.73554
G1 X65.805 Y71.866 E26.77341
G1 X66.953 Y72.584 E26.84097
G1 X67.492 Y73.041 E26.87622
G1 X68.065 Y73.643 E26.91769
G1 X68.163 Y73.761 E26.92534
G1 X68.874 Y74.814 E26.98873
G1 X68.993 Y75.056 E27.00218
G1 X69.32 Y75.763 E27.04104
G1 X69.373 Y75.91 E27.04884
G1 X69.584 Y76.639 E27.0867
G1 X69.638 Y76.93 E27.10147
G1 X69.724 Y77.321 E27.12144
G1 X69.797 Y78.208 E27.16584
G1 X69.708 Y79.515 E27.2312
G1 X69.491 Y80.419 E27.27758
G1 X69.487 Y80.436 E27.27845
G1 X69.441 Y80.408 E27.27969
G0 F900 X69.367 Y80.494
G0 X69.332 Y80.499
G0 X69.28 Y80.499
G0 X68.849 Y79.709
;TYPE:SKIN
G1 F480 X67.987 Y79.709 E27.3227
G1 X67.986 Y75.202 E27.54755
G1 X62.499 Y72.033 E27.86368
G1 X57.014 Y75.202 E28.17971
G1 X57.013 Y79.708 E28.40452
G1 X56.144 Y79.706 E28.44787
G1 X56.072 Y79.38 E28.46453
G1 X56.014 Y78.888 E28.48925
G1 X55.994 Y78.197 E28.52373
G1 X56.036 Y77.598 E28.55369
G1 X56.186 Y76.788 E28.59479
G1 X56.373 Y76.173 E28.62686
G1 X56.425 Y76.032 E28.63436
G1 X56.677 Y75.469 E28.66513
G1 X57.159 Y74.649 E28.71259
G1 X57.823 Y73.843 E28.76468
G1 X57.88 Y73.783 E28.76881
G1 X58.48 Y73.243 E28.80909
G1 X58.675 Y73.1 E28.82115
G1 X59.552 Y72.567 E28.87235
G1 X60.172 Y72.29 E28.90623
G1 X61.14 Y71.971 E28.95708
G1 X61.144 Y46.151 E30.24524
G1 X61.181 Y45.986 E30.25368
G1 X61.25 Y45.823 E30.26251
G1 X61.335 Y45.691 E30.27034
G1 X61.448 Y45.566 E30.27875
G1 X61.616 Y45.437 E30.28932
G1 X61.672 Y45.406 E30.29251
G1 X61.844 Y45.334 E30.30181
G1 X61.997 Y45.3 E30.30963
G1 X62.122 Y45.291 E30.31588
G1 X62.85 Y45.291 E30.3522
G1 X63.002 Y45.302 E30.35981
G1 X63.09 Y45.319 E30.36428
G1 X63.222 Y45.361 E30.37119
G1 X63.374 Y45.436 E30.37965
G1 X63.527 Y45.551 E30.3892
G1 X63.586 Y45.607 E30.39325
G1 X63.705 Y45.764 E30.40308
G1 X63.775 Y45.894 E30.41045
G1 X63.828 Y46.042 E30.41829
G1 X63.845 Y46.121 E30.42232
G1 X63.861 Y46.246 E30.42861
G1 X63.861 Y71.963 E31.71164
G1 X64.827 Y72.292 E31.76255
G1 X65.427 Y72.562 E31.79537
G1 X66.485 Y73.224 E31.85764
G1 X66.945 Y73.614 E31.88773
G1 X67.476 Y74.171 E31.92612
G1 X67.531 Y74.237 E31.93041
G1 X68.193 Y75.217 E31.98941
G1 X68.596 Y76.081 E32.03697
G1 X68.619 Y76.144 E32.04032
G1 X68.814 Y76.822 E32.07551
G1 X68.941 Y77.444 E32.10719
G1 X69.004 Y78.206 E32.14533
G1 X68.923 Y79.397 E32.20489
G1 X68.849 Y79.709 E32.22089
G0 F900 X67.63 Y75.407
G0 X62.499 Y72.443
G0 X57.37 Y75.408
G0 X56.332 Y79.525
G1 F480 X56.275 Y79.468 E32.22491
G0 F900 X56.833 Y79.461
G1 F480 X56.192 Y78.819 E32.27017
G0 F900 X56.174 Y78.236
G1 F480 X56.833 Y78.895 E32.31667
G0 F900 X56.833 Y78.329
G1 F480 X56.208 Y77.704 E32.36076
G0 F900 X56.289 Y77.219
G1 F480 X56.833 Y77.764 E32.39918
G0 F900 X56.833 Y77.198
G1 F480 X56.385 Y76.75 E32.43079
G0 F900 X56.675 Y76.474
G1 F480 X56.754 Y75.988 E32.45578
G1 X57.893 Y74.298 E32.5592
G1 X59.926 Y72.937 E32.68335
G1 X61.457 Y72.205 E32.76947
G0 F900 X61.955 Y72.137
G1 F480 X61.319 Y71.501 E32.81434
G0 F900 X61.319 Y70.936
G1 F480 X62.313 Y71.93 E32.88447
G1 X62.341 Y71.958
G0 F900 X63.681 Y71.6
G1 F480 X61.319 Y69.239 E33.05109
G0 F900 X61.319 Y69.804
G1 F480 X64.487 Y72.972 E33.27461
G0 F900 X64.425 Y72.345
G1 F480 X65.826 Y73.746 E33.37345
G1 X65.854 Y73.774
G0 F900 X65.408 Y72.762
G1 F480 X67.165 Y74.519 E33.49742
G1 X67.193 Y74.547
G0 F900 X68.165 Y76.085
G0 X68.34 Y76.26
G1 F480 X68.435 Y76.921 E33.55133
G1 X68.442 Y79.19 E33.73449
G0 F900 X68.165 Y78.913
G0 X67.63 Y75.407
G0 X63.148 Y72.199
G1 F480 X61.319 Y70.37 E33.86354
G1 X61.291 Y70.342
G0 F900 X61.319 Y68.673
G1 F480 X63.681 Y71.035 E34.03019
G0 F900 X63.681 Y70.469
G1 F480 X61.319 Y68.107 E34.19684
G0 F900 X61.319 Y67.542
G1 F480 X63.681 Y69.903 E34.36346
G0 F900 X63.681 Y69.338
G1 F480 X61.319 Y66.976 E34.53011
G0 F900 X61.32 Y66.411
G1 F480 X63.681 Y68.772 E34.69669
G0 F900 X63.681 Y68.206
G1 F480 X61.32 Y65.845 E34.86327
G0 F900 X61.32 Y65.28
G1 F480 X63.681 Y67.641 E35.02986
G0 F900 X63.681 Y67.075
G1 F480 X61.32 Y64.714 E35.19644
G0 F900 X61.32 Y64.148
G1 F480 X63.681 Y66.509 E35.36302
G0 F900 X63.681 Y65.944
G1 F480 X61.32 Y63.583 E35.5296
G0 F900 X61.32 Y63.017
G1 F480 X63.681 Y65.378 E35.69618
G0 F900 X63.681 Y64.812
G1 F480 X61.32 Y62.451 E35.86276
G0 F900 X61.32 Y61.885
G1 F480 X63.681 Y64.247 E36.02938
G0 F900 X63.681 Y63.681
G1 F480 X61.321 Y61.321 E36.19589
G0 F900 X61.321 Y60.755
G1 F480 X63.681 Y63.115 E36.3624
G0 F900 X63.681 Y62.549
G1 F480 X61.321 Y60.189 E36.52891
G0 F900 X61.321 Y59.623
G1 F480 X63.681 Y61.984 E36.69546
G0 F900 X63.681 Y61.418
G1 F480 X61.321 Y59.058 E36.86197
G0 F900 X61.321 Y58.492
G1 F480 X63.681 Y60.852 E37.02848
G0 F900 X63.681 Y60.287
G1 F480 X61.321 Y57.926 E37.19502
G0 F900 X61.321 Y57.361
G1 F480 X63.681 Y59.721 E37.36154
G0 F900 X63.68 Y59.155
G1 F480 X61.321 Y56.795 E37.52801
G0 F900 X61.321 Y56.23
G1 F480 X63.68 Y58.589 E37.69445
G0 F900 X63.68 Y58.023
G1 F480 X61.321 Y55.664 E37.86089
G0 F900 X61.321 Y55.099
G1 F480 X63.68 Y57.458 E38.02733
