;Header Start

;FLAVOR:Marlin
;TIME:6666
;Filament used: 0m
;Layer height: 0.15


;header_type: 3dp
;thumbnail: data:image/png;base64,iVBORw0KGgoAAAANSUhEUgAAASwAAACWCAYAAABkW7XSAAAIx0lEQVR4Xu3dv69MaRjA8bMSDQ0JhRARIiREQqGQ0FGoVGqJRqdRSJToFf4aldAJiUqC0AgljcRvu3lnc25mZ6915s7zzM4z85lEsHvuc9/7eV/fnJk7a//4+vXrn50HAQIECgj8IVgFdskSCRAYCQiWg0CAQBkBwSqzVRZKgIBgOQMECJQREKwyW2WhBAgIljNAgEAZAcEqs1UWSoCAYDkDBAiUERCsMltloQQICJYzQIBAGQHBKrNVFkqAgGA5AwQIlBEQrDJbZaEECAiWM0CAQBkBwSqzVRZKgIBgOQMECJQREKwyW2WhBAgIljNAgEAZAcEqs1UWSoCAYDkDBAiUERCsMltloQQICJYzQIBAGQHBKrNVFkqAgGA5AwQIlBEQrDJbZaEECAiWM0CAQBkBwSqzVRZKgIBgOQMECJQREKwyW2WhBAgIljNAgEAZAcEqs1UWSoCAYDkDBAiUERCsMltloQQICJYzQIBAGQHBKrNVFkqAgGA5AwQIlBEQrDJbZaEECAiWM0CAQBkBwSqzVRZKgIBgOQMECJQREKwyW2WhBAgIljNAgEAZAcEqs1UWSoCAYDkDBAiUERCsMltloQQICJYzQIBAGQHBKrNVFkqAgGA5AwQIlBEQrDJbZaEECAiWM0CAQBkBwSqzVRZKgIBgOQMECJQREKwyW2WhBAgIljNAgEAZAcEqs1UWSoCAYDkDBAiUERCsMltloQQICJYzQIBAGQHBKrNVFkqAgGA5AwQIlBEQrDJbZaEECAiWM0CAQBkBwSqzVRa6aAKvXr3q3r59O1rWw4cP15Z3+vTp0a/PnDmzaEsuvx7BKr+FvoBogQcPHvwrQu0f9P+8//lXn3f37t2jf9V+btE6cOBAd+nSpehlruQ8wVrJbV/NLzoyRL3geJx+pdqCdeXKldVED/6qBSsY1Lj5C8waov5uqI/PNDEa8tWeO3euO3v27JBLXfMbAcFyRBZWICpEfZCiQzQUrt1dtbssj9kFBGt2QxOmFFiWEA39sgVrqNTvrxOs3xu5YqBARIjG74bGn6INea1o4DLnfplgxZELVpzl0k5aL0RDv2M2FKUFqf8x+dRt6Iz/67r+6d740779+/d7GpiwIYKVgFplZFSI1rv7mXwBu5m09yz171vqfz/UavJua727r6Gzpr2uhWgyRm2G16WmlZz9esGa3XDhJkSFaF5Pz9aLWFTYxr+GyV+PR8fd0cId43UXJFg19mm0ymohiqaNDNv4u9D7X/fvUG/r9i716N2LmSdYMY4zTVn1EM2Et84HC1u06OLME6zEvYgM0byeniVyLNzoybBt9Gno5B2ZO7a8rRasDdgK0QbQin5I5N2asM1+CARrzHAeIervlNb7Ltrs27k4Eya/g9b+ZoNlfgjbfHZ36YM1/l/Wj/8VILO+j+i/vpW/7DFqR3Oj3+ofD9fr16+78d8ve9Sa23+FbfzfTfPHvz0FvXjxYnf58uVpPqzktUsdrNu3b3e3bt2aamNWPUR9jMZ/br+e5xsh+3C1oLVH//tVCFp/WKd5fe3EiRPdjRs3uvPnz0911itevJTBmiZUx48f7/bt2zd6l/WqPDZ6d7QoPqt+lzYetZ8/f3Y7duzorl692h08eHBRtihtHUsVrGlCdfTo0e7IkSPd5s2bu23btqUBz3uw/0zkb/FVuUv7/v179+3bN8Ga9x+0WT7fNKFqn6ePVf85d+7cOcunn+vHTgapPVWbfPo21wUV/WTLcpfWB+vu3btFd2K6ZZe+w2ovorcfQ1+nandU7cfkY5GCVf3p2nTHb7GvrhC1L1++dO1poWAt9lkarW7Xrl2DV7l9+/bu5MmT617fnhK2p4bZD0/XsoXnO38RgtaC1c5Vew1rFR5l77AeP3481bdx2wuS7e7q0KFD3b179/6xt1u2bOm2bt068367O5qZcOkGZEft06dPoxfbBWvBj861a9e6p0+fDl7lnj17ur17946uf//+fffx48e1jx0SLHdHg6ldOIXALEFrTwXbmV6VWDXWsndYN2/e7J49ezboaGzatGn0lK+9QNke7fftR/9owTp27Ji/82iQpovmLfCrqLVgtf+5xSq8naE3LxusO3fudC9fvhx0dn78+NF9/vy5e/Hixej69p6r/inghQsXuvbDgwCBxRcoG6z79++v/f1QQ5jbu6Zb4D58+LD24rtYDZFzDYHFESgbrEePHnVPnjwZLPnu3bvuzZs3a9dfv369O3z48OCPdyEBAv+/QNlgNbr2Gtbz588HKbYX2tu1p06d8hRwkJiLCCyeQOlgLR6nFREgkCkgWJm6ZhMgECogWKGchhEgkCkgWJm6ZhMgECogWKGchhEgkCkgWJm6ZhMgECogWKGchhEgkCkgWJm6ZhMgECogWKGchhEgkCkgWJm6ZhMgECogWKGchhEgkCkgWJm6ZhMgECogWKGchhEgkCkgWJm6ZhMgECogWKGchhEgkCkgWJm6ZhMgECogWKGchhEgkCkgWJm6ZhMgECogWKGchhEgkCkgWJm6ZhMgECogWKGchhEgkCkgWJm6ZhMgECogWKGchhEgkCkgWJm6ZhMgECogWKGchhEgkCkgWJm6ZhMgECogWKGchhEgkCkgWJm6ZhMgECogWKGchhEgkCkgWJm6ZhMgECogWKGchhEgkCkgWJm6ZhMgECogWKGchhEgkCkgWJm6ZhMgECogWKGchhEgkCkgWJm6ZhMgECogWKGchhEgkCkgWJm6ZhMgECogWKGchhEgkCkgWJm6ZhMgECogWKGchhEgkCkgWJm6ZhMgECogWKGchhEgkCkgWJm6ZhMgECogWKGchhEgkCkgWJm6ZhMgECogWKGchhEgkCkgWJm6ZhMgECogWKGchhEgkCkgWJm6ZhMgECogWKGchhEgkCkgWJm6ZhMgECogWKGchhEgkCkgWJm6ZhMgECogWKGchhEgkCkgWJm6ZhMgECogWKGchhEgkCkgWJm6ZhMgECrwFxEah7FLLql6AAAAAElFTkSuQmCC
;file_total_lines: 16571
;estimated_time(s): 2850.48
;nozzle_temperature(°C): 222
;build_plate_temperature(°C): 65
;work_speed(mm/minute): 1800
;max_x(mm): 41.03200210571289
;max_y(mm): 28.62579978942871
;max_z(mm): 4.6000000000000005
;min_x(mm): -41.03200210571289
;min_y(mm): -28.62579978942871
;min_z(mm): 0

;Header End

; G-code for 3dp engraving
; Generated by Snapmaker Luban 3.15.0
; Mon Jul 05 2021 0:15:54

M82 ;absolute extrusion mode
;Start GCode begin
M104 S222
M140 S65
G28 ;home
G90 ;absolute positioning
G1 X-10 Y-10 F3000
G1 Z0 F1800
M109 S222;Wait for Hotend Temperature
M190 S65;Wait for Bed Temperature
G92 E0
G1 E20 F200
G92 E0
;Start GCode end
G92 E0
G1 F1500 E-6.5
;LAYER_COUNT:30
;LAYER:0
M107
;MESH:/Users/x/Library/Application Support/snapmaker-luban/Tmp/TableHangerTop_15062011.stl
G0 F1200 X67.608 Y66.402 Z0.3
;TYPE:WALL-INNER
G1 F1500 E0
G1 F1080 X67.608 Y67.094 E0.03452
G1 X102.713 Y87.361 E2.05684
G1 X101.112 Y90.134 E2.21659
G1 X101.013 Y90.307 E2.22653
G1 X100.84 Y90.207 E2.23297
G1 X22.068 Y44.727 E6.77091
G1 X22.068 Y35.964 E7.2081
G1 X25.268 Y35.963 E7.36775
G1 X25.468 Y35.963 E7.37772
G1 X25.468 Y36.163 E7.38418
G1 X25.468 Y42.765 E7.71356
G1 X63.608 Y64.785 E9.91074
G1 X100.84 Y43.289 E12.05561
G1 X101.013 Y43.189 E12.06558
G1 X101.112 Y43.362 E12.072
G1 X102.713 Y46.135 E12.23175
G1 X67.608 Y66.402 E14.25406
G0 F1200 X68.008 Y66.633
;TYPE:WALL-OUTER
G1 F1080 X68.008 Y66.863 E14.26554
G1 X68.135 Y66.936 E14.27284
G1 X103.259 Y87.215 E16.29628
G1 X101.259 Y90.68 E16.49588
G1 X101.159 Y90.853 E16.50585
G1 X100.986 Y90.753 E16.51229
G1 X21.723 Y44.99 E21.0785
G1 X21.668 Y44.99 E21.08124
G1 X21.668 Y35.564 E21.55151
G1 X25.668 Y35.563 E21.75107
G1 X25.868 Y35.563 E21.76105
G1 X25.868 Y35.763 E21.76751
G1 X25.868 Y42.534 E22.10532
G1 X63.608 Y64.323 E24.27945
G1 X100.986 Y42.743 E26.43272
G1 X101.159 Y42.643 E26.44269
G1 X101.259 Y42.816 E26.44913
G1 X103.259 Y46.281 E26.64873
G1 X68.135 Y66.56 E28.67216
G1 X68.008 Y66.633 E28.67947
G0 F1200 X68.008 Y66.833
G0 X67.218 Y67.319
;TYPE:SKIN
G1 F1080 X102.18 Y87.504 E30.69356
G1 X100.87 Y89.774 E30.82432
G1 X22.458 Y44.502 E35.34152
G1 X22.458 Y36.354 E35.74802
G1 X25.078 Y36.353 E35.87873
G1 X25.078 Y42.99 E36.20986
G1 X63.608 Y65.235 E38.42949
G1 X100.87 Y43.722 E40.57609
G1 X102.18 Y45.992 E40.70684
G1 X67.218 Y66.177 E42.72093
G1 X67.218 Y67.319 E42.77791
G0 F1200 X67.574 Y66.382
G0 X100.634 Y44.066
G1 F1080 X101.168 Y44.6 E42.81559
G0 F1200 X100.276 Y44.273
G1 F1080 X101.93 Y45.927 E42.93228
G0 F1200 X101.571 Y46.134
G1 F1080 X99.917 Y44.479 E43.04902
G0 F1200 X99.558 Y44.687
G1 F1080 X101.212 Y46.34 E43.16568
G0 F1200 X100.853 Y46.548
G1 F1080 X99.2 Y44.894 E43.28234
G0 F1200 X98.841 Y45.101
G1 F1080 X100.495 Y46.755 E43.39904
G0 F1200 X100.136 Y46.962
G1 F1080 X98.483 Y45.308 E43.51571
G0 F1200 X98.124 Y45.515
G1 F1080 X99.778 Y47.169 E43.63241
G0 F1200 X99.419 Y47.376
G1 F1080 X97.765 Y45.722 E43.7491
G0 F1200 X97.406 Y45.929
G1 F1080 X99.06 Y47.583 E43.8658
G0 F1200 X98.702 Y47.79
G1 F1080 X97.048 Y46.136 E43.9825
G0 F1200 X96.689 Y46.343
G1 F1080 X98.343 Y47.997 E44.0992
G0 F1200 X97.985 Y48.204
G1 F1080 X96.331 Y46.55 E44.2159
G0 F1200 X95.972 Y46.757
G1 F1080 X97.626 Y48.412 E44.33263
G0 F1200 X97.267 Y48.618
G1 F1080 X95.613 Y46.964 E44.44933
G0 F1200 X95.255 Y47.171
G1 F1080 X96.908 Y48.825 E44.56599
G0 F1200 X96.55 Y49.032
G1 F1080 X94.896 Y47.378 E44.68269
G0 F1200 X94.538 Y47.586
G1 F1080 X96.191 Y49.24 E44.79936
G0 F1200 X95.833 Y49.447
G1 F1080 X94.178 Y47.792 E44.91613
G0 F1200 X93.82 Y47.999
G1 F1080 X95.474 Y49.653 E45.03282
G0 F1200 X95.115 Y49.86
G1 F1080 X93.461 Y48.207 E45.14949
G0 F1200 X93.103 Y48.414
G1 F1080 X94.757 Y50.068 E45.26619
G0 F1200 X94.398 Y50.275
G1 F1080 X92.744 Y48.621 E45.38289
G0 F1200 X92.386 Y48.828
G1 F1080 X94.04 Y50.482 E45.49958
G0 F1200 X93.681 Y50.689
G1 F1080 X92.027 Y49.035 E45.61628
G0 F1200 X91.668 Y49.242
G1 F1080 X93.322 Y50.896 E45.73298
G0 F1200 X92.964 Y51.103
G1 F1080 X91.31 Y49.449 E45.84968
G0 F1200 X90.951 Y49.656
G1 F1080 X92.605 Y51.31 E45.96638
G0 F1200 X92.247 Y51.517
G1 F1080 X90.593 Y49.863 E46.08308
G0 F1200 X90.233 Y50.07
G1 F1080 X91.888 Y51.724 E46.19981
G0 F1200 X91.529 Y51.931
G1 F1080 X89.875 Y50.277 E46.31651
G0 F1200 X89.516 Y50.484
G1 F1080 X91.17 Y52.138 E46.43321
G0 F1200 X90.812 Y52.345
G1 F1080 X89.158 Y50.691 E46.54991
G0 F1200 X88.799 Y50.898
G1 F1080 X90.453 Y52.552 E46.66661
G0 F1200 X90.095 Y52.76
G1 F1080 X88.44 Y51.105 E46.78337
G0 F1200 X88.082 Y51.312
G1 F1080 X89.736 Y52.967 E46.90011
G0 F1200 X89.377 Y53.173
G1 F1080 X87.723 Y51.519 E47.01681
G0 F1200 X87.365 Y51.726
G1 F1080 X89.019 Y53.38 E47.13351
G0 F1200 X88.66 Y53.588
G1 F1080 X87.006 Y51.934 E47.2502
G0 F1200 X86.648 Y52.141
G1 F1080 X88.302 Y53.795 E47.3669
G0 F1200 X87.943 Y54.002
G1 F1080 X86.288 Y52.347 E47.48367
G0 F1200 X85.93 Y52.555
G1 F1080 X87.584 Y54.208 E47.60034
G0 F1200 X87.225 Y54.416
G1 F1080 X85.571 Y52.762 E47.71703
G0 F1200 X85.213 Y52.969
G1 F1080 X86.867 Y54.623 E47.83373
G0 F1200 X86.508 Y54.83
G1 F1080 X84.854 Y53.176 E47.95043
G0 F1200 X84.495 Y53.383
G1 F1080 X86.15 Y55.037 E48.06717
G0 F1200 X85.791 Y55.244
G1 F1080 X84.137 Y53.59 E48.18386
G0 F1200 X83.778 Y53.797
G1 F1080 X85.432 Y55.451 E48.30056
G0 F1200 X85.074 Y55.658
G1 F1080 X83.42 Y54.004 E48.41726
G0 F1200 X83.061 Y54.211
G1 F1080 X84.715 Y55.865 E48.53396
G0 F1200 X84.357 Y56.072
G1 F1080 X82.702 Y54.418 E48.65069
G0 F1200 X82.343 Y54.625
G1 F1080 X83.998 Y56.28 E48.76746
G0 F1200 X83.639 Y56.486
G1 F1080 X81.985 Y54.832 E48.88416
G0 F1200 X81.626 Y55.039
G1 F1080 X83.28 Y56.693 E49.00086
G0 F1200 X82.922 Y56.9
G1 F1080 X81.268 Y55.246 E49.11756
G0 F1200 X80.909 Y55.454
G1 F1080 X82.563 Y57.108 E49.23426
G0 F1200 X82.205 Y57.315
G1 F1080 X80.55 Y55.66 E49.35103
G0 F1200 X80.192 Y55.867
G1 F1080 X81.846 Y57.522 E49.46776
G0 F1200 X81.487 Y57.728
G1 F1080 X79.833 Y56.074 E49.58446
G0 F1200 X79.475 Y56.282
G1 F1080 X81.129 Y57.936 E49.70116
G0 F1200 X80.77 Y58.143
G1 F1080 X79.116 Y56.489 E49.81786
G0 F1200 X78.757 Y56.695
G1 F1080 X80.412 Y58.35 E49.93463
G0 F1200 X80.053 Y58.557
G1 F1080 X78.399 Y56.903 E50.05132
G0 F1200 X78.04 Y57.11
G1 F1080 X79.694 Y58.764 E50.16802
G0 F1200 X79.335 Y58.971
G1 F1080 X77.682 Y57.317 E50.28469
G0 F1200 X77.323 Y57.524
G1 F1080 X78.977 Y59.178 E50.40139
G0 F1200 X78.618 Y59.385
G1 F1080 X76.964 Y57.731 E50.51808
G0 F1200 X76.605 Y57.938
G1 F1080 X78.26 Y59.592 E50.63482
G0 F1200 X77.901 Y59.8
G1 F1080 X76.247 Y58.145 E50.75155
G0 F1200 X75.888 Y58.352
G1 F1080 X77.542 Y60.006 E50.86825
G0 F1200 X77.184 Y60.213
G1 F1080 X75.53 Y58.559 E50.98495
G0 F1200 X75.171 Y58.766
G1 F1080 X76.825 Y60.42 E51.10165
G0 F1200 X76.467 Y60.628
G1 F1080 X74.812 Y58.973 E51.21842
G0 F1200 X74.454 Y59.18
G1 F1080 X76.108 Y60.835 E51.33515
G0 F1200 X75.749 Y61.041
G1 F1080 X74.095 Y59.387 E51.45185
G0 F1200 X73.737 Y59.594
G1 F1080 X75.391 Y61.248 E51.56855
G0 F1200 X75.032 Y61.456
G1 F1080 X73.378 Y59.802 E51.68525
G0 F1200 X73.019 Y60.008
G1 F1080 X74.674 Y61.663 E51.80202
G0 F1200 X74.315 Y61.87
G1 F1080 X72.66 Y60.215 E51.91878
G0 F1200 X72.302 Y60.422
G1 F1080 X73.957 Y62.077 E52.03555
G0 F1200 X73.597 Y62.284
G1 F1080 X71.943 Y60.63 E52.15225
G0 F1200 X71.585 Y60.837
G1 F1080 X73.239 Y62.491 E52.26895
G0 F1200 X72.88 Y62.698
G1 F1080 X71.226 Y61.043 E52.38569
G0 F1200 X70.867 Y61.251
G1 F1080 X72.522 Y62.905 E52.50242
G0 F1200 X72.163 Y63.112
G1 F1080 X70.509 Y61.458 E52.61912
G0 F1200 X70.15 Y61.665
G1 F1080 X71.804 Y63.319 E52.73582
G0 F1200 X71.446 Y63.526
G1 F1080 X69.792 Y61.872 E52.85251
G0 F1200 X69.433 Y62.079
G1 F1080 X71.087 Y63.733 E52.96921
G0 F1200 X70.729 Y63.94
G1 F1080 X69.074 Y62.286 E53.08595
G0 F1200 X68.715 Y62.493
G1 F1080 X70.37 Y64.148 E53.20272
G0 F1200 X70.012 Y64.355
G1 F1080 X68.357 Y62.7 E53.31949
G0 F1200 X67.998 Y62.907
G1 F1080 X69.652 Y64.561 E53.43618
G0 F1200 X69.294 Y64.768
G1 F1080 X67.64 Y63.114 E53.55288
G0 F1200 X67.281 Y63.321
G1 F1080 X68.935 Y64.976 E53.66962
G0 F1200 X68.577 Y65.183
G1 F1080 X66.922 Y63.528 E53.78639
G0 F1200 X66.564 Y63.735
G1 F1080 X68.218 Y65.39 E53.90312
G0 F1200 X67.859 Y65.596
G1 F1080 X66.205 Y63.942 E54.01982
G0 F1200 X65.847 Y64.15
G1 F1080 X67.501 Y65.804 E54.13652
G0 F1200 X67.142 Y66.011
G1 F1080 X65.487 Y64.356 E54.25329
G0 F1200 X65.129 Y64.563
G1 F1080 X67.037 Y66.472 E54.38794
G0 F1200 X67.037 Y67.037
G1 F1080 X64.77 Y64.77 E54.54789
G0 F1200 X64.412 Y64.978
G1 F1080 X72.786 Y73.351 E55.13869
G1 X72.814 Y73.379
G0 F1200 X74.124 Y74.124
G1 F1080 X67.948 Y67.948 E55.57444
G1 X67.92 Y67.92
G0 F1200 X69.287 Y68.721
G1 F1080 X75.463 Y74.897 E56.01019
G1 X75.491 Y74.925
G0 F1200 X76.801 Y75.67
G1 F1080 X70.625 Y69.494 E56.44594
G1 X70.597 Y69.466
G0 F1200 X71.964 Y70.267
G1 F1080 X78.14 Y76.443 E56.88169
G1 X78.168 Y76.471
G0 F1200 X79.478 Y77.216
G1 F1080 X73.302 Y71.039 E57.31747
G1 X73.274 Y71.011
G0 F1200 X74.64 Y71.812
G1 F1080 X80.816 Y77.988 E57.75322
G1 X80.844 Y78.016
G0 F1200 X82.155 Y78.761
G1 F1080 X75.979 Y72.585 E58.18897
G1 X75.951 Y72.557
G0 F1200 X77.317 Y73.358
G1 F1080 X83.493 Y79.533 E58.62469
G1 X83.521 Y79.561
G0 F1200 X84.832 Y80.306
G1 F1080 X78.656 Y74.13 E59.06044
G1 X78.628 Y74.102
G0 F1200 X79.994 Y74.903
G1 F1080 X86.17 Y81.079 E59.49619
G1 X86.198 Y81.107
G0 F1200 X87.509 Y81.852
G1 F1080 X81.333 Y75.676 E59.93194
G1 X81.305 Y75.648
G0 F1200 X82.672 Y76.449
G1 F1080 X88.847 Y82.625 E60.36765
G1 X88.875 Y82.653
G0 F1200 X90.185 Y83.397
G1 F1080 X84.01 Y77.222 E60.80333
G1 X83.982 Y77.194
G0 F1200 X85.349 Y77.995
G1 F1080 X91.524 Y84.17 E61.23901
G1 X91.552 Y84.198
G0 F1200 X92.862 Y84.943
G1 F1080 X86.687 Y78.768 E61.67469
G1 X86.659 Y78.74
G0 F1200 X88.026 Y79.541
G1 F1080 X94.201 Y85.716 E62.11037
G1 X94.229 Y85.744
G0 F1200 X95.54 Y86.489
G1 F1080 X89.364 Y80.313 E62.54612
G1 X89.336 Y80.285
G0 F1200 X90.703 Y81.086
G1 F1080 X96.878 Y87.261 E62.9818
G1 X96.906 Y87.289
G0 F1200 X98.217 Y88.034
G1 F1080 X92.041 Y81.859 E63.41752
G1 X92.013 Y81.831
G0 F1200 X93.38 Y82.632
G1 F1080 X99.554 Y88.806 E63.85313
G1 X99.582 Y88.834
G0 F1200 X100.817 Y89.504
G1 F1080 X94.719 Y83.405 E64.28341
G1 X94.691 Y83.377
G0 F1200 X96.056 Y84.177
G1 F1080 X101.025 Y89.145 E64.63396
G0 F1200 X101.232 Y88.787
G1 F1080 X97.395 Y84.95 E64.90468
G1 X97.367 Y84.922
G0 F1200 X98.734 Y85.723
G1 F1080 X101.438 Y88.427 E65.09546
G0 F1200 X101.645 Y88.069
G1 F1080 X100.072 Y86.496 E65.20645
G1 X100.044 Y86.468
G0 F1200 X101.411 Y87.268
G1 F1080 X101.852 Y87.71 E65.2376
G0 F1200 X71.447 Y72.578
G1 F1080 X64.053 Y65.185 E65.75925
G0 F1200 X63.694 Y65.391
G1 F1080 X70.108 Y71.805 E66.21179
G1 X70.136 Y71.833
G0 F1200 X68.771 Y71.033
G1 F1080 X62.594 Y64.857 E66.64758
G1 X62.566 Y64.829
G0 F1200 X61.255 Y64.084
G1 F1080 X67.432 Y70.26 E67.08336
G1 X67.46 Y70.288
G0 F1200 X66.093 Y69.488
G1 F1080 X59.917 Y63.311 E67.51915
G1 X59.889 Y63.283
G0 F1200 X58.578 Y62.538
G1 F1080 X64.755 Y68.715 E67.95497
G1 X64.783 Y68.743
G0 F1200 X63.416 Y67.942
G1 F1080 X57.241 Y61.766 E68.39068
G1 X57.213 Y61.738
G0 F1200 X55.902 Y60.993
G1 F1080 X62.078 Y67.169 E68.82643
G1 X62.106 Y67.197
G0 F1200 X60.739 Y66.396
G1 F1080 X54.563 Y60.22 E69.26218
G1 X54.535 Y60.192
G0 F1200 X53.225 Y59.447
G1 F1080 X59.401 Y65.624 E69.69797
G1 X59.429 Y65.652
G0 F1200 X58.063 Y64.851
G1 F1080 X51.886 Y58.675 E70.13376
G1 X51.858 Y58.647
G0 F1200 X50.548 Y57.902
G1 F1080 X56.724 Y64.078 E70.56951
G1 X56.752 Y64.106
G0 F1200 X55.386 Y63.305
G1 F1080 X49.21 Y57.129 E71.00526
G1 X49.182 Y57.101
G0 F1200 X47.871 Y56.357
G1 F1080 X54.047 Y62.532 E71.44097
G1 X54.075 Y62.56
G0 F1200 X52.709 Y61.76
G1 F1080 X46.533 Y55.584 E71.87672
G1 X46.505 Y55.556
G0 F1200 X45.195 Y54.812
G1 F1080 X51.37 Y60.987 E72.3124
G1 X51.398 Y61.015
G0 F1200 X50.032 Y60.215
G1 F1080 X43.856 Y54.039 E72.74815
G1 X43.828 Y54.011
G0 F1200 X42.001 Y55.577
G1 F1080 X35.826 Y49.402 E73.18383
G1 X35.798 Y49.374
G0 F1200 X34.487 Y48.629
G1 F1080 X40.663 Y54.805 E73.61958
G1 X40.691 Y54.833
G0 F1200 X39.325 Y54.032
G1 F1080 X33.149 Y47.857 E74.05529
G1 X33.121 Y47.829
G0 F1200 X31.811 Y47.084
G1 F1080 X37.986 Y53.259 E74.49097
G1 X38.014 Y53.287
G0 F1200 X36.647 Y52.487
G1 F1080 X30.472 Y46.311 E74.92669
G1 X30.444 Y46.283
G0 F1200 X29.134 Y45.539
G1 F1080 X35.309 Y51.714 E75.36237
G1 X35.337 Y51.742
G0 F1200 X33.97 Y50.941
G1 F1080 X27.795 Y44.766 E75.79805
G1 X27.767 Y44.738
G0 F1200 X26.457 Y43.994
G1 F1080 X32.632 Y50.168 E76.23369
G1 X32.66 Y50.196
G0 F1200 X31.294 Y49.396
G1 F1080 X25.119 Y43.221 E76.66937
G0 F1200 X24.897 Y42.999
G1 F1080 X22.638 Y40.739 E76.82879
G0 F1200 X22.638 Y40.174
G1 F1080 X24.897 Y42.434 E76.98821
G0 F1200 X24.897 Y41.868
G1 F1080 X22.638 Y39.608 E77.14763
G0 F1200 X22.638 Y39.042
G1 F1080 X24.897 Y41.302 E77.30705
G0 F1200 X24.897 Y40.737
G1 F1080 X22.638 Y38.477 E77.46647
G0 F1200 X22.638 Y37.911
