;Header Start

;FLAVOR:Marlin
;TIME:6666
;Filament used: 0m
;Layer height: 0.15


;header_type: 3dp
;thumbnail: data:image/png;base64,iVBORw0KGgoAAAANSUhEUgAAASwAAACWCAYAAABkW7XSAAAK10lEQVR4Xu2d26tNXxSA53EnSnlxLfdEKR4UxZPyQqGI/Bk88YDijT/CX+BZKaHkicKDhKRcXpTLA47L+TVmv7lbZ7duY+3LmGP7Vu32PnvPtcdY35jnO2PNsy9T09PTM4ENAhCAgAMCUwjLQZVIEQIQiAQQFhMBAhBwQwBhuSkViUIAAgiLOQABCLghgLDclIpEIQABhMUcgAAE3BBAWG5KRaIQgADCYg5AAAJuCCAsN6UiUQhAAGExByAAATcEEJabUpEoBCCAsJgDEICAGwIIy02pSBQCEEBYzAEIQMANAYTlplQkCgEIICzmAAQg4IYAwnJTKhKFAAQQFnMAAhBwQwBhuSkViUIAAgiLOQABCLghgLDclIpEIQABhMUcgAAE3BBAWG5KRaIQgADCYg5AAAJuCCAsN6UiUQhAAGExByAAATcEEJabUpEoBCCAsJgDEICAGwIIy02pSBQCEEBYzAEIQMANAYTlplQkCgEIICzmAAQg4IYAwnJTKhKFAAQQFnMAAhBwQwBhuSkViUIAAgiLOQABCLghgLDclIpEIQABhMUcgAAE3BBAWG5KRaIQgADCYg5AAAJuCCAsN6UiUQhAAGExByAAATcEEJabUpEoBCCAsJgDEICAGwIIy02pSBQCEEBYzAEIQMANAYTlplQkCgEIICzmAAQg4IYAwnJTKhKFAAQQFnMAAhBwQwBhuSkViUIAAgiLOQABCLghgLDclIpEIQABhMUcgAAE3BBAWG5KRaIQgADCYg5AAAJuCCAsN6UiUQhAAGExByAAATcEEJabUpEoBCCAsJgDEICAGwIIy02pfCR67dq18O7du5jsiRMnwr59+3wkTpYuCCAsF2XykaTI6u7du+HQoUPh9+/f4caNG+HMmTPh3LlzPg6ALLMngLCyL5GfBEVY169fn5Xw2bNnEZafEmafKcLKvkR+EkRYfmrlNVOE5bVyGeV97969cP/+/SDCWrRo0azM9uzZE6TLku3AgQMZZU0qHgkgLI9VyyDnq1evxiyuXLnSy2br1q1h6dKl8eeVK1eGx48fh2XLloUXL170xoi0Lly4gMAyqKHHFBCWx6oZ5FwmKElj9+7dMZtdu3aFbdu2ha9fv4b379/H++Rn2e7cuROvRWAfPnyYJS/5QQRG92VQVIchEZbDoo0j5SQoOd2TS9pWrVoV5CIdlFwXN5HRp0+fYkclj0l3tWLFitJxHz9+jPJCYOOo5uTEQFiTU8uBjiStQ/ULqr+L6g8iXZNsjx49CgsWLCjNYXp6OkpLujDZykSXnqdfYNJ57d+/nw5soOpOzs4Ia3JqqTqSJCjZqbgOpRGUKmBhcBKWCKxMXmWnj3If619diU/OfghrcmrZeCRV61B1p3lJHqmLagzSYUBT91V2+ojAOoCegF0Q1gQUseoQqgQ1ji6qK9a67kueU04Zq04f5XEW8LuS97EfwvJRp1ZZdl2HGkcX1eoASgY1dV91p48IrCv1fPdDWPnWpjGzOkE1neZJp1J1qtUY2GhA1+4rnT6ygG9UuCGGRVhDhDmOp+p6mpdzF9WVW9fui/WvrsTt90NY9jWozaBOUJPYRXUtR5vui9PHrnTz2Q9h5VOLmEnVCzblsSQouZ1e09SffvF1UZkd2ljTSd1X/8smUhJVi/ep+5JrFvDHWrJWwRBWK0yjG1S3DiVRi299Kcsil7Wo5cuXh/Xr15eCevPmTfj8+fPoIDY8c5tOtKr7SgJj/cusfLMCI6wx16HuBZvFLqrsrS8p1Vy7qCphiawshdVf4jbdV90/JHgB65h/aQrhENYY2NetQ3nqosaAauwh6hbutaePxdPJsR/IPxIQYY2g0IMKKp2eyLW8R49tPASaFu4li/Rex/5PnkgZpk+dYP1rNDVDWEPgWrdQ3vY0L5e1qCHgmJinGLT7Yv1r+FMBYXVg2rRQ3uY0jy6qA3jDXdp0X6kDK3vrULED4wMMuxcSYbVg17RQ3lZQdFEtYDsZ0rb7Sn+Yih+bUzxEFvB1BUdYFbya1qGa/lWenjbX/+jppgmj6wgMs/uSOKx/VdNGWP+zaVqHootCWm0JDLP7GrXA5MtD5AMSvWxuhLVjx44gL0Bct25dWLt2bdi7d2/8huHNmzf3gGvAt1mHoovyMo3zzVPTfbU5fezyAlaRklxk+/btW5g3b154+PBhePDgQbxvw4YN4dmzZ/lCLGTmQlhPnz4Nly9fDosXL44vQBToMhHko3e/f/8eYctnicuWpJUKm+7TCEr2qXrrC6d6LuZ1tkm26b4k+bq3DqWD61//KoqpuO4q4+Wz9bdv3x6+fPkS35Hw9u3b+O3cW7Zsib9Dx48fj9/SnfvmQlhyTv/q1av4nXfyueELFy6Ml6mpqdhlpU2+rSV9Y0vx/v4i/P37t3dX01tfEFTuU9hvfoN2XzL/5VK2rVmzJqxevbr3kNyW+2ST+S9/7OXy8+fPKKxjx46FU6dOZQ8ze2FJd3Xx4sXYXSVhibSqvvCgSDxJq0xkUrSqN8b2V63qPzzZV5cEXRHQzMc5c+bEYyuKqSilpgP/9etXT1g/fvyI0rp06VLYuXNn066mj2cvrPPnz4eXL1+GJUuWREnJZf78+fE8vO2WxFW8ruvA2j4v4yBgRSB1S3JdvN02H/mDLd1V6rJEWkePHg2nT59u+xQm47IW1pMnT6L1pbOSDqsorKpWOFGUv0BIyWROEdSYgAhsZmYmXqo2eaysy7p586Zx9vXhsxaWpC7CkvWrJKy23dXcuXOzBk9yEBglAemg6oQlsf/8+dPrsqTDOnLkSDh58uQo0xr4ubMXlhzh8+fPg3RMt27diqeCr1+/bjxwGd/UhTU+CQMg4JSAyKhpk5czyEXGHj58uGl4Fo+7EFYVKem8ZBOBpdvys9xGWFnML5IwIiAS2rRpU4yerjdu3Ni7bZTWwGFdC6vu6FMXdvv27Z7UBqbFE0AgYwIHDx6M2aXrjFPtnNrECqufCALrPEfYMUMC0i3JZdIF1Y/+nxFWhnOOlCAAASUBhKUExnAIQMCOAMKyY09kCEBASQBhKYExHAIQsCOAsOzYExkCEFASQFhKYAyHAATsCCAsO/ZEhgAElAQQlhIYwyEAATsCCMuOPZEhAAElAYSlBMZwCEDAjgDCsmNPZAhAQEkAYSmBMRwCELAjgLDs2BMZAhBQEkBYSmAMhwAE7AggLDv2RIYABJQEEJYSGMMhAAE7AgjLjj2RIQABJQGEpQTGcAhAwI4AwrJjT2QIQEBJAGEpgTEcAhCwI4Cw7NgTGQIQUBJAWEpgDIcABOwIICw79kSGAASUBBCWEhjDIQABOwIIy449kSEAASUBhKUExnAIQMCOAMKyY09kCEBASQBhKYExHAIQsCOAsOzYExkCEFASQFhKYAyHAATsCCAsO/ZEhgAElAQQlhIYwyEAATsCCMuOPZEhAAElAYSlBMZwCEDAjgDCsmNPZAhAQEkAYSmBMRwCELAjgLDs2BMZAhBQEkBYSmAMhwAE7AggLDv2RIYABJQEEJYSGMMhAAE7AgjLjj2RIQABJQGEpQTGcAhAwI4AwrJjT2QIQEBJAGEpgTEcAhCwI4Cw7NgTGQIQUBJAWEpgDIcABOwIICw79kSGAASUBBCWEhjDIQABOwIIy449kSEAASUBhKUExnAIQMCOAMKyY09kCEBASQBhKYExHAIQsCPwH7vsBM+1x1dNAAAAAElFTkSuQmCC
;file_total_lines: 44471
;estimated_time(s): 15534.26
;nozzle_temperature(°C): 222
;build_plate_temperature(°C): 65
;work_speed(mm/minute): 1800
;max_x(mm): 60.62816986083984
;max_y(mm): 52.88218215942383
;max_z(mm): 8.650759887695308
;min_x(mm): -60.62816986083984
;min_y(mm): -52.88218215942383
;min_z(mm): -4.440892098500626e-15

;Header End

; G-code for 3dp engraving
; Generated by Snapmaker Luban 3.15.0
; Mon Jul 05 2021 0:9:43

M82 ;absolute extrusion mode
;Start GCode begin
M104 S222
M140 S65
G28 ;home
G90 ;absolute positioning
G1 X-10 Y-10 F3000
G1 Z0 F1800
M109 S222;Wait for Hotend Temperature
M190 S65;Wait for Bed Temperature
G92 E0
G1 E20 F200
G92 E0
;Start GCode end
G92 E0
G1 F1500 E-6.5
;LAYER_COUNT:57
;LAYER:0
M107
;MESH:/Users/x/Library/Application Support/snapmaker-luban/Tmp/TableHangerBottom_09538079.stl
G0 F1200 X68.967 Y12.913 Z0.3
;TYPE:WALL-INNER
G1 F1500 E0
G1 F1080 X111.282 Y12.913 E2.1111
G1 X113.018 Y15.921 E2.28437
G1 X114.144 Y15.921 E2.34055
G1 X114.145 Y15.921 E2.3406
G1 X114.49 Y15.921 E2.35781
G1 X114.317 Y16.22 E2.36758
G1 X113.755 Y17.194 E2.42368
G1 X115.254 Y19.789 E2.57319
G1 X94.054 Y56.505 E4.68839
G1 X94.09 Y56.567 E4.69196
G1 X66.471 Y104.403 E7.44773
G1 X63.44 Y104.403 E7.59895
G1 X62.782 Y105.544 E7.66466
G1 X62.781 Y105.545 E7.66473
G1 X62.609 Y105.843 E7.6819
G1 X62.437 Y105.544 E7.69164
G1 X61.78 Y104.404 E7.75729
G1 X58.53 Y104.404 E7.91943
G1 X30.888 Y56.528 E10.6775
G1 X30.901 Y56.504 E10.67886
G1 X9.699 Y19.783 E12.79432
G1 X11.33 Y16.959 E12.95702
G1 X10.904 Y16.22 E12.99958
G1 X10.731 Y15.921 E13.01681
G1 X11.076 Y15.921 E13.02657
G1 X11.077 Y15.921 E13.02662
G1 X11.927 Y15.921 E13.06902
G1 X13.668 Y12.906 E13.24272
G1 X68.963 Y12.906 E16.0014
G1 X68.967 Y12.913 E16.0018
G0 F1200 X68.917 Y12.999
G0 X65.564 Y57.578
G0 X65.494 Y57.508
G1 F1080 X65.494 Y57.308 E16.01178
G1 X65.494 Y56.168 E16.06865
G1 X59.706 Y56.167 E16.35742
G1 X59.506 Y56.167 E16.36739
G1 X59.506 Y56.367 E16.37386
G1 X59.506 Y57.507 E16.43073
G1 X65.294 Y57.508 E16.71949
G1 X65.494 Y57.508 E16.72596
G0 F1200 X65.564 Y57.578
G0 X59.477 Y96.999
G0 X59.435 Y98.437
G0 X59.505 Y98.367
G1 F1080 X65.494 Y98.367 E17.02475
G1 X65.494 Y97.028 E17.09155
G1 X59.705 Y97.027 E17.38037
G1 X59.505 Y97.027 E17.39034
G1 X59.505 Y97.227 E17.3968
G1 X59.505 Y98.367 E17.45368
G0 F1200 X59.905 Y97.967
;TYPE:WALL-OUTER
G1 F1080 X65.094 Y97.967 E17.71256
G1 X65.094 Y97.428 E17.73945
G1 X60.105 Y97.427 E17.98835
G1 X59.905 Y97.427 E17.99833
G1 X59.905 Y97.627 E18.00479
G1 X59.905 Y97.967 E18.02175
G0 F1200 X60.105 Y97.967
G0 X60.105 Y98.467
G0 X59.477 Y98.395
G0 X59.477 Y97.139
G0 X65.093 Y57.607
G0 X65.094 Y57.108
G1 F1080 X65.094 Y56.908 E18.03173
G1 X65.094 Y56.568 E18.04869
G1 X60.106 Y56.567 E18.29755
G1 X59.906 Y56.567 E18.30752
G1 X59.906 Y56.767 E18.31399
G1 X59.906 Y57.107 E18.33095
G1 X64.894 Y57.108 E18.5798
G1 X65.094 Y57.108 E18.58626
G0 F1200 X65.094 Y56.908
G0 X65.594 Y56.908
G0 X69.199 Y13.013
G0 X69.199 Y12.513
G1 F1080 X111.513 Y12.513 E20.69732
G1 X113.249 Y15.521 E20.87058
G1 X114.836 Y15.521 E20.94976
G1 X114.838 Y15.521 E20.94986
G1 X115.182 Y15.521 E20.96702
G1 X115.01 Y15.82 E20.97678
G1 X114.217 Y17.194 E21.05592
G1 X115.715 Y19.789 E21.20541
G1 X94.516 Y56.506 E23.32062
G1 X94.551 Y56.567 E23.32413
G1 X66.702 Y104.803 E26.10292
G1 X63.671 Y104.803 E26.25414
G1 X62.782 Y106.345 E26.34294
G1 X62.609 Y106.645 E26.36022
G1 X62.436 Y106.345 E26.37
G1 X61.549 Y104.804 E26.45871
G1 X58.299 Y104.804 E26.62086
G1 X30.427 Y56.529 E29.4019
G1 X30.44 Y56.506 E29.40322
G1 X9.237 Y19.783 E31.51879
G1 X10.868 Y16.959 E31.68149
G1 X10.211 Y15.82 E31.74709
G1 X10.038 Y15.521 E31.76433
G1 X10.383 Y15.521 E31.77408
G1 X10.384 Y15.521 E31.77413
G1 X11.696 Y15.521 E31.83959
G1 X13.437 Y12.506 E32.01328
G1 X69.195 Y12.506 E34.79506
G1 X69.199 Y12.513 E34.79546
G0 F1200 X69.399 Y12.513
G0 X68.737 Y13.296
;TYPE:SKIN
G1 F1080 X68.741 Y13.303 E34.79587
G1 X111.057 Y13.303 E36.90702
G1 X112.793 Y16.311 E37.08029
G1 X113.815 Y16.311 E37.13128
G1 X113.305 Y17.194 E37.18215
G1 X114.803 Y19.789 E37.33164
G1 X93.603 Y56.505 E39.44683
G1 X93.639 Y56.567 E39.45041
G1 X66.246 Y104.013 E42.18369
G1 X63.215 Y104.013 E42.33491
G1 X62.609 Y105.062 E42.39535
G1 X62.006 Y104.014 E42.45567
G1 X58.755 Y104.014 E42.61786
G1 X31.335 Y56.522 E45.3538
G1 X31.348 Y56.498 E45.35517
G1 X10.15 Y19.783 E47.47027
G1 X11.78 Y16.959 E47.63294
G1 X11.406 Y16.311 E47.67027
G1 X12.152 Y16.311 E47.70749
G1 X13.893 Y13.296 E47.88118
G1 X68.737 Y13.296 E50.61736
G0 F1200 X65.884 Y55.778
G1 F1080 X59.116 Y55.777 E50.95502
G1 X59.116 Y57.897 E51.06079
G1 X65.884 Y57.898 E51.39844
G1 X65.884 Y55.778 E51.50421
G0 F1200 X65.884 Y96.638
G1 F1080 X59.115 Y96.637 E51.84192
G1 X59.115 Y98.757 E51.94768
G1 X65.884 Y98.757 E52.28539
G1 X65.884 Y96.638 E52.39111
G0 F1200 X65.522 Y98.395
G0 X59.143 Y103.832
G1 F1080 X58.467 Y103.156 E52.4388
G1 X58.439 Y103.128
G0 F1200 X59.709 Y103.832
G1 F1080 X57.694 Y101.818 E52.58094
G1 X57.666 Y101.79
G0 F1200 X56.922 Y100.479
G1 F1080 X60.275 Y103.832 E52.81751
G0 F1200 X60.84 Y103.832
G1 F1080 X56.149 Y99.141 E53.14849
G1 X56.121 Y99.113
G0 F1200 X55.376 Y97.802
G1 F1080 X61.406 Y103.832 E53.57393
G0 F1200 X61.972 Y103.832
G1 F1080 X54.603 Y96.464 E54.09382
G1 X54.575 Y96.436
G0 F1200 X53.83 Y95.125
G1 F1080 X62.901 Y104.196 E54.73383
G0 F1200 X62.694 Y104.555
G1 F1080 X62.296 Y104.157 E54.76191
G0 F1200 X63.108 Y103.837
G1 F1080 X53.058 Y93.787 E55.47099
G1 X53.03 Y93.759
G0 F1200 X52.285 Y92.449
G1 F1080 X63.668 Y103.832 E56.27412
G0 F1200 X64.234 Y103.832
G1 F1080 X59.338 Y98.936 E56.61956
G0 F1200 X59.903 Y98.936
G1 F1080 X64.799 Y103.832 E56.965
G0 F1200 X65.365 Y103.832
G1 F1080 X60.469 Y98.936 E57.31044
G0 F1200 X61.035 Y98.936
G1 F1080 X65.931 Y103.832 E57.65588
G0 F1200 X66.273 Y103.608
G1 F1080 X61.601 Y98.936 E57.98552
G0 F1200 X62.166 Y98.936
G1 F1080 X66.48 Y103.249 E58.28986
G0 F1200 X66.687 Y102.891
G1 F1080 X62.732 Y98.936 E58.5689
G0 F1200 X63.298 Y98.936
G1 F1080 X66.894 Y102.532 E58.82262
G0 F1200 X67.101 Y102.174
G1 F1080 X63.863 Y98.936 E59.05108
G0 F1200 X64.429 Y98.936
G1 F1080 X67.308 Y101.815 E59.25421
G0 F1200 X67.515 Y101.456
G1 F1080 X64.995 Y98.936 E59.43201
G0 F1200 X65.56 Y98.936
G1 F1080 X67.722 Y101.097 E59.58451
G0 F1200 X67.929 Y100.739
G1 F1080 X66.064 Y98.874 E59.7161
G0 F1200 X66.064 Y98.308
G1 F1080 X68.136 Y100.38 E59.86229
G0 F1200 X68.343 Y100.022
G1 F1080 X66.064 Y97.742 E60.02312
G0 F1200 X66.064 Y97.176
G1 F1080 X68.55 Y99.663 E60.19856
G0 F1200 X68.757 Y99.304
G1 F1080 X66.064 Y96.611 E60.38856
G0 F1200 X65.909 Y96.456
G1 F1080 X39.148 Y69.695 E62.2767
G1 X39.12 Y69.667
G0 F1200 X38.375 Y68.356
G1 F1080 X68.964 Y98.946 E64.43495
G0 F1200 X69.172 Y98.587
G1 F1080 X37.602 Y67.018 E66.66235
G1 X37.574 Y66.99
G0 F1200 X36.829 Y65.679
G1 F1080 X69.379 Y98.229 E68.95893
G0 F1200 X69.585 Y97.869
G1 F1080 X36.056 Y64.341 E71.32454
G1 X36.028 Y64.313
G0 F1200 X35.283 Y63.002
G1 F1080 X69.792 Y97.511 E73.75934
G0 F1200 X70 Y97.152
G1 F1080 X34.511 Y61.664 E76.26325
G1 X34.483 Y61.636
G0 F1200 X33.738 Y60.326
G1 F1080 X70.207 Y96.794 E78.8363
G0 F1200 X70.414 Y96.435
G1 F1080 X32.966 Y58.987 E81.47845
G1 X32.938 Y58.959
G0 F1200 X32.193 Y57.649
G1 F1080 X70.62 Y96.076 E84.18969
G0 F1200 X70.828 Y95.718
G1 F1080 X31.486 Y56.376 E86.96548
G1 X31.458 Y56.348
G0 F1200 X30.713 Y55.038
G1 F1080 X71.035 Y95.359 E89.81038
G0 F1200 X71.242 Y95.001
G1 F1080 X29.941 Y53.699 E92.72442
G1 X29.913 Y53.671
G0 F1200 X29.168 Y52.361
G1 F1080 X71.449 Y94.642 E95.70757
G0 F1200 X71.656 Y94.283
G1 F1080 X28.395 Y51.022 E98.75987
G1 X28.367 Y50.994
G0 F1200 X27.622 Y49.684
G1 F1080 X71.863 Y93.924 E101.88128
G0 F1200 X72.07 Y93.566
G1 F1080 X26.849 Y48.345 E105.07186
G1 X26.821 Y48.317
G0 F1200 X26.076 Y47.007
G1 F1080 X72.277 Y93.207 E108.33156
G0 F1200 X72.484 Y92.849
G1 F1080 X25.303 Y45.668 E111.66043
G1 X25.275 Y45.64
G0 F1200 X24.53 Y44.329
G1 F1080 X72.691 Y92.49 E115.05845
G0 F1200 X72.898 Y92.131
G1 F1080 X23.758 Y42.991 E118.52554
G1 X23.73 Y42.963
G0 F1200 X22.985 Y41.652
G1 F1080 X73.105 Y91.773 E122.06182
G0 F1200 X73.312 Y91.414
G1 F1080 X22.212 Y40.314 E125.6672
G1 X22.184 Y40.286
G0 F1200 X21.439 Y38.975
G1 F1080 X73.52 Y91.056 E129.34179
G0 F1200 X73.727 Y90.697
G1 F1080 X20.667 Y37.637 E133.08546
G1 X20.639 Y37.609
G0 F1200 X19.894 Y36.299
G1 F1080 X73.933 Y90.338 E136.89821
G0 F1200 X74.14 Y89.98
G1 F1080 X19.121 Y34.96 E140.78013
G1 X19.093 Y34.932
G0 F1200 X18.348 Y33.622
G1 F1080 X74.348 Y89.621 E144.7312
G0 F1200 X74.555 Y89.263
G1 F1080 X17.575 Y32.283 E148.75144
G1 X17.547 Y32.255
G0 F1200 X16.802 Y30.945
G1 F1080 X74.762 Y88.904 E152.8408
G0 F1200 X74.968 Y88.545
G1 F1080 X16.03 Y29.606 E156.99923
G1 X16.002 Y29.578
G0 F1200 X15.257 Y28.268
G1 F1080 X75.176 Y88.186 E161.2268
G0 F1200 X75.383 Y87.828
G1 F1080 X14.484 Y26.929 E165.52355
G1 X14.456 Y26.901
G0 F1200 X13.711 Y25.59
G1 F1080 X75.59 Y87.469 E169.88945
G0 F1200 X75.797 Y87.111
G1 F1080 X12.938 Y24.252 E174.32449
G1 X12.91 Y24.224
G0 F1200 X12.165 Y22.913
G1 F1080 X76.004 Y86.752 E178.82868
G0 F1200 X76.211 Y86.393
G1 F1080 X11.392 Y21.575 E183.40198
G1 X11.364 Y21.547
G0 F1200 X10.62 Y20.236
G1 F1080 X76.418 Y86.035 E188.04442
G0 F1200 X76.625 Y85.676
G1 F1080 X10.494 Y19.545 E192.71031
G0 F1200 X10.701 Y19.186
G1 F1080 X76.832 Y85.318 E197.37625
G0 F1200 X77.039 Y84.958
G1 F1080 X10.907 Y18.827 E202.04218
G0 F1200 X11.115 Y18.468
G1 F1080 X77.246 Y84.6 E206.70812
G0 F1200 X77.453 Y84.241
G1 F1080 X11.322 Y18.11 E211.37402
G0 F1200 X11.529 Y17.751
G1 F1080 X77.66 Y83.883 E216.03995
G0 F1200 X77.868 Y83.524
G1 F1080 X11.735 Y17.392 E220.70596
G0 F1200 X11.943 Y17.034
G1 F1080 X78.074 Y83.165 E225.37186
G0 F1200 X78.281 Y82.807
G1 F1080 X11.964 Y16.49 E230.05088
G0 F1200 X12.355 Y16.315
G1 F1080 X78.488 Y82.448 E234.71692
G0 F1200 X78.696 Y82.09
G1 F1080 X12.563 Y15.957 E239.38296
G0 F1200 X12.77 Y15.598
G1 F1080 X78.903 Y81.731 E244.049
G0 F1200 X79.11 Y81.373
G1 F1080 X12.976 Y15.239 E248.71511
G0 F1200 X13.184 Y14.881
G1 F1080 X79.316 Y81.013 E253.38108
G0 F1200 X79.524 Y80.655
G1 F1080 X13.391 Y14.522 E258.04712
G0 F1200 X13.597 Y14.163
G1 F1080 X79.731 Y80.296 E262.7132
G0 F1200 X79.938 Y79.938
G1 F1080 X13.804 Y13.804 E267.37931
G0 F1200 X14.041 Y13.476
G1 F1080 X80.145 Y79.579 E272.04327
G0 F1200 X80.352 Y79.22
G1 F1080 X59.208 Y58.077 E273.53505
G0 F1200 X59.774 Y58.077
G1 F1080 X80.559 Y78.862 E275.00155
G0 F1200 X80.766 Y78.503
G1 F1080 X60.34 Y58.077 E276.44271
G0 F1200 X60.905 Y58.077
G1 F1080 X80.973 Y78.145 E277.85862
G0 F1200 X81.18 Y77.786
G1 F1080 X61.471 Y58.077 E279.24919
G0 F1200 X62.037 Y58.077
G1 F1080 X81.387 Y77.427 E280.61444
G0 F1200 X81.594 Y77.068
G1 F1080 X62.603 Y58.078 E281.95432
G0 F1200 X63.169 Y58.078
G1 F1080 X81.801 Y76.71 E283.26891
G0 F1200 X82.008 Y76.351
G1 F1080 X63.735 Y58.078 E284.55817
G0 F1200 X64.3 Y58.078
G1 F1080 X82.216 Y75.993 E285.82221
G0 F1200 X82.422 Y75.634
G1 F1080 X64.866 Y58.078 E287.06088
G0 F1200 X65.432 Y58.078
G1 F1080 X82.629 Y75.275 E288.27422
G0 F1200 X82.836 Y74.917
G1 F1080 X65.997 Y58.078 E289.4623
G0 F1200 X66.062 Y57.577
G1 F1080 X83.044 Y74.558 E290.66044
G0 F1200 X83.251 Y74.2
G1 F1080 X66.062 Y57.011 E291.87321
G0 F1200 X66.062 Y56.446
G1 F1080 X83.457 Y73.841 E293.10053
G0 F1200 X83.664 Y73.482
G1 F1080 X66.062 Y55.88 E294.34244
G0 F1200 X65.78 Y55.597
G1 F1080 X23.658 Y13.476 E297.31434
G0 F1200 X23.092 Y13.476
G1 F1080 X65.214 Y55.597 E300.28624
G0 F1200 X64.648 Y55.597
G1 F1080 X22.527 Y13.476 E303.2581
G0 F1200 X21.961 Y13.476
G1 F1080 X64.082 Y55.597 E306.22997
G0 F1200 X63.517 Y55.597
G1 F1080 X21.395 Y13.476 E309.20187
G0 F1200 X20.829 Y13.476
G1 F1080 X62.951 Y55.597 E312.17377
G0 F1200 X62.385 Y55.596
G1 F1080 X20.264 Y13.476 E315.1456
G0 F1200 X19.698 Y13.476
G1 F1080 X61.819 Y55.596 E318.11742
G0 F1200 X61.253 Y55.596
G1 F1080 X19.132 Y13.476 E321.08925
G0 F1200 X18.567 Y13.476
G1 F1080 X60.688 Y55.596 E324.06108
G0 F1200 X60.122 Y55.596
G1 F1080 X18.001 Y13.476 E327.03291
G0 F1200 X17.435 Y13.476
G1 F1080 X59.556 Y55.596 E330.00474
G0 F1200 X58.991 Y55.596
G1 F1080 X16.87 Y13.476 E332.97657
