;FLAVOR:Marlin
;TIME:6666
;Filament used: 0m
;Layer height: 0.2

;Generated with Cura_SteamEngine 3.6.0
M82 ;absolute extrusion mode
;Start GCode begin
M104 S200 ;Set Hotend Temperature
M140 S50 ;Set Bed Temperature
M109 ;Wait for Hotend Temperature
M190 ;Wait for Bed Temperature
G28 ;Home
G90 ;absolute positioning
G1 X-4 Y-4
G1 Z0 F3000
G92 E0
G1 F200 E20
G92 E0
;Start GCode end
G92 E0
G1 F1500 E-6.5
;LAYER_COUNT:83
;LAYER:0
M107
G0 F900 X45.057 Y46.029 Z0.3
;TYPE:SKIRT
G1 F1500 E0
G1 F480 X46.464 Y44.677 E0.09735
G1 X46.766 Y44.417 E0.11723
G1 X49.283 Y42.485 E0.27553
G1 X49.706 Y42.206 E0.30081
G1 X51.457 Y41.218 E0.40112
G1 X51.82 Y41.039 E0.42131
G1 X54.681 Y39.825 E0.57637
G1 X55.151 Y39.663 E0.60117
G1 X57.033 Y39.156 E0.69841
G1 X57.425 Y39.073 E0.7184
G1 X60.56 Y38.594 E0.87662
G1 X61.062 Y38.553 E0.90175
G1 X63.033 Y38.53 E1.00009
G1 X63.433 Y38.548 E1.02006
G1 X66.551 Y38.86 E1.1764
G1 X67.047 Y38.945 E1.20151
G1 X68.956 Y39.411 E1.29954
G1 X69.338 Y39.527 E1.31946
G1 X72.303 Y40.611 E1.47696
G1 X72.763 Y40.817 E1.50211
G1 X74.545 Y41.769 E1.6029
G1 X74.894 Y41.981 E1.62327
G1 X77.462 Y43.753 E1.77893
G1 X77.851 Y44.064 E1.80378
G1 X79.277 Y45.373 E1.90035
G1 X79.554 Y45.656 E1.92011
G1 X81.635 Y48.038 E2.07791
G1 X81.941 Y48.442 E2.1032
G1 X83.011 Y50.085 E2.20102
G1 X83.21 Y50.432 E2.22097
G1 X84.633 Y53.261 E2.37896
G1 X84.827 Y53.724 E2.40401
G1 X85.447 Y55.555 E2.50045
G1 X85.554 Y55.94 E2.52039
G1 X86.235 Y59.051 E2.67927
G1 X86.308 Y59.553 E2.70458
G1 X86.455 Y61.521 E2.80304
G1 X86.463 Y61.923 E2.8231
G1 X86.346 Y65.075 E2.98046
G1 X86.292 Y65.574 E3.0055
G1 X85.947 Y67.504 E3.10331
G1 X85.855 Y67.892 E3.12321
G1 X84.962 Y70.912 E3.28032
G1 X84.785 Y71.386 E3.30557
G1 X83.968 Y73.176 E3.40373
G1 X83.782 Y73.53 E3.42368
G1 X82.163 Y76.235 E3.58096
G1 X81.875 Y76.648 E3.60608
G1 X80.621 Y78.201 E3.70567
G1 X80.349 Y78.501 E3.72587
G1 X78.119 Y80.702 E3.88219
G1 X77.739 Y81.028 E3.90717
G1 X76.155 Y82.207 E4.00568
G1 X75.822 Y82.427 E4.02559
G1 X73.118 Y84.007 E4.18184
G1 X72.665 Y84.231 E4.20705
G1 X70.822 Y84.985 E4.30639
G1 X70.443 Y85.116 E4.3264
G1 X67.423 Y85.974 E4.48303
G1 X66.933 Y86.077 E4.50801
G1 X64.968 Y86.349 E4.60698
G1 X64.565 Y86.382 E4.62715
G1 X61.434 Y86.461 E4.78341
G1 X60.934 Y86.439 E4.80838
G1 X58.915 Y86.208 E4.90976
G1 X58.51 Y86.138 E4.93027
G1 X55.494 Y85.438 E5.08474
G1 X55.024 Y85.294 E5.10926
G1 X53.161 Y84.583 E5.20875
G1 X52.789 Y84.416 E5.22909
G1 X50.016 Y82.979 E5.38491
G1 X49.592 Y82.721 E5.40967
G1 X48.01 Y81.601 E5.50637
G1 X47.696 Y81.351 E5.5264
G1 X45.309 Y79.225 E5.68587
G1 X44.956 Y78.863 E5.7111
G1 X43.685 Y77.362 E5.80922
G1 X43.44 Y77.039 E5.82945
G1 X41.686 Y74.419 E5.98675
G1 X41.438 Y73.986 E6.01164
G1 X40.586 Y72.228 E6.10911
G1 X40.431 Y71.856 E6.12921
G1 X39.38 Y68.878 E6.28677
G1 X39.247 Y68.397 E6.31167
G1 X38.856 Y66.472 E6.40967
G1 X38.798 Y66.072 E6.42983
G1 X38.52 Y62.927 E6.58735
G1 X38.511 Y62.426 E6.61235
G1 X38.611 Y60.471 E6.71001
G1 X38.653 Y60.074 E6.72993
G1 X39.162 Y56.964 E6.88715
G1 X39.279 Y56.471 E6.91243
G1 X39.869 Y54.583 E7.01111
G1 X40.01 Y54.208 E7.0311
G1 X41.276 Y51.329 E7.18801
G1 X41.509 Y50.885 E7.21302
G1 X42.561 Y49.183 E7.31285
G1 X42.793 Y48.85 E7.3331
G1 X44.721 Y46.399 E7.48867
G1 X45.057 Y46.029 E7.51361
G0 F900 X45.334 Y46.318
G1 F480 X46.741 Y44.966 E7.61096
G1 X47.01 Y44.735 E7.62865
G1 X49.527 Y42.803 E7.78695
G1 X49.902 Y42.554 E7.80941
G1 X51.653 Y41.566 E7.90971
G1 X51.976 Y41.407 E7.92768
G1 X54.837 Y40.193 E8.08273
G1 X55.255 Y40.049 E8.10479
G1 X57.137 Y39.542 E8.20203
G1 X57.486 Y39.469 E8.21982
G1 X60.621 Y38.99 E8.37804
G1 X61.067 Y38.953 E8.40036
G1 X63.038 Y38.93 E8.4987
G1 X63.394 Y38.946 E8.51648
G1 X66.512 Y39.258 E8.67282
G1 X66.952 Y39.333 E8.69509
G1 X68.861 Y39.799 E8.79312
G1 X69.201 Y39.903 E8.81086
G1 X72.166 Y40.987 E8.96836
G1 X72.575 Y41.17 E8.99072
G1 X74.357 Y42.122 E9.09151
G1 X74.666 Y42.31 E9.10956
G1 X77.234 Y44.082 E9.26522
G1 X77.581 Y44.359 E9.28737
G1 X79.007 Y45.668 E9.38394
G1 X79.253 Y45.92 E9.40151
G1 X81.334 Y48.302 E9.55931
G1 X81.605 Y48.661 E9.58175
G1 X82.675 Y50.304 E9.67957
G1 X82.853 Y50.612 E9.69732
G1 X84.276 Y53.441 E9.85531
G1 X84.448 Y53.853 E9.87758
G1 X85.068 Y55.684 E9.97403
G1 X85.163 Y56.026 E9.99174
G1 X85.844 Y59.137 E10.15062
G1 X85.909 Y59.583 E10.17311
G1 X86.056 Y61.551 E10.27156
G1 X86.063 Y61.908 E10.28938
G1 X85.946 Y65.06 E10.44674
G1 X85.898 Y65.504 E10.46902
G1 X85.553 Y67.434 E10.56683
G1 X85.472 Y67.778 E10.58447
G1 X84.579 Y70.798 E10.74158
G1 X84.421 Y71.22 E10.76406
G1 X83.604 Y73.01 E10.86223
G1 X83.439 Y73.324 E10.87993
G1 X81.82 Y76.029 E11.0372
G1 X81.564 Y76.396 E11.05953
G1 X80.31 Y77.949 E11.15911
G1 X80.068 Y78.217 E11.17713
G1 X77.838 Y80.418 E11.33345
G1 X77.501 Y80.707 E11.3556
G1 X75.917 Y81.886 E11.45411
G1 X75.62 Y82.082 E11.47186
G1 X72.916 Y83.662 E11.62811
G1 X72.514 Y83.861 E11.65049
G1 X70.671 Y84.615 E11.74983
G1 X70.334 Y84.731 E11.76761
G1 X67.314 Y85.589 E11.92424
G1 X66.878 Y85.681 E11.94647
G1 X64.913 Y85.953 E12.04544
G1 X64.555 Y85.982 E12.06336
G1 X61.424 Y86.061 E12.21962
G1 X60.979 Y86.041 E12.24184
G1 X58.96 Y85.81 E12.34323
G1 X58.601 Y85.748 E12.3614
G1 X55.585 Y85.048 E12.51587
G1 X55.167 Y84.921 E12.53767
G1 X53.304 Y84.21 E12.63715
G1 X52.973 Y84.061 E12.65526
G1 X50.2 Y82.624 E12.81108
G1 X49.823 Y82.395 E12.83309
G1 X48.241 Y81.275 E12.92979
G1 X47.962 Y81.053 E12.94758
G1 X45.575 Y78.927 E13.10705
G1 X45.261 Y78.605 E13.12949
G1 X43.99 Y77.104 E13.22762
G1 X43.773 Y76.816 E13.24561
G1 X42.019 Y74.196 E13.40291
G1 X41.798 Y73.812 E13.42501
G1 X40.946 Y72.054 E13.52247
G1 X40.808 Y71.723 E13.54037
G1 X39.757 Y68.745 E13.69792
G1 X39.639 Y68.317 E13.72007
G1 X39.248 Y66.392 E13.81807
G1 X39.196 Y66.037 E13.83597
G1 X38.918 Y62.892 E13.99349
G1 X38.91 Y62.447 E14.01569
G1 X39.01 Y60.492 E14.11335
G1 X39.048 Y60.138 E14.13112
G1 X39.557 Y57.028 E14.28834
G1 X39.661 Y56.591 E14.31075
G1 X40.251 Y54.703 E14.40944
G1 X40.376 Y54.369 E14.42723
G1 X41.642 Y51.49 E14.58413
G1 X41.849 Y51.096 E14.60634
G1 X42.901 Y49.394 E14.70616
G1 X43.108 Y49.098 E14.72418
G1 X45.036 Y46.647 E14.87976
G1 X45.334 Y46.318 E14.90191
G1 F1500 E8.40191
;MESH:/Users/x/Library/Application Support/snapmakerjs/Tmp/threadbox-bot_2020102218394601.stl
G0 F900 X51.149 Y44.746
G0 X51.905 Y45.785
G0 X66.193 Y43.139
G0 X66.211 Y43.041
;TYPE:WALL-INNER
G1 F1500 E14.90191
G1 F480 X68.619 Y43.66 E15.02595
G1 X70.942 Y44.579 E15.15058
G1 X73.105 Y45.769 E15.27375
G1 X75.126 Y47.237 E15.39837
G1 X76.944 Y48.943 E15.52275
G1 X78.527 Y50.855 E15.64659
G1 X79.86 Y52.958 E15.77081
G1 X80.919 Y55.209 E15.89492
G1 X81.687 Y57.573 E16.01893
G1 X82.152 Y60.012 E16.14281
G1 X82.308 Y62.5 E16.26718
G1 X82.152 Y64.988 E16.39155
G1 X81.687 Y67.427 E16.51542
G1 X80.919 Y69.791 E16.63943
G1 X79.86 Y72.042 E16.76354
G1 X78.527 Y74.145 E16.88776
G1 X76.944 Y76.057 E17.0116
G1 X75.126 Y77.763 E17.13598
G1 X73.105 Y79.231 E17.2606
G1 X70.942 Y80.421 E17.38377
G1 X68.619 Y81.34 E17.5084
G1 X66.211 Y81.959 E17.63244
G1 X63.747 Y82.27 E17.75635
G1 X61.253 Y82.27 E17.88078
G1 X58.789 Y81.959 E18.00468
G1 X56.381 Y81.34 E18.12872
G1 X54.058 Y80.421 E18.25336
G1 X51.895 Y79.231 E18.37652
G1 X49.874 Y77.763 E18.50114
G1 X48.056 Y76.057 E18.62552
G1 X46.473 Y74.145 E18.74936
G1 X45.14 Y72.042 E18.87358
G1 X44.081 Y69.791 E18.99769
G1 X43.313 Y67.427 E19.1217
G1 X42.848 Y64.988 E19.24558
G1 X42.692 Y62.5 E19.36995
G1 X42.848 Y60.012 E19.49432
G1 X43.313 Y57.573 E19.61819
G1 X44.081 Y55.209 E19.7422
G1 X45.14 Y52.958 E19.86631
G1 X46.473 Y50.855 E19.99053
G1 X48.056 Y48.943 E20.11437
G1 X49.874 Y47.237 E20.23875
G1 X51.895 Y45.769 E20.36337
G1 X54.058 Y44.579 E20.48654
G1 X56.381 Y43.66 E20.61117
G1 X58.789 Y43.041 E20.73522
G1 X61.253 Y42.73 E20.85912
G1 X63.747 Y42.73 E20.98355
G1 X66.211 Y43.041 E21.10745
G0 F900 X66.281 Y42.647
;TYPE:WALL-OUTER
G1 F480 X68.747 Y43.28 E21.23447
G1 X71.11 Y44.215 E21.36125
G1 X73.324 Y45.433 E21.48732
G1 X75.383 Y46.929 E21.6143
G1 X77.233 Y48.665 E21.74087
G1 X78.852 Y50.621 E21.86754
G1 X80.211 Y52.764 E21.99414
G1 X81.291 Y55.06 E22.12073
G1 X82.076 Y57.476 E22.24747
G1 X82.549 Y59.959 E22.37357
G1 X82.709 Y62.5 E22.5006
G1 X82.549 Y65.041 E22.62762
G1 X82.076 Y67.524 E22.75372
G1 X81.291 Y69.94 E22.88046
G1 X80.211 Y72.236 E23.00705
G1 X78.852 Y74.379 E23.13365
G1 X77.233 Y76.335 E23.26033
G1 X75.383 Y78.071 E23.3869
G1 X73.324 Y79.567 E23.51387
G1 X71.11 Y80.785 E23.63994
G1 X68.747 Y81.72 E23.76672
G1 X66.281 Y82.353 E23.89374
G1 X63.773 Y82.67 E24.01986
G1 X61.227 Y82.67 E24.14688
G1 X58.719 Y82.353 E24.273
G1 X56.253 Y81.72 E24.40002
G1 X53.89 Y80.785 E24.5268
G1 X51.676 Y79.567 E24.65287
G1 X49.617 Y78.071 E24.77985
G1 X47.767 Y76.335 E24.90642
G1 X46.148 Y74.379 E25.03309
G1 X44.789 Y72.236 E25.15969
G1 X43.709 Y69.94 E25.28628
G1 X42.924 Y67.524 E25.41302
G1 X42.451 Y65.041 E25.53912
G1 X42.291 Y62.5 E25.66615
G1 X42.451 Y59.959 E25.79317
G1 X42.924 Y57.476 E25.91927
G1 X43.709 Y55.06 E26.04601
G1 X44.789 Y52.764 E26.1726
G1 X46.148 Y50.621 E26.2992
G1 X47.767 Y48.665 E26.42588
G1 X49.617 Y46.929 E26.55245
G1 X51.676 Y45.433 E26.67942
G1 X53.89 Y44.215 E26.80549
G1 X56.253 Y43.28 E26.93227
G1 X58.719 Y42.647 E27.05929
G1 X61.227 Y42.33 E27.18541
G1 X63.773 Y42.33 E27.31243
G1 X66.281 Y42.647 E27.43855
G0 F900 X66.474 Y42.696
G0 X66.136 Y43.425
;TYPE:SKIN
G1 F480 X68.496 Y44.031 E27.56011
G1 X70.784 Y44.936 E27.68287
G1 X72.886 Y46.093 E27.80257
G1 X74.878 Y47.541 E27.92544
G1 X76.663 Y49.214 E28.04749
G1 X78.212 Y51.085 E28.16867
G1 X79.517 Y53.144 E28.29029
G1 X80.555 Y55.352 E28.41201
G1 X81.309 Y57.673 E28.53377
G1 X81.763 Y60.053 E28.65465
G1 X81.916 Y62.5 E28.77697
G1 X81.763 Y64.947 E28.89929
G1 X81.309 Y67.327 E29.02017
G1 X80.555 Y69.648 E29.14192
G1 X79.517 Y71.856 E29.26364
G1 X78.212 Y73.915 E29.38526
G1 X76.663 Y75.786 E29.50644
G1 X74.878 Y77.459 E29.6285
G1 X72.886 Y78.907 E29.75136
G1 X70.784 Y80.064 E29.87107
G1 X68.496 Y80.969 E29.99382
G1 X66.136 Y81.575 E30.11538
G1 X63.722 Y81.88 E30.23677
G1 X61.278 Y81.88 E30.3587
G1 X58.864 Y81.575 E30.4801
G1 X56.504 Y80.969 E30.60166
G1 X54.216 Y80.064 E30.72441
G1 X52.114 Y78.907 E30.84412
G1 X50.122 Y77.459 E30.96698
G1 X48.337 Y75.786 E31.08904
G1 X46.788 Y73.915 E31.21022
G1 X45.483 Y71.856 E31.33184
G1 X44.445 Y69.648 E31.45356
G1 X43.691 Y67.327 E31.57531
G1 X43.237 Y64.947 E31.69619
G1 X43.084 Y62.5 E31.81851
G1 X43.237 Y60.053 E31.94083
G1 X43.691 Y57.673 E32.06171
G1 X44.445 Y55.352 E32.18346
G1 X45.483 Y53.144 E32.30519
G1 X46.788 Y51.085 E32.4268
G1 X48.337 Y49.214 E32.54799
G1 X50.122 Y47.541 E32.67004
G1 X52.114 Y46.093 E32.79291
G1 X54.216 Y44.936 E32.91261
G1 X56.504 Y44.031 E33.03537
G1 X58.864 Y43.425 E33.15693
G1 X61.278 Y43.12 E33.27832
G1 X63.722 Y43.12 E33.40025
G1 X66.136 Y43.425 E33.52164
G0 F900 X76.728 Y49.575
G1 F480 X75.89 Y48.737 E33.58077
G1 X75.862 Y48.709
G0 F900 X72.95 Y46.363
G1 F480 X78.563 Y51.975 E33.97676
G1 X78.591 Y52.003
G0 F900 X79.453 Y53.431
G1 F480 X71.627 Y45.605 E34.52893
G1 X71.599 Y45.577
G0 F900 X70.456 Y45
G1 F480 X79.954 Y54.498 E35.19906
G1 X79.982 Y54.526
G0 F900 X80.424 Y55.534
G1 F480 X69.521 Y44.631 E35.96833
G1 X69.493 Y44.603
G0 F900 X68.585 Y44.261
G1 F480 X80.697 Y56.372 E36.82286
G1 X80.725 Y56.4
G0 F900 X80.969 Y57.21
G1 F480 X67.797 Y44.038 E37.75222
G0 F900 X67.035 Y43.842
G1 F480 X81.187 Y57.994 E38.75072
G0 F900 X81.32 Y58.693
G1 F480 X66.274 Y43.647 E39.81229
G0 F900 X65.6 Y43.538
G1 F480 X81.453 Y59.392 E40.93084
G0 F900 X81.583 Y60.087
G1 F480 X64.953 Y43.457 E42.10418
G0 F900 X64.305 Y43.375
G1 F480 X81.622 Y60.691 E43.32595
G0 F900 X81.659 Y61.294
G1 F480 X63.665 Y43.3 E44.59552
G0 F900 X63.099 Y43.3
G1 F480 X81.696 Y61.898 E45.90768
G0 F900 X81.734 Y62.501
G1 F480 X62.533 Y43.3 E47.26241
G0 F900 X61.968 Y43.3
G1 F480 X81.701 Y63.033 E48.65468
G0 F900 X81.668 Y63.566
G1 F480 X61.402 Y43.3 E50.08456
G0 F900 X60.886 Y43.35
G1 F480 X81.634 Y64.098 E51.54844
G0 F900 X81.601 Y64.63
G1 F480 X60.384 Y43.414 E53.04538
G0 F900 X59.882 Y43.477
G1 F480 X81.543 Y65.138 E54.57368
G0 F900 X81.452 Y65.613
G1 F480 X59.379 Y43.54 E56.13105
G0 F900 X58.88 Y43.607
G1 F480 X81.361 Y66.088 E57.71721
G0 F900 X81.271 Y66.563
G1 F480 X58.43 Y43.722 E59.32876
G0 F900 X57.98 Y43.838
G1 F480 X81.18 Y67.038 E60.96565
G0 F900 X81.066 Y67.489
G1 F480 X57.53 Y43.953 E62.62624
G0 F900 X57.079 Y44.069
G1 F480 X80.927 Y67.916 E64.30881
G0 F900 X80.789 Y68.343
G1 F480 X56.63 Y44.184 E66.01336
G0 F900 X56.217 Y44.337
G1 F480 X80.65 Y68.771 E67.73727
G0 F900 X80.511 Y69.198
G1 F480 X55.811 Y44.498 E69.47999
G0 F900 X55.406 Y44.658
G1 F480 X80.369 Y69.621 E71.24127
G0 F900 X80.188 Y70.006
G1 F480 X55.001 Y44.819 E73.01834
G0 F900 X54.595 Y44.979
G1 F480 X80.007 Y70.391 E74.8113
G0 F900 X79.826 Y70.775
G1 F480 X54.2 Y45.149 E76.61935
G0 F900 X53.835 Y45.35
G1 F480 X79.645 Y71.16 E78.44039
G0 F900 X79.464 Y71.545
G1 F480 X53.47 Y45.551 E80.2744
G0 F900 X53.105 Y45.751
G1 F480 X79.268 Y71.914 E82.12034
G0 F900 X79.048 Y72.259
G1 F480 X52.74 Y45.952 E83.97648
G0 F900 X52.376 Y46.153
G1 F480 X78.828 Y72.606 E85.84285
G0 F900 X78.609 Y72.952
G1 F480 X52.032 Y46.375 E87.718
G0 F900 X51.705 Y46.613
G1 F480 X78.389 Y73.298 E89.60073
G0 F900 X78.169 Y73.644
G1 F480 X51.377 Y46.852 E91.49105
G0 F900 X51.05 Y47.09
G1 F480 X77.93 Y73.971 E93.38762
G0 F900 X77.674 Y74.28
G1 F480 X50.722 Y47.328 E95.28923
G0 F900 X50.394 Y47.566
G1 F480 X77.419 Y74.59 E97.19595
G0 F900 X77.163 Y74.9
G1 F480 X50.085 Y47.823 E99.10642
G0 F900 X49.793 Y48.095
G1 F480 X76.907 Y75.209 E101.01945
G0 F900 X76.651 Y75.519
G1 F480 X49.501 Y48.369 E102.93503
G0 F900 X49.208 Y48.643
G1 F480 X76.374 Y75.808 E104.85171
G0 F900 X76.082 Y76.082
G1 F480 X48.916 Y48.916 E106.76841
G0 F900 X48.624 Y49.19
G1 F480 X75.79 Y76.356 E108.68512
G0 F900 X75.498 Y76.629
G1 F480 X48.348 Y49.479 E110.6007
G0 F900 X48.092 Y49.789
G1 F480 X75.206 Y76.903 E112.51374
G0 F900 X74.913 Y77.176
G1 F480 X47.835 Y50.098 E114.42424
G0 F900 X47.579 Y50.408
G1 F480 X74.604 Y77.433 E116.331
G0 F900 X74.277 Y77.671
G1 F480 X47.323 Y50.717 E118.23275
G0 F900 X47.067 Y51.027
G1 F480 X73.949 Y77.909 E120.12942
G0 F900 X73.621 Y78.147
G1 F480 X46.828 Y51.354 E122.01981
G0 F900 X46.609 Y51.7
G1 F480 X73.294 Y78.385 E123.90258
G0 F900 X72.967 Y78.623
G1 F480 X46.389 Y52.046 E125.77777
G0 F900 X46.17 Y52.393
G1 F480 X72.623 Y78.845 E127.64414
G0 F900 X72.258 Y79.046
G1 F480 X45.95 Y52.738 E129.50031
G0 F900 X45.731 Y53.085
G1 F480 X71.893 Y79.247 E131.34618
G0 F900 X71.528 Y79.448
G1 F480 X45.534 Y53.454 E133.18019
G0 F900 X45.353 Y53.839
G1 F480 X71.163 Y79.649 E135.00123
G0 F900 X70.799 Y79.85
G1 F480 X45.172 Y54.223 E136.80935
G0 F900 X44.991 Y54.608
G1 F480 X70.403 Y80.02 E138.60231
G0 F900 X69.997 Y80.18
G1 F480 X44.81 Y54.993 E140.37939
G0 F900 X44.63 Y55.378
G1 F480 X69.592 Y80.34 E142.14059
G0 F900 X69.187 Y80.501
G1 F480 X44.487 Y55.801 E143.88331
G0 F900 X44.349 Y56.228
G1 F480 X68.782 Y80.661 E145.60719
G0 F900 X68.369 Y80.814
G1 F480 X44.21 Y56.655 E147.31174
G0 F900 X44.071 Y57.082
G1 F480 X67.919 Y80.929 E148.99431
G0 F900 X67.469 Y81.045
G1 F480 X43.933 Y57.509 E150.6549
G0 F900 X43.818 Y57.96
G1 F480 X67.018 Y81.161 E152.29182
G0 F900 X66.568 Y81.276
G1 F480 X43.728 Y58.436 E153.9033
G0 F900 X43.636 Y58.91
G1 F480 X66.118 Y81.391 E155.48949
G0 F900 X65.618 Y81.457
G1 F480 X43.546 Y59.385 E157.04679
G0 F900 X43.455 Y59.86
G1 F480 X65.116 Y81.521 E158.57509
G0 F900 X64.614 Y81.585
G1 F480 X43.397 Y60.367 E160.0721
G0 F900 X43.364 Y60.9
G1 F480 X64.112 Y81.648 E161.53599
G0 F900 X63.597 Y81.699
G1 F480 X43.33 Y61.432 E162.96593
G0 F900 X43.297 Y61.965
G1 F480 X63.031 Y81.699 E164.35827
G0 F900 X62.465 Y81.699
G1 F480 X43.265 Y62.498 E165.71297
G0 F900 X43.302 Y63.101
G1 F480 X61.9 Y81.699 E167.02516
G0 F900 X61.334 Y81.699
G1 F480 X43.339 Y63.704 E168.29481
G0 F900 X43.377 Y64.307
G1 F480 X60.693 Y81.624 E169.51658
G0 F900 X60.046 Y81.542
G1 F480 X43.415 Y64.911 E170.68999
G0 F900 X43.545 Y65.607
G1 F480 X59.399 Y81.46 E171.80854
G0 F900 X58.724 Y81.351
