;Header Start

;FLAVOR:Marlin
;TIME:6666
;Filament used: 0m
;Layer height: 0.15


;header_type: 3dp
;thumbnail: data:image/png;base64,iVBORw0KGgoAAAANSUhEUgAAASwAAACWCAYAAABkW7XSAAAPyUlEQVR4Xu2dTa8URRSGG3HjSmGB+LEBdQsKKvK5QmN07Q9wDQQTwUTj3pVfoPwTFAgbUFQSWAghqIArwQgEliiimLfMuR6L6p6unhlqau7TyWTmzlR3VT9V9cyp6pq+S27fvn23YYMABCBQAYElCKuCWqKIEIBAIICwaAgQgEA1BBBWNVVFQSEAAYRFG4AABKohgLCqqSoKCgEIICzaAAQgUA0BhFVNVVFQCEAAYdEGIACBagggrGqqioJCAAIIizYAAQhUQwBhVVNVFBQCEEBYtAEIQKAaAgirmqqioBCAAMKiDUAAAtUQQFjVVBUFhQAEEBZtAAIQqIYAwqqmqigoBCCAsGgDEIBANQQQVjVVRUEhAAGERRuAAASqIYCwqqkqCgoBCCAs2gAEIFANAYRVTVVRUAhAAGHRBiAAgWoIIKxqqoqCQgACCIs2AAEIVEMAYVVTVRQUAhBAWLQBCECgGgIIq5qqoqAQgADCog1AAALVEEBY1VQVBYUABBAWbQACEKiGAMKqpqooKAQggLBoAxCAQDUEEFY1VUVBIQABhEUbgAAEqiGAsKqpKgoKAQggLNoABCBQDQGEVU1VUVAIQABh0QYgAIFqCCCsaqqKgkIAAgiLNgABCFRDAGFVU1UUFAIQQFi0AQhAoBoCCKuaqqKgEIAAwqINQAAC1RBAWNVUFQWFAAQQFm0AAhCohgDCqqaqKCgEIICwaAMQgEA1BBBWNVVFQSEAAYRFG4AABKohgLCqqSoKCgEIICzaAAQgUA0BhFVNVS2Ogn777bfNN99803z00UfNpk2bwklv3LgxPOz14iDBWaYIICzaxcwQOHnyZPPGG280f/31VyjTkiVLwvPdu3cX/tZryevtt98O75vUZuYkKMhUCSCsMfF++OGHzd9//90oMjhx4kTzwAMPhL/VqayjqVNt2bIl/K1ntjSBp59+uvnjjz+CsMTKhGWpvcD02viawJDX/LcshDWgjj/++OOwl4Yt2iwisEPpb+t0FiFIYnqoo+mxefPmIK+tW7eG3Ra7yN58883m2LFjze+//x44+QjLR1n2vgnLi0ufSV579uwJ+yOwAY17xndBWJkV9MknnzQmLPuG91Ky99Tp9NokZcJSWuuQ/jMT1nvvvRdKZCLLLF6Vyfft29d89tlnQVa3b9++Z0gYn5SPvCwSS0VkJiwJTF8QbPUTQFg96/DTTz9tJKv4297kow5jsrLXsbx8GhOaSc0f10QmiW3bti3Ia14FJvlLVnfu3Gn+/PPPICwfYcXDQF9dKUlZBGafeblJYHv37kVePdv8LCZDWD1qRaJSFBBHVLGgfPSUkpcXmAkqJTEfsdmQR+kkLz2///771Qvsgw8+aJYuXbrwJaAhtERlz75a2uauYjnZPnEEpnlFcbNnG5K/8847xeV16dKlRg/fXjSXpwfbvQQQVkerUFSlh22+UfmIqC26SgktFVF1RWdegl5kei2BaVP0Za/tuW9j//nnn0PS1atX992lOX78eEhrz207Sgxxmq+++mphHk+fP/jgg0Ekdp5tE+6jCmes44n6WGI2h+jfV+T17rvvTvWiiDjYud+6dSu8fuGFF0IxrP79NMKrr77avPbaa6NOe9F9jrBaqrxLVn3F5Rtj23AxTtMmuRxpemnptR5PPvlkY3LSs732w9dVq1Y1r7zyyv++3dXRvKBGSapPDzKp2LOElVrCEEdKMQNjF0+8+zL4YaN/7ctgErPIy+Q1ZBhuYjKh65hi/fjjjzdPPPFEeKTqMp4i0N8aKrP9nwDCSrSIeAjYJSgvnLbXfihpkUTqmF1DzjZh+ff9/hs2bAgfSVR6tG1eWDYke+ihh5rTp0+HKEBbKmqJz2mcjhXLwyKuWDxtwkqli8uXKq8XmJ2nj8BM/BKYbSZsK7OPnHy5JSZJ6vnnn+9kb23GR1f2WhEWURbC6uxbFln1kVSOrOJhn+3bdYw4jf/bv5aQ1Dm0vfTSS1nuSAlLw7Jff/21+f7778NzXMY+GfQVmheEXqvT21q2UYIy4cR1ldovLnNb+WI5x+Wz46SGlo899liIoLykujj4csfC0t/PPPNM89Zbb/XBvWjSEGFFVf3FF180u3btumeCvUsw+qztamHc2S1dH9n5jhd3yhdffDF8bJHU0BbbJizLT2ujLl++HK7gxevNhuSZEoKOo/c1CW9Rihe8ZzZKPH1FmSp7W9ksrZ+09/uvX7++NZLqI6zUcFDvvf7660RYUUUhrISwFGVdvHhx4ZOu4VscOXkBeCl1vR+nS8nRBGXP1smHSMPvM0pY6qS//fZbc/bs2SCtX375pTPL1PDRvxe/tr8lK03A2982+e75pmSVmuey+mobynoppjjanFg81+bzX7duXaOIyiLbNihtwvLvtwlL0ZWiLLb/CCCsqDVcuHCh2blzZ6PnuGP3iYraBKZ94yhMaVORmd4zMcUTtb5MbVfEchu4H47Eq/TVuS3y0XMsnD4C82muXLmyUDwNN+34OrY/vi/HOFFTHxZ+0r5NUiqDSUqi6rsNEZbJGmHdSxlhJVrejh07mkOHDoVPfIMbJSMfrcSv/ep2m3uxIZb+tknaLkHFRZ0FYfXtuCn56z0NN8+cOdNcv359IcKyyX8tJk1FWF1XBS2ftjTGzEdheu2He77On3vuuWblypUhmhqyjRKWnZ+PshBWO2mE1SIsRVg+ykoNC30jswgqJapUZKWhhB5KP3QealLCskjPROF/Bzkqwhq3Eytv5Xfu3Lnmxx9/XPiSsDmzLmHF8mkTekoa8VDSC+7ZZ58Nh5Ksxt1yhWU/4dJ+n3/++bjZz93+CKtFWGrAEpbvRH5IGH8zxvMQXly2nyZndVxbMDi0NcVzLEOPY/v1FZZdwfNRzJC84/kb66Ri/dNPPwWJS1htEZZFqKmhXBwRW5p43iqOnk1S9jzkvFL7IKxJkfz3OAgrwVPrsDTprkb+9ddfN9euXfvf0CQlq/jqn4YRNiHbtRZnSHVOQ1gW6XTNYU1bWMpbP1ORtCQr/a7Qd/i2YV6cpo1pLLO1a9eG4Z4e09r6CCs16a6f5rCk4d5aQViJlqqlDQcPHlxYE3T+/PkwZImHexaZ+Ebf58rRuJ1jXoVlEdWpU6eaq1evhijLOnOKmR8SjoqgtP+jjz4aHqovPU97a5OVj+6sDfkolzVY7TWDsHoIy346okjLz320fTNPam6prdrup7CUl/3eb9oRlgnr5s2bzXfffReirJSwUksZPCsvijVr1oSPFE3ZULJLJJOU2DjCYg1WuiYQVoaw/G/euqSEsLq7fdsclglLe2tI/sMPP3RGWClJKXJasWLFgqTiNH2uME5KWn2ExRqsPNoIK8FLk+2ax7KIwkSlxm5Dj8UkLFsjNc0IK547E19FWvqtXlfH94KyaKprDgth5Qli1lIjrA5hqXHbYkaTFsL691Yw2oZGkqkIKyUsE6XWaGkO0SInPx+V06FmZUgYn7+/iMMarO4aRVgtfLR4tEtYXR12aEfu2/nu9xyWj7CUt53f0PO0Dht3VL/+y9j7FfBD8zOusyas+GqzXanVM2uwmMPq64OQzoRlwyAbDvbpsON2rFEFRVijCKU/n3VhsWh0dL0SYbUw8mux/HBwFoQ17pAsPmX7prdhWVuk4+fyJjEkJML69/8AxLeWYQ1Wu7gQVoewNPluP/ydpQhrWsJSx9GVOoQ1+pu+TwoWjfahlJcGYbXwihePxlFWyTmsaQpLsvLLC/xcUokIy9aA+cg2r4n/l3qWhoTLli1rHnnkkRBhLV++PDxrhb/W+nHjPiKs7DY+jrDGGS7lFHRSc2WpoZn91KiUsPxtZ2JR5jDyaUsLS4KSqHTv/NSwXO9JWhIWt0ZO1zIR1hQiLITVrZQ+VwlrF5adowQVS6prqKhoS8LSM9u9BBBWR6vwSxtmbfHo0GGhvuX1UOT08MMPh8P4zmF3qCDCGq4LY9wVSdnR7Y6iqgMkNZo5wupgpGGhHrO4eLSPsLycdG8ndQgbRupbP5aVR2HnPm9DwtFdYniKl19+OdxDS8xu3LjReiDkNJwxwhpDWF1Dv0nNL7UVL16LJTnpn6GqM5ioxu0Yira+/PLL8H/1/NXS+7FwdFpDwuFdJb2nJKVt+/btkz40x0sQQFgjmoXu7z6Li0efeuqpICgvqmm1cP0Q+ciRI4GD5LXYhYWkptXSRh8XYY1gpKGR7u9eevGodRJJKuffyo9uApNNYf9ROnVU+0w36dOmZ1s42XbjQPtPOpNa1jD0bJHUUHKT3Q9h9eCp/1OYunPDNIeEi6WDSFqHDx8Ot6L2976yIeGkhDXkHlj6YlAky3CvRye5T0kQVg/QmsdJRVmTEpZ1jMU8F7J///6F+7mLg4QlWdkFj3EjrJw1WPqymPVItkezncskCKtntUpYigT8T3SGCquW4V1PNBNLtm/fviAtbXaXhvslLCQ1sWqc6oEQVgZeCUuPnDuPEj1lAG6a8E9s75ewkFRe3cxCaoSVWQuac9HDTy4r6vIT4XYFL/PQJG+asO7N1r7F98IaZ6mIDQk1H8Vwr96mhrDqrbu5LbnNGU5CWCYnJDUfzQVhzUc9zt1Z7N69e2Eeyybc+0ZYdlWPq3tz1yz4R6rzV6XzcUZarHrgwIFeVwmJouajzvucBRFWH0qkKUJA0jp69OjC6nqbK7T5QoZ5RaqlaKYIqyh+MocABHIIIKwcWqSFAASKEkBYRfGTOQQgkEMAYeXQIi0EIFCUAMIqip/MIQCBHAIIK4cWaSEAgaIEEFZR/GQOAQjkEEBYObRICwEIFCWAsIriJ3MIQCCHAMLKoUVaCECgKAGEVRQ/mUMAAjkEEFYOLdJCAAJFCSCsovjJHAIQyCGAsHJokRYCEChKAGEVxU/mEIBADgGElUOLtBCAQFECCKsofjKHAARyCCCsHFqkhQAEihJAWEXxkzkEIJBDAGHl0CItBCBQlADCKoqfzCEAgRwCCCuHFmkhAIGiBBBWUfxkDgEI5BBAWDm0SAsBCBQlgLCK4idzCEAghwDCyqFFWghAoCgBhFUUP5lDAAI5BBBWDi3SQgACRQkgrKL4yRwCEMghgLByaJEWAhAoSgBhFcVP5hCAQA4BhJVDi7QQgEBRAgirKH4yhwAEcgggrBxapIUABIoSQFhF8ZM5BCCQQwBh5dAiLQQgUJQAwiqKn8whAIEcAggrhxZpIQCBogQQVlH8ZA4BCOQQQFg5tEgLAQgUJYCwiuIncwhAIIcAwsqhRVoIQKAoAYRVFD+ZQwACOQQQVg4t0kIAAkUJIKyi+MkcAhDIIYCwcmiRFgIQKEoAYRXFT+YQgEAOAYSVQ4u0EIBAUQIIqyh+MocABHIIIKwcWqSFAASKEkBYRfGTOQQgkEPgH96/QVYL0z/yAAAAAElFTkSuQmCC
;file_total_lines: 98786
;estimated_time(s): 4383.79
;nozzle_temperature(°C): 222
;build_plate_temperature(°C): 65
;work_speed(mm/minute): 2100
;max_x(mm): 30
;max_y(mm): 10.920960426330566
;max_z(mm): 16.580429077148438
;min_x(mm): -30
;min_y(mm): -10.920960426330566
;min_z(mm): 0

;Header End

; G-code for 3dp engraving
; Generated by Snapmaker Luban 3.15.0
; Fri Jul 23 2021 14:49:21

M82 ;absolute extrusion mode
;Start GCode begin
M104 S222
M140 S65
G28 ;home
G90 ;absolute positioning
G1 X-10 Y-10 F3000
G1 Z0 F1800
M109 S222;Wait for Hotend Temperature
M190 S65;Wait for Bed Temperature
G92 E0
G1 E20 F200
G92 E0
;Start GCode end
G92 E0
G1 F1500 E-6.5
;LAYER_COUNT:109
;LAYER:0
M107
G0 F1320 X37.443 Y55.829 Z0.3
;TYPE:SUPPORT
G1 F1500 E0
G1 F1080 X39.429 Y54.98 E0.05388
G1 X39.771 Y54.857 E0.06294
G1 X40.175 Y54.698 E0.07377
G1 X41.374 Y54.299 E0.1053
G1 X42.092 Y54.067 E0.12412
G1 X43.834 Y53.579 E0.16925
G1 X44.992 Y53.31 E0.1989
G1 X45.364 Y53.189 E0.20866
G1 X45.723 Y53.097 E0.2179
G1 X46.731 Y52.874 E0.24366
G1 X48.274 Y52.552 E0.28298
G1 X49.464 Y52.337 E0.31314
G1 X49.85 Y52.257 E0.32297
G1 X51.02 Y52.054 E0.3526
G1 X52.746 Y51.821 E0.39604
G1 X53.913 Y51.694 E0.42533
G1 X53.93 Y51.7 E0.42578
G1 X54.637 Y51.645 E0.44346
G1 X55.167 Y51.624 E0.4567
G1 X55.221 Y51.635 E0.45807
G1 X55.712 Y51.838 E0.47132
G1 X56.076 Y51.777 E0.48053
G1 X56.192 Y51.821 E0.48363
G1 X56.409 Y51.937 E0.48976
G1 X56.74 Y52.253 E0.50118
G1 X56.782 Y52.31 E0.50295
G1 X57.037 Y52.564 E0.51192
G1 X57.129 Y52.789 E0.51799
G1 X57.67 Y53.735 E0.54517
G1 X57.987 Y54.219 E0.5596
G1 X58.644 Y54.988 E0.58483
G1 X59.423 Y55.212 E0.60505
G1 X59.627 Y55.264 E0.61031
G1 X60.137 Y55.375 E0.62333
G1 X61.019 Y55.493 E0.64552
G1 X61.124 Y55.493 E0.64814
G1 X61.518 Y55.585 E0.65823
G1 X63.131 Y55.56 E0.69848
G1 X63.816 Y55.507 E0.71561
G1 X64.205 Y55.469 E0.72536
G1 X64.852 Y55.371 E0.74169
G1 X66.697 Y55.006 E0.7886
G1 X67.075 Y54.667 E0.80127
G1 X67.523 Y53.26 E0.8381
G1 X67.555 Y53.237 E0.83909
G1 X67.747 Y52.95 E0.8477
G1 X68.61 Y53.248 E0.87048
G1 X69.13 Y53.29 E0.88349
G1 X69.595 Y53.227 E0.89519
G1 X70.101 Y53.081 E0.90833
G1 X71.579 Y52.494 E0.948
G1 X71.438 Y51.686 E0.96846
G1 X71.799 Y51.723 E0.97751
G1 X72.196 Y51.78 E0.98752
G1 X73.46 Y51.932 E1.01928
G1 X76.331 Y52.447 E1.09204
G1 X79.991 Y53.264 E1.18558
G1 X82.12 Y53.859 E1.24073
G1 X83.64 Y54.327 E1.2804
G1 X84.484 Y54.616 E1.30265
G1 X84.732 Y54.694 E1.30914
G1 X86.056 Y55.204 E1.34453
G1 X87.035 Y55.65 E1.37137
G1 X87.73 Y56.022 E1.39103
G1 X87.936 Y56.215 E1.39807
G1 X88.298 Y56.514 E1.40979
G1 X88.417 Y56.58 E1.41318
G1 X88.545 Y56.676 E1.41717
G1 X88.904 Y56.869 E1.42734
G1 X89.166 Y57.12 E1.43639
G1 X89.553 Y57.517 E1.45022
G1 X90.184 Y58.313 E1.47556
G1 X90.377 Y58.602 E1.48423
G1 X90.783 Y59.246 E1.50322
G1 X91.279 Y60.119 E1.52826
G1 X92.395 Y62.296 E1.58929
G1 X92.496 Y62.512 E1.59524
G1 X92.475 Y62.556 E1.59645
G1 X92.475 Y62.607 E1.59773
G1 X92.278 Y62.924 E1.60704
G1 X92.07 Y63.379 E1.61951
G1 X90.849 Y65.696 E1.68485
G1 X89.899 Y67.125 E1.72765
G1 X89.575 Y67.47 E1.73946
G1 X89.011 Y68.172 E1.76192
G1 X88.614 Y67.65 E1.77828
G1 X88.27 Y67.903 E1.78893
G1 X88.152 Y67.956 E1.79216
G1 X87.953 Y68.108 E1.79841
G1 X87.835 Y68.17 E1.80173
G1 X87.618 Y68.373 E1.80914
G1 X87.22 Y68.649 E1.82123
G1 X87.536 Y69.139 E1.83577
G1 X86.075 Y69.813 E1.87591
G1 X83.877 Y70.635 E1.93444
G1 X82.988 Y70.894 E1.95754
G1 X82.532 Y71.041 E1.96949
G1 X82.134 Y71.146 E1.97976
G1 X81.052 Y71.46 E2.00787
G1 X80.51 Y71.561 E2.02162
G1 X80.123 Y71.693 E2.03182
G1 X79.136 Y71.93 E2.05714
G1 X79.116 Y71.921 E2.05769
G1 X78.223 Y72.143 E2.08064
G1 X77.019 Y72.397 E2.11133
G1 X76.048 Y72.582 E2.13599
G1 X76.027 Y72.576 E2.13654
G1 X74.943 Y72.782 E2.16406
G1 X73.604 Y73 E2.1979
G1 X72.855 Y73.105 E2.21677
G1 X71.497 Y73.267 E2.25089
G1 X71.009 Y73.309 E2.2631
G1 X70.194 Y73.355 E2.28347
G1 X69.778 Y73.366 E2.29385
G1 X69.751 Y73.361 E2.29453
G1 X69.306 Y73.183 E2.30649
G1 X68.979 Y73.224 E2.31471
G1 X68.88 Y73.209 E2.31721
G1 X68.815 Y73.184 E2.31894
G1 X68.343 Y72.876 E2.333
G1 X68.205 Y72.682 E2.33894
G1 X67.955 Y72.437 E2.34767
G1 X67.524 Y71.4 E2.37569
G1 X66.768 Y70.485 E2.40529
G1 X66.244 Y69.962 E2.42376
G1 X65.387 Y69.737 E2.44586
G1 X64.624 Y69.589 E2.46525
G1 X63.99 Y69.507 E2.4812
G1 X63.866 Y69.507 E2.48429
G1 X63.475 Y69.416 E2.49431
G1 X61.796 Y69.44 E2.53619
G1 X61.339 Y69.478 E2.54763
G1 X60.719 Y69.542 E2.56318
G1 X60.285 Y69.605 E2.57412
G1 X58.338 Y69.964 E2.62351
G1 X57.954 Y70.298 E2.6362
G1 X57.473 Y71.746 E2.67426
G1 X57.462 Y71.754 E2.6746
G1 X57.258 Y72.048 E2.68353
G1 X56.354 Y71.744 E2.70732
G1 X55.863 Y71.711 E2.7196
G1 X55.405 Y71.773 E2.73113
G1 X54.899 Y71.919 E2.74426
G1 X53.421 Y72.506 E2.78393
G1 X53.562 Y73.313 E2.80437
G1 X52.828 Y73.242 E2.82276
G1 X50.928 Y72.954 E2.8707
G1 X48.443 Y72.508 E2.93368
G1 X45.648 Y71.885 E3.00511
G1 X44.427 Y71.584 E3.03648
G1 X42.914 Y71.161 E3.07567
G1 X41.251 Y70.645 E3.11911
G1 X40.089 Y70.245 E3.14976
G1 X38.934 Y69.79 E3.18073
G1 X38.012 Y69.375 E3.20595
G1 X37.264 Y68.978 E3.22707
G1 X37.05 Y68.772 E3.23448
G1 X36.71 Y68.505 E3.24527
G1 X36.615 Y68.448 E3.24803
G1 X36.446 Y68.327 E3.25322
G1 X36.114 Y68.145 E3.26266
G1 X35.747 Y67.792 E3.27536
G1 X35.327 Y67.349 E3.29059
G1 X35.041 Y66.96 E3.30264
G1 X34.81 Y66.678 E3.31173
G1 X34.274 Y65.847 E3.3364
G1 X33.983 Y65.363 E3.35048
G1 X33.279 Y64.036 E3.38796
G1 X32.507 Y62.493 E3.43099
G1 X33.986 Y59.547 E3.51322
G1 X35.15 Y57.824 E3.56509
G1 X35.602 Y57.341 E3.58159
G1 X36.014 Y56.861 E3.59737
G1 X36.386 Y57.35 E3.6127
G1 X36.73 Y57.097 E3.62335
G1 X36.848 Y57.044 E3.62658
G1 X37.047 Y56.892 E3.63283
G1 X37.165 Y56.83 E3.63615
G1 X37.382 Y56.627 E3.64356
G1 X37.78 Y56.351 E3.65565
G1 X37.443 Y55.829 E3.67114
G0 F1320 X37.89 Y55.812
G1 F1080 X37.89 Y56.226 E3.68147
G0 F1320 X37.89 Y56.468
G1 F1080 X37.89 Y69.129 E3.9973
G0 F1320 X38.599 Y69.465
G1 F1080 X60.159 Y69.465 E4.53512
G0 F1320 X61.045 Y69.351
G1 F1080 X61.045 Y55.653 E4.87682
G0 F1320 X63.15 Y55.718
G1 F1080 X63.15 Y69.261 E5.21465
G0 F1320 X64.824 Y69.465
G1 F1080 X86.445 Y69.465 E5.75399
G0 F1320 X86.305 Y69.531
G1 F1080 X86.305 Y55.494 E6.10414
G0 F1320 X84.327 Y54.73
G1 F1080 X67.224 Y54.73 E6.53078
G0 F1320 X67.36 Y54.306
G1 F1080 X67.36 Y70.95 E6.94596
G0 F1320 X67.767 Y71.57
G1 F1080 X79.951 Y71.57 E7.24989
G0 F1320 X79.99 Y71.561
G1 F1080 X79.99 Y53.431 E7.70215
G0 F1320 X77.885 Y52.958
G1 F1080 X77.885 Y72.051 E8.17842
G0 F1320 X75.78 Y72.461
G1 F1080 X75.78 Y52.511 E8.67608
G0 F1320 X76.399 Y52.625
G1 F1080 X71.681 Y52.625 E8.79377
G0 F1320 X71.57 Y52.669
G1 F1080 X71.57 Y73.097 E9.30335
G0 F1320 X69.465 Y73.073
G1 F1080 X69.465 Y53.405 E9.79397
G0 F1320 X73.675 Y52.133
G1 F1080 X73.675 Y72.826 E10.31016
G0 F1320 X82.095 Y70.991
G1 F1080 X82.095 Y54.02 E10.7335
G0 F1320 X84.2 Y54.688
G1 F1080 X84.2 Y70.344 E11.12404
G0 F1320 X88.41 Y67.602
G1 F1080 X88.41 Y56.776 E11.3941
G0 F1320 X88.504 Y56.835
G1 F1080 X37.394 Y56.835 E12.66904
G0 F1320 X35.785 Y57.374
G1 F1080 X35.785 Y67.599 E12.92411
G0 F1320 X35.557 Y67.36
G1 F1080 X89.458 Y67.36 E14.26867
G0 F1320 X90.515 Y65.909
G1 F1080 X90.515 Y59.122 E14.43797
G0 F1320 X90.402 Y58.94
G1 F1080 X34.59 Y58.94 E15.83021
G0 F1320 X33.68 Y60.514
G1 F1080 X33.68 Y64.449 E15.92837
G0 F1320 X34.105 Y65.255
G1 F1080 X90.9 Y65.255 E17.34513
G0 F1320 X91.998 Y63.15
G1 F1080 X33.013 Y63.15 E18.81651
G0 F1320 X33.413 Y61.045
G1 F1080 X91.575 Y61.045 E20.26737
G0 F1320 X65.255 Y55.454
G1 F1080 X65.255 Y69.548 E20.61895
G0 F1320 X58.94 Y69.69
G1 F1080 X58.94 Y55.241 E20.97938
G0 F1320 X58.214 Y54.73
G1 F1080 X40.585 Y54.73 E21.41914
G0 F1320 X39.995 Y54.94
G1 F1080 X39.995 Y70.036 E21.79571
G0 F1320 X42.1 Y70.74
G1 F1080 X42.1 Y54.232 E22.2075
G0 F1320 X44.205 Y53.657
G1 F1080 X44.205 Y71.355 E22.64898
G0 F1320 X45.037 Y71.57
G1 F1080 X55.711 Y71.57 E22.91524
G0 F1320 X54.73 Y71.815
G1 F1080 X54.73 Y51.802 E23.41447
G0 F1320 X52.625 Y51.998
G1 F1080 X52.625 Y73.049 E23.93959
G0 F1320 X50.52 Y72.717
G1 F1080 X50.52 Y52.303 E24.44882
G0 F1320 X48.772 Y52.625
G1 F1080 X56.872 Y52.625 E24.65087
G0 F1320 X56.835 Y52.589
G1 F1080 X56.835 Y71.736 E25.1285
G0 F1320 X57.361 Y71.57
G1 F1080 X56.149 Y71.57 E25.15873
G0 F1320 X48.415 Y72.337
G1 F1080 X48.415 Y52.689 E25.64885
G0 F1320 X46.31 Y53.13
G1 F1080 X46.31 Y71.868 E26.11627
M104 S212
G1 F1500 E19.61627
;MESH:/Users/x/Library/Application Support/snapmaker-luban/Tmp/filledarrowwhole_49445036.stl
G0 F1320 X68.41 Y52.93
G0 X68.695 Y52.105
G0 X69.489 Y52.009
G0 X69.516 Y52.105
;TYPE:WALL-OUTER
G1 F1500 E26.11627
G1 F1080 X69.375 Y52.147 E26.11994
G1 X69.206 Y52.171 E26.1242
G1 X69.109 Y52.185 E26.12665
G1 X68.88 Y52.17 E26.13237
G1 X68.849 Y52.167 E26.13315
G1 X68.825 Y52.159 E26.13378
G1 X68.676 Y52.107 E26.13771
G1 X68.764 Y52.046 E26.1379
G1 X68.895 Y51.955 E26.13977
G1 X68.996 Y51.913 E26.14099
G1 X69.159 Y51.846 E26.14463
G1 X69.306 Y51.816 E26.14771
G1 X69.424 Y51.791 E26.15015
G1 X69.702 Y51.779 E26.15666
G1 X69.757 Y51.78 E26.15803
G1 X70.341 Y51.802 E26.17261
G1 X69.798 Y52.018 E26.17722
G1 X69.748 Y52.038 E26.17806
G1 X69.516 Y52.105 E26.1824
G0 F1320 X69.375 Y52.147
G0 X69.323 Y52.154
G1 F1500 E19.6824
G0 F1320 X69.31 Y52.055
G0 X68.695 Y52.105
G0 X68.41 Y52.93
G0 X56.427 Y72.017
G0 X56.148 Y72.852
G0 X55.511 Y72.991
G0 X55.484 Y72.895
G1 F1500 E26.1824
G1 F1080 X55.625 Y72.853 E26.18607
G1 X55.794 Y72.829 E26.19032
G1 X55.891 Y72.815 E26.19277
G1 X56.12 Y72.83 E26.19849
G1 X56.151 Y72.833 E26.19927
G1 X56.175 Y72.841 E26.1999
G1 X56.324 Y72.893 E26.20384
G1 X56.236 Y72.954 E26.20402
G1 X56.105 Y73.045 E26.20589
G1 X56.004 Y73.087 E26.20712
G1 X55.841 Y73.154 E26.21076
G1 X55.694 Y73.184 E26.21383
G1 X55.576 Y73.209 E26.21627
G1 X55.298 Y73.221 E26.22278
G1 X55.243 Y73.22 E26.22415
G1 X54.659 Y73.198 E26.23873
G1 X55.202 Y72.982 E26.24334
G1 X55.252 Y72.962 E26.24419
G1 X55.484 Y72.895 E26.24852
G0 F1320 X55.625 Y72.853
G0 X55.677 Y72.846
G1 F1500 E19.74852
;MESH:NONMESH
G0 F1320 X55.69 Y72.945
G0 X54.678 Y73.195
G0 X54.357 Y72.388
G0 X33.68 Y60.158
;TIME_ELAPSED:76.689539
;LAYER:1
M140 S58
M106 S255
G0 F1410 X33.68 Y60.158 Z0.45
;TYPE:SUPPORT
G1 F1500 E26.24852
G1 F2340 X32.507 Y62.493 E26.3137
G1 X32.645 Y62.769 E26.3214
G1 X33.27 Y64.018 E26.35624
G1 X33.62 Y64.684 E26.37501
G1 X33.68 Y64.796 E26.37818
G1 X33.68 Y60.158 E26.49387
G1 X33.987 Y59.548 E26.51091
G1 X34.987 Y58.065 E26.55552
G1 X35.368 Y57.608 E26.57037
