;Header Start

;FLAVOR:Marlin
;TIME:6666
;Filament used: 0m
;Layer height: 0.15


;header_type: 3dp
;thumbnail: data:image/png;base64,iVBORw0KGgoAAAANSUhEUgAAASwAAACWCAYAAABkW7XSAAAVOklEQVR4Xu2dR48lNReGa4hiT845SOS4IAixIGcJITaAADFCIue0JEeRFgNCBLFhRc5BIgiRMyLnHP4AQxj01qfT32mPK3Xbt8vTT0lX9/btumX78fFbx/axa8HixYuXVBwQgAAECiCwAMEqoJbIIgQgUBNAsDAECECgGAIIVjFVRUYhAAEECxuAAASKIYBgFVNVZBQCEECwsAEIQKAYAghWMVVFRiEAAQQLG4AABIohgGAVU1VkFAIQQLCwAQhAoBgCCFYxVUVGIQABBAsbgAAEiiGAYBVTVWQUAhBAsLABCECgGAIIVjFVRUYhAAEECxuAAASKIYBgFVNVZBQCEECwsAEIQKAYAghWMVVFRiEAAQQLG4AABIohgGAVU1VkFAIQQLCwAQhAoBgCCFYxVUVGIQABBAsbgAAEiiGAYBVTVWQUAhBAsLABCECgGAIIVjFVRUYhAAEECxuAAASKIYBgFVNVZBQCEECwsAEIQKAYAghWMVVFRiEAAQQLG4AABIohgGAVU1VkFAIQQLCwAQhAoBgCCFYxVUVGIQABBAsbgAAEiiGAYBVTVWQUAhBAsLABCECgGAIIVjFVRUYhAAEECxuAAASKIYBgFVNVZBQCEECwsAEIQKAYAghWMVVFRiEAAQQLG4AABIohgGAVU1VkFAIQQLCwAQhAoBgCCFYxVUVGIQABBAsbgAAEiiGAYBVTVWQUAhBAsLABCECgGAIIVjFVRUYhAAEECxuAAASKIYBgFVNVZBQCEECwsAEIQKAYAghWMVVFRiEAAQQLG4AABIohgGAVU1VkFAIQQLCwAQhAoBgCCFYxVTXOjL744ouDM7bXXnsN/k2uH5Se/1xcxnpdBGusNTOifKlRv/TSS3WO9Nk38rXXXrtaZ511qgULFtSv8FiyZEn91Q8//FC/6++ff/65/mzCpfc999xz6u9cRb/88svrS1922WXTklhrrbWqddddt7EMlm/l/ccff6x/+9NPP0XL4MuVqxzz+boI1nyu/R5l32+//aYJlP3k2GOPrVZaaaVqhRVWqJZffvlqueWWq//lhUsN3ATr33//rf7555/q77//rr7//vvqqaeeWip1CVfs+x7Z7DzljjvuqCRYv/7667Rzd9hhh1qs1ltvvbocbWVQWVQGlUXl0EtC/Nxzzy2V/qWXXlpdcsklnfnihGEEEKxhvObd2YcddlgtSu+8804tRuZZCIQ8E31nHpa+U8P3hxq0CZd5KOZh2Xm6zpprrllts8021aJFi7IwfvDBB6vHH3+8+v3332txjZVH5dAhAbNDn8P862+Jll7vvvvuUvmV17nGGmtUr7zySpayzOeLIljzufZ7lH3hwoW1YOmlhm6iZZ8lSLGuYHhp87RMANTY1bCt8ZvHkluw5EWZR2hl8GUyD2touSR2KovEV2X766+/qttuu60HYU4ZQgDBGkJrHp578sknVyuuuOI0wVIDt8ZuSJrGsPR/3zW0v9Wo7XvrYqmR33777VkoP/TQQ9Vjjz1Wi5UXLN+VjZXJBKxJgE2IfVnUbdx4442rM844I0tZ5vNFEaz5XPs9yn799ddXX3311VRDN2FKKVhq4NbIzznnnB65Gn7K1VdfXX355ZdRwbIyhaJrnmPbZIIXLBNhlWWjjTaqzjzzzOEZ5RetBBAsDKSVAIL1v4mEmIdlYhV6jereysNCsNI3LgQrEdMwnsfCAJour2l8f4wpNsnnq0mwNHBuDdmm+pvGstSwbUDbGrfGeqwbVYKHZWEZyr//HIqWlemEE06oNt100ymUY63fROY/scsgWD1R+1gk/SSMR7LLWMNsa7zWwGNJm2FrSnwMRn7cccdVX3zxRfXLL7/U2Q1n+KwM8ii6DnUtw0PCpUOzhLvvvnt1yCGH1DFZqY9rrrmm7hKqK6sJBBuH8wPv1iV87bXX6uQ1I+rFKcyTnx2NeWD6LqxrX6cWf6bzxlDXqZnnuB6C1UDVBKpJmLbffvva+DXTpXfNfvlxndggtJ8e13iH4pHefPPNRhHIGZfUZkyKVwoFOvQGN9xww2qTTTapx4T8IHwo1H4w2uKYJFx6ffPNNzWD8JBgKY4ppXB9+umn1aOPPlrXkdKOCZYE6oEHHmhE42O2QqHzP/KTDDYLauEdEjClYzeAkOukgmhziMkkrolgBZTVWMNIaH/K1ltvXclw1VBtql/Gay8/UNvUeHU96wa98cYb1dtvvx2ta8Ul3XvvvdWWW245CVuo01BXVsGiTce5555brbzyylOD1zMRLCv7n3/+WV133XWNacnLzBF8+fnnn9eCJc/RvD69a+xJgvXbb79F87TjjjvWXVvFmg0VrDDoVAwkXs8//3w0LQnXWLzsiRlfj4QQrADSKqus0opt9dVXr+RdybMaKljyJqyLoXcfhGmJqmukoEO9Vl111eq8886bqGCpAZ1yyilRz0d5tMa69957141WXtYQD0vdMomDGnDbOr499tijuvDCC6t99tmnhxmnOeWTTz6prr322uqPP/6o3n///fqiMU9Ida8y77bbbvU5+uyDTWMelgWaWgiH6l6vDz/8sDHzsoWvv/46TeGWkasgWEFF3nTTTdXLL79cez0xQQnr3aK9zXDt/+ZdtY2ByPAteNKivc2wzQs5+OCDqyOOOGJi5ibBkpclMZbAmqio+9Z2dI1hxcav/PXUxdxggw1qIVNXUN6O3ictWPL4zFu2eC2Jll5mD212YcLlwx2snH4dZRtL2YTs4aijjiKWKwCFYAVAnnjiierJJ5+cGpuRcdp4lI9+bhs4t4F3P4NkEd5KzgaawzEtv+TD1t5JsA4//PA5EaywqysO33777ZRXYWNB+qJNkLyYGRPFKekwkQrLPheCpeU7Ns4VRsPHuoChbfibVpt96LzQRixS3m5gBJ/GTR7BahAsPyZl0dDee2pbjhK7u+q39r3EyP4OB6V910FGOzbBCicWrJF2Lc8Ju0lW/jDi3YRaZZ+0h2WCFUbCh11eK6uPkvdm1BZw6r2tMCRC//PBpxpLPPDAAyd2syohIQQrqCUtkDUPq2lgtW0Zihcmb5ClCVbTmrtlWbCuvPLKqWj40LuM2UKbYA0R8NjNS4ItwTrooINK0JGJ5RHBClBrBumWW26ZWm/ml214D8u7/7HaCtfPzUSwdLdVd+qiiy6amEFokFczk2MQLG1hY13HSQCQYKlr68XKhCoWrxXzpPp6V94emgTrtNNOqzbbbLNJFL2YNBCsiGDdfPPNSy329XfMmRplaJhdY1gSLEVLX3DBBRMzqPksWFpvqFAHP+huN6wmwQo9qZnaRixeDcFa2uwRrIgUyFB8NHTYBZypUfYRLB+vg2BN1sPqEizfBYx53t7rHjrGGQqWJh3k6XNMJ4BgNQiWDbz6AdehXcLQ7Y8Jlr6zgVY/4GqD7xrDmOQsoTyse+65Z9pOop5BrjEsz8B2JtWyoEl2CbUFjc0SqpxhUGxuwfIMJFi33norehUQmJeC5QMWY4uU77zzzmkr9O1uGa4TDHem9GzbZgp9VzAmWDJczQ7p/dBDD5240d599911gGtMtBWPJR4+pME8i6bQBo3D+QkIEyF9p/grC2mwdwmWAlQlWJM+Pvvss+qRRx6ZWnfou4KzFSwxjS2cthCIcNbwxBNPXKr4frnSfFx/uMwKVvjgBNX8TJ6QMqTBmIApAjoWi9XlYe2///51cgcccMCQZLOce99991V6SZwkUl2Bo7PNhIRLh+Ky1ChzLMkZkkdNvuhQXJ6i883LNHHu6hLaAmqJUVvw8JA8NZ07nxZULxOCZU9DaVqoHFa0iUmbx2S/8YtW9V1XQKBPS8K16667Tkted1F5HFrSYnfUtrV7KQy6zzW6FnvHriF+XQz903K8J9FnFcGYdq7QYLxESu8mYKGXKUavv/56ZWLVh/tMGfa1RTFclnaFKFKw+gqUIsoVOazDDMPfGcOZv9hAaWxdWNcuC95QjznmmHrnga6lK32MO8c5XYu9fZo77bTTFEffVTKvw7/b78KusR9cloDZ7gVN29bYdca+GFjipTWYfbx42aXsUTezrh0+VP4YQ31vY15iqHO084eONpZjugnMxJ6LESzzANp2UhCAbbfdtr4TakeFruC/mQqWbQ2jPcK7jtVWW6367rvvuk6bk//3FSst9pZYxca0whnTUPTbBMuPWckT6/OIr7nacqdPBa2//vr1U3m6Dk2kaPjA8zSx77ppmoD5cVC/rEmfTcD0RJ/wsWZh3sZ+IwjzW4Rg9WlYEgatbt9uu+2WCvxrC/4zIE3R6zEPS4KlGaUur0DX1q4GGgcZ26EbQJ+uqG4AEn/bmaJpO5mmUI8uwfLP+dOjt2yXhDZeY33mnyZKPvroo8btaaxM8rB22WWXXnuoeYHyXmufGD7ZqbreH3zwQaeQliJcoxasvo1KFSngbVu++LWBTdHrXXc3jU3IULSHVdehhq69szQ9rTCBsR19bgKWZwmbujAW/e7DHGbrYZlgvfXWW9Fn/MW4KT7ppJNOGhXSjz/+uLrqqqvqJwxJIPoIr+xV45w2WdPnphnzsCwExnus1l2U/enG+sILL/TiJS93zLOPoxaspqcOx8jLw9KGd7p7hduDWAPz4wX+c5M7/uqrr9ZJqbvSZ7BdXScZjbw8bzznn39+tdVWW/UymEmdpKl7idZ7773XK0lxVbdQ3CReKcew1LjkXfU5xFhLleYi3KMtfxIsbcPsu3nqjolvbE+t8FpiKuEy8WraX2uIYImr0lc++nRV7cbfp2vep65ynDNqwTr++OOr+++/f3C5tfmduocSKtt3O/Sq1OC8COn/9veQaWjtQqnDxCrcfUAexBgF6+GHH667qtpdU2LRp3vrK8I2sfNPS26K7raZVvt90+aFbRUtzmIsvgr7KEGwvCcq0bCdZfuy9qLlJ4/EKbbjh7p/9r3S6Bq/ivE++uijK8XhjfUYtWCpQd11112Vugt9psFzQ7YN95SOvA1vNGG0uvew9GCFI488Mnf2Bl3fBMtPTMjIxVrHGHjvvPPOdV4kVn7bndIEK/RG/QM9bOfRQZWX4WSNqYmx4t/GEAfYVMTRC1a4mZ4fP+rTTRtSt2F8lkRHImWbq3l3PHaXC0XL9naSNzDJXUP7lFmCpa10YhvV6ffmcUrEPOfUzJWWj0WyKX8brPdMjefZZ59dbb755n2KObFztBe8mPouYTgUYR6oRczbu+etcyRik2IuzhIru8Geeuqp0x5PNjGAPRMatWAp2ljrqWID5la+sFun79u6dOEWtv55eXZNv0TCe1H2f/sudMvD7uCYBUtLUG644YZWwVJ5m/Z8Crl3daP9jqsmUt5GvUDZjcFuCn7aXl3sEgQrXNLjB9SbBMvzNhHzjIbaun7ruYe2HoZGiK0Ea8xb2oxasAT89NNPb92bylds0xhKKN7hmq2YuIcNKGxEoYelv1XhPjDSGpqi2i+++OKe95DJnDZbwZoNd88/vEmEN4hSPKwrrriijoKPhX3oO88rFCxvt6HXFVpDGDvYx1rC0BLP3Nur7FdbK435GL1g2VYvvpJDYRpaiZMWLO1pNclN+PoYHILVh1L/c7T5n+2lFYZ9eMGKeVoxwWq6+aa0dbuhmmhpNYba25iP0QuWFF9bnlhFh+EIBrcpcLHNe/JeU5MXFgaOhp6V/3+ThzVGwdKDRW+88cbG6PVwvCXWgIYw96z7elgxb3WsXcImwbLhDPOw2gTL/69LsGbbmwjHCPW3dtFQj2bMx+gFSzOFigvx0erevZ6JYHU1nvD/TdHafgzAhCw28D7G4NGSBeuss86qtthii1G1K22FY6sBvIfVJFgxccopWOFNIjapobjHMc8Q1u1+8eLFS0ZV80FmwsduhfFUYxMs72bbVLwGMfVQ0DEdCFba2tATdxSM62+ssZust9/QQ520YPkbrmx17DOERQiWzRTaYGZqwWrqFnqvaoiHFY4LWODo2DwClXvhwoVRr6BrnCXHTSI2SxjrEspb1Szh2HjqqdH2ENZw+CK2I8NMPKyh41dtPYkSZwiLECxlci5mCttCG/y4VVvwqJ4pqKDRsR6lCtaiRYtGiVReq7ws3WTDbmFsTDD0sJgh7K7W0XcJVYS5mCmcjWDZwy8lWGM+tH+5utxNu1ko701xWH4ccegA8GwG3TXGMnaumoEVWz9rGApWTJwmLVg+brCEGcJiPCw1qqeffnrOZgrNi/Iudix4VEKlGcExB96FAipvQHzDxjXGWUKJVUlPQhZbrSaw3Ur9DWASgtUUvlPqDGExgqWMaksRC29ouusPmWZPEYslcVJQqARKn0s+1Ki0DMq2/x2TYJUwe9VV9+Ir8ZLt2s3Be6ld3mx4bh+vti1gVNczD0velQbcSziK6BIaSDUmhTjYXtphpQ0RrLYBSUsvHHiXOOmlo8/mdyUYQJhHMbZ9y/V5LrqExlnvpd8Immwg5DzpGUITrH333bcoWy5KsLxw6fOzzz5bf6XKTzWmYoJke7DbAyNKFJ8UeTa2zzzzTN0lt79T8ob1/21YN2Pzcr1tp+At2y6ddZGC1dQQ/XPxmp6RZ78NHwox1odEpBCdHNcI+Q7hDevhNTKUt1Lw4jQ8xXH+YpkSrHEiJlcQgEAqAghWKpJcBwIQyE4AwcqOmAQgAIFUBBCsVCS5DgQgkJ0AgpUdMQlAAAKpCCBYqUhyHQhAIDsBBCs7YhKAAARSEUCwUpHkOhCAQHYCCFZ2xCQAAQikIoBgpSLJdSAAgewEEKzsiEkAAhBIRQDBSkWS60AAAtkJIFjZEZMABCCQigCClYok14EABLITQLCyIyYBCEAgFQEEKxVJrgMBCGQngGBlR0wCEIBAKgIIViqSXAcCEMhOAMHKjpgEIACBVAQQrFQkuQ4EIJCdAIKVHTEJQAACqQggWKlIch0IQCA7AQQrO2ISgAAEUhFAsFKR5DoQgEB2AghWdsQkAAEIpCKAYKUiyXUgAIHsBBCs7IhJAAIQSEUAwUpFkutAAALZCSBY2RGTAAQgkIoAgpWKJNeBAASyE0CwsiMmAQhAIBUBBCsVSa4DAQhkJ4BgZUdMAhCAQCoCCFYqklwHAhDITgDByo6YBCAAgVQEEKxUJLkOBCCQnQCClR0xCUAAAqkIIFipSHIdCEAgOwEEKztiEoAABFIRQLBSkeQ6EIBAdgIIVnbEJAABCKQigGClIsl1IACB7AQQrOyISQACEEhFAMFKRZLrQAAC2QkgWNkRkwAEIJCKwH/bGYmDy64yeQAAAABJRU5ErkJggg==
;file_total_lines: 17395
;estimated_time(s): 361.66
;nozzle_temperature(°C): 222
;build_plate_temperature(°C): 65
;work_speed(mm/minute): 1800
;max_x(mm): 12.75
;max_y(mm): 12.75
;max_z(mm): 2
;min_x(mm): -12.75
;min_y(mm): -12.75
;min_z(mm): 0

;Header End

; G-code for 3dp engraving
; Generated by Snapmaker Luban 3.15.0
; Mon Jul 19 2021 22:27:5

M82 ;absolute extrusion mode
;Start GCode begin
M104 S222
M140 S65
G28 ;home
G90 ;absolute positioning
G1 X-10 Y-10 F3000
G1 Z0 F1800
M109 S222;Wait for Hotend Temperature
M190 S65;Wait for Bed Temperature
G92 E0
G1 E20 F200
G92 E0
;Start GCode end
G92 E0
G1 F1500 E-6.5
;LAYER_COUNT:13
;LAYER:0
M107
;MESH:/Users/x/Library/Application Support/snapmaker-luban/Tmp/3id5.5_27460093.stl
G0 F1200 X51.801 Y50.848 Z0.3
;TYPE:WALL-OUTER
G1 F1500 E0
G1 F1080 X51.643 Y50.925 E0.00877
G1 X51.494 Y51.017 E0.01751
G1 X51.352 Y51.123 E0.02635
G1 X51.223 Y51.242 E0.0351
G1 X51.106 Y51.372 E0.04383
G1 X51.003 Y51.515 E0.05262
G1 X50.913 Y51.666 E0.06139
G1 X50.838 Y51.826 E0.07021
G1 X50.781 Y51.993 E0.07901
G1 X50.739 Y52.163 E0.08775
G1 X50.715 Y52.338 E0.09656
G1 X50.708 Y52.514 E0.10535
G1 X50.718 Y52.689 E0.11409
G1 X50.745 Y52.863 E0.12288
G1 X50.789 Y53.032 E0.13159
G1 X50.848 Y53.199 E0.14042
G1 X50.925 Y53.357 E0.14919
G1 X51.017 Y53.506 E0.15793
G1 X51.123 Y53.648 E0.16677
G1 X51.242 Y53.777 E0.17553
G1 X51.372 Y53.894 E0.18425
G1 X51.515 Y53.997 E0.19304
G1 X51.666 Y54.087 E0.20181
G1 X51.826 Y54.162 E0.21063
G1 X51.993 Y54.219 E0.21943
G1 X52.163 Y54.261 E0.22817
G1 X52.338 Y54.285 E0.23698
G1 X52.514 Y54.292 E0.24577
G1 X52.689 Y54.282 E0.25452
G1 X52.863 Y54.255 E0.2633
G1 X53.032 Y54.211 E0.27201
G1 X53.199 Y54.152 E0.28085
G1 X53.357 Y54.075 E0.28962
G1 X53.506 Y53.983 E0.29835
G1 X53.648 Y53.877 E0.3072
G1 X53.777 Y53.758 E0.31595
G1 X53.894 Y53.628 E0.32468
G1 X53.997 Y53.485 E0.33347
G1 X54.087 Y53.334 E0.34224
G1 X54.162 Y53.174 E0.35105
G1 X54.219 Y53.007 E0.35986
G1 X54.261 Y52.837 E0.36859
G1 X54.285 Y52.662 E0.37741
G1 X54.292 Y52.486 E0.3862
G1 X54.282 Y52.311 E0.39494
G1 X54.255 Y52.137 E0.40372
G1 X54.211 Y51.968 E0.41244
G1 X54.152 Y51.801 E0.42127
G1 X54.075 Y51.643 E0.43004
G1 X53.983 Y51.494 E0.43878
G1 X53.877 Y51.352 E0.44762
G1 X53.758 Y51.223 E0.45638
G1 X53.628 Y51.106 E0.4651
G1 X53.485 Y51.003 E0.47389
G1 X53.334 Y50.913 E0.48266
G1 X53.174 Y50.838 E0.49148
G1 X53.007 Y50.781 E0.50028
G1 X52.837 Y50.739 E0.50902
G1 X52.662 Y50.715 E0.51783
G1 X52.486 Y50.708 E0.52662
G1 X52.311 Y50.718 E0.53536
G1 X52.137 Y50.745 E0.54415
G1 X51.968 Y50.789 E0.55286
G1 X51.801 Y50.848 E0.5617
G0 F1200 X51.643 Y50.925
G0 X51.622 Y50.938
G0 X52.733 Y49.961
G1 F1080 X52.981 Y49.996 E0.57419
G1 X53.215 Y50.052 E0.5862
G1 X53.463 Y50.139 E0.59931
G1 X53.685 Y50.242 E0.61152
G1 X53.892 Y50.364 E0.62351
G1 X54.11 Y50.523 E0.63697
G1 X54.284 Y50.678 E0.64859
G1 X54.459 Y50.87 E0.66155
G1 X54.607 Y51.066 E0.67381
G1 X54.739 Y51.283 E0.68648
G1 X54.845 Y51.504 E0.69871
G1 X54.932 Y51.741 E0.7113
G1 X54.994 Y51.983 E0.72377
G1 X55.034 Y52.231 E0.7363
G1 X55.048 Y52.483 E0.74889
G1 X55.039 Y52.733 E0.76137
G1 X55.004 Y52.981 E0.77387
G1 X54.949 Y53.211 E0.78567
G1 X54.861 Y53.463 E0.79898
G1 X54.758 Y53.685 E0.81119
G1 X54.636 Y53.892 E0.82318
G1 X54.479 Y54.108 E0.8365
G1 X54.322 Y54.284 E0.84827
G1 X54.13 Y54.459 E0.86123
G1 X53.934 Y54.607 E0.87348
G1 X53.717 Y54.739 E0.88615
G1 X53.496 Y54.845 E0.89838
G1 X53.259 Y54.932 E0.91098
G1 X53.017 Y54.994 E0.92344
G1 X52.769 Y55.034 E0.93597
G1 X52.517 Y55.048 E0.94857
G1 X52.267 Y55.039 E0.96105
G1 X52.018 Y55.004 E0.97359
G1 X51.785 Y54.948 E0.98555
G1 X51.537 Y54.861 E0.99866
G1 X51.315 Y54.758 E1.01087
G1 X51.108 Y54.636 E1.02286
G1 X50.89 Y54.477 E1.03632
G1 X50.716 Y54.322 E1.04794
G1 X50.541 Y54.13 E1.0609
G1 X50.393 Y53.934 E1.07316
G1 X50.261 Y53.717 E1.08583
G1 X50.155 Y53.496 E1.09806
G1 X50.068 Y53.259 E1.11065
G1 X50.005 Y53.015 E1.12322
G1 X49.966 Y52.769 E1.13565
G1 X49.952 Y52.514 E1.14839
G1 X49.961 Y52.267 E1.16072
G1 X49.996 Y52.019 E1.17322
G1 X50.051 Y51.789 E1.18502
G1 X50.14 Y51.534 E1.19849
G1 X50.242 Y51.315 E1.21054
G1 X50.364 Y51.108 E1.22253
G1 X50.523 Y50.89 E1.23599
G1 X50.679 Y50.715 E1.24769
G1 X50.871 Y50.54 E1.26065
G1 X51.066 Y50.393 E1.27283
G1 X51.283 Y50.261 E1.28551
G1 X51.504 Y50.155 E1.29773
G1 X51.741 Y50.068 E1.31033
G1 X51.982 Y50.006 E1.32274
G1 X52.231 Y49.966 E1.33533
G1 X52.483 Y49.952 E1.34792
G1 X52.733 Y49.961 E1.3604
G0 F1200 X52.931 Y49.989
G0 X53.039 Y50.21
;TYPE:SKIN
G1 F1080 X54.786 Y51.958 E1.42205
G0 F1200 X54.841 Y52.296
G1 F1080 X54.363 Y51.818 E1.43891
G0 F1200 X54.64 Y51.528
G1 F1080 X53.467 Y50.356 E1.48027
G0 F1200 X53.178 Y50.633
G1 F1080 X52.701 Y50.155 E1.49712
G0 F1200 X52.607 Y50.344
G1 F1080 X52.323 Y50.343 E1.51089
G1 X51.45 Y50.601 E1.55504
G1 X50.829 Y51.112 E1.59405
G1 X50.433 Y51.847 E1.63454
G1 X50.344 Y52.607 E1.67166
G1 X50.396 Y52.941 E1.68805
G0 F1200 X50.212 Y53.04
G1 F1080 X51.96 Y54.788 E1.74972
G0 F1200 X52.297 Y54.843
G1 F1080 X51.82 Y54.365 E1.76656
G0 F1200 X51.531 Y54.643
G1 F1080 X50.358 Y53.47 E1.80794
G0 F1200 X52.199 Y54.462
G0 X52.392 Y54.655
G1 F1080 X52.674 Y54.654 E1.82252
G1 X53.548 Y54.396 E1.86961
G1 X54.169 Y53.886 E1.91113
G1 X54.564 Y53.15 E1.9543
G1 X54.654 Y52.391 E1.99379
G0 F1200 X54.688 Y52.58
G1 F1500 E-4.50621
;MESH:/Users/x/Library/Application Support/snapmaker-luban/Tmp/3id5.5_27434053.stl
G0 F1200 X54.975 Y51.987
G0 X55.849 Y51.85
G0 X59.334 Y51.218
G0 X60.259 Y51.324
G0 X61.763 Y50.756
G0 X61.801 Y50.848
;TYPE:WALL-OUTER
G1 F1500 E1.99379
G1 F1080 X61.643 Y50.925 E2.00256
G1 X61.494 Y51.017 E2.0113
G1 X61.352 Y51.123 E2.02014
G1 X61.223 Y51.242 E2.0289
G1 X61.106 Y51.372 E2.03762
G1 X61.003 Y51.515 E2.04641
G1 X60.913 Y51.666 E2.05518
G1 X60.838 Y51.826 E2.064
G1 X60.781 Y51.993 E2.0728
G1 X60.739 Y52.163 E2.08154
G1 X60.715 Y52.338 E2.09035
G1 X60.708 Y52.514 E2.09914
G1 X60.718 Y52.689 E2.10789
G1 X60.745 Y52.863 E2.11667
G1 X60.789 Y53.032 E2.12538
G1 X60.848 Y53.199 E2.13422
G1 X60.925 Y53.357 E2.14299
G1 X61.017 Y53.506 E2.15172
G1 X61.123 Y53.648 E2.16056
G1 X61.242 Y53.777 E2.16932
G1 X61.372 Y53.894 E2.17805
G1 X61.515 Y53.997 E2.18684
G1 X61.666 Y54.087 E2.19561
G1 X61.826 Y54.162 E2.20442
G1 X61.993 Y54.219 E2.21323
G1 X62.163 Y54.261 E2.22196
G1 X62.338 Y54.285 E2.23078
G1 X62.514 Y54.292 E2.23956
G1 X62.689 Y54.282 E2.24831
G1 X62.863 Y54.255 E2.25709
G1 X63.032 Y54.211 E2.26581
G1 X63.199 Y54.152 E2.27464
G1 X63.357 Y54.075 E2.28341
G1 X63.506 Y53.983 E2.29215
G1 X63.648 Y53.877 E2.30099
G1 X63.777 Y53.758 E2.30975
G1 X63.894 Y53.628 E2.31847
G1 X63.997 Y53.485 E2.32726
G1 X64.087 Y53.334 E2.33603
G1 X64.162 Y53.174 E2.34485
G1 X64.219 Y53.007 E2.35365
G1 X64.261 Y52.837 E2.36239
G1 X64.285 Y52.662 E2.3712
G1 X64.292 Y52.486 E2.37999
G1 X64.282 Y52.311 E2.38873
G1 X64.255 Y52.137 E2.39752
G1 X64.211 Y51.968 E2.40623
G1 X64.152 Y51.801 E2.41507
G1 X64.075 Y51.643 E2.42384
G1 X63.983 Y51.494 E2.43257
G1 X63.877 Y51.352 E2.44141
G1 X63.758 Y51.223 E2.45017
G1 X63.628 Y51.106 E2.4589
G1 X63.485 Y51.003 E2.46769
G1 X63.334 Y50.913 E2.47646
G1 X63.174 Y50.838 E2.48527
G1 X63.007 Y50.781 E2.49408
G1 X62.837 Y50.739 E2.50281
G1 X62.662 Y50.715 E2.51163
G1 X62.486 Y50.708 E2.52041
G1 X62.311 Y50.718 E2.52916
G1 X62.137 Y50.745 E2.53794
G1 X61.968 Y50.789 E2.54666
G1 X61.801 Y50.848 E2.55549
G0 F1200 X61.643 Y50.925
G0 X61.622 Y50.938
G0 X62.733 Y49.961
G1 F1080 X62.981 Y49.996 E2.56799
G1 X63.215 Y50.052 E2.57999
G1 X63.463 Y50.139 E2.5931
G1 X63.685 Y50.242 E2.60531
G1 X63.892 Y50.364 E2.6173
G1 X64.11 Y50.523 E2.63076
G1 X64.284 Y50.678 E2.64239
G1 X64.459 Y50.87 E2.65535
G1 X64.607 Y51.066 E2.6676
G1 X64.739 Y51.283 E2.68027
G1 X64.845 Y51.504 E2.6925
G1 X64.932 Y51.741 E2.7051
G1 X64.994 Y51.983 E2.71756
G1 X65.034 Y52.231 E2.73009
G1 X65.048 Y52.483 E2.74269
G1 X65.039 Y52.733 E2.75517
G1 X65.004 Y52.981 E2.76766
G1 X64.949 Y53.211 E2.77946
G1 X64.861 Y53.463 E2.79278
G1 X64.758 Y53.685 E2.80499
G1 X64.636 Y53.892 E2.81697
G1 X64.479 Y54.108 E2.8303
G1 X64.322 Y54.284 E2.84206
G1 X64.13 Y54.459 E2.85502
G1 X63.934 Y54.607 E2.86728
G1 X63.717 Y54.739 E2.87995
G1 X63.496 Y54.845 E2.89218
G1 X63.259 Y54.932 E2.90477
G1 X63.017 Y54.994 E2.91724
G1 X62.769 Y55.034 E2.92977
G1 X62.517 Y55.048 E2.94236
G1 X62.267 Y55.039 E2.95484
G1 X62.018 Y55.004 E2.96739
G1 X61.785 Y54.948 E2.97934
G1 X61.537 Y54.861 E2.99245
G1 X61.315 Y54.758 E3.00466
G1 X61.108 Y54.636 E3.01665
G1 X60.89 Y54.477 E3.03011
G1 X60.716 Y54.322 E3.04174
G1 X60.541 Y54.13 E3.0547
G1 X60.393 Y53.934 E3.06695
