;FLAVOR:Marlin
;TIME:6666
;Filament used: 0m
;Layer height: 0.1

;Generated with Cura_SteamEngine 2.7.0

;Start GCode begin
M140 S50
M109 S200
M190 S50
G28 ;Home
G90 ;absolute positioning
G1 X-4 Y-4
G1 Z0 F3000
G92 E0
G1 F200 E20
G92 E0
;Start GCode end

;LAYER_COUNT:209
;LAYER:0
M107
G0 F2400 X51.235 Y54.913 Z0.2
;TYPE:SKIRT
G1 F900 X51.824 Y54.387 E0.02626
G1 X52.493 Y53.906 E0.05367
G1 X53.358 Y53.35 E0.08787
G1 X54.044 Y52.957 E0.11417
G1 X54.485 Y52.75 E0.13037
G1 X55.539 Y52.295 E0.16855
G1 X56.279 Y52.019 E0.19482
G1 X56.739 Y51.889 E0.21072
G1 X58.584 Y51.428 E0.27397
G1 X59.658 Y51.238 E0.31025
G1 X60.996 Y51.097 E0.355
G1 X61.802 Y51.054 E0.38184
G1 X63.164 Y51.052 E0.42714
G1 X64.186 Y51.118 E0.46121
G1 X66.168 Y51.377 E0.52769
G1 X67.278 Y51.605 E0.56538
G1 X68.481 Y51.945 E0.60696
G1 X69.443 Y52.286 E0.6409
G1 X70.498 Y52.74 E0.6791
G1 X71.207 Y53.089 E0.70539
G1 X71.627 Y53.34 E0.72166
G1 X72.492 Y53.895 E0.75584
G1 X73.134 Y54.355 E0.78211
G1 X73.748 Y54.897 E0.80935
G1 X74.392 Y55.53 E0.83939
G1 X74.926 Y56.112 E0.86566
G1 X75.399 Y56.744 E0.89191
G1 X75.679 Y57.193 E0.90951
G1 X76.078 Y57.884 E0.93605
G1 X76.438 Y58.587 E0.96232
G1 X76.724 Y59.322 E0.98855
G1 X76.99 Y60.348 E1.02381
G1 X77.123 Y61.058 E1.04783
G1 X77.229 Y61.84 E1.07408
G1 X77.255 Y62.63 E1.10037
G1 X77.201 Y63.418 E1.12664
G1 X77.132 Y63.879 E1.14214
G1 X77.003 Y64.594 E1.16631
G1 X76.824 Y65.363 E1.19257
G1 X76.567 Y66.11 E1.21884
G1 X76.093 Y67.09 E1.25505
G1 X75.696 Y67.782 E1.28158
G1 X75.269 Y68.447 E1.30787
G1 X74.776 Y69.064 E1.33414
G1 X74.406 Y69.455 E1.35204
G1 X73.765 Y70.087 E1.38198
G1 X73.176 Y70.613 E1.40825
G1 X72.507 Y71.094 E1.43565
G1 X71.642 Y71.65 E1.46985
G1 X70.956 Y72.043 E1.49615
G1 X70.515 Y72.25 E1.51235
G1 X69.461 Y72.705 E1.55053
G1 X68.721 Y72.981 E1.5768
G1 X68.261 Y73.111 E1.5927
G1 X66.416 Y73.572 E1.65595
G1 X65.342 Y73.762 E1.69223
G1 X64.004 Y73.903 E1.73698
G1 X63.198 Y73.946 E1.76382
G1 X61.836 Y73.948 E1.80912
G1 X60.814 Y73.882 E1.84319
G1 X58.832 Y73.623 E1.90967
G1 X57.722 Y73.395 E1.94736
G1 X56.519 Y73.055 E1.98894
G1 X55.557 Y72.714 E2.02288
G1 X54.502 Y72.26 E2.06109
G1 X53.793 Y71.911 E2.08737
G1 X53.371 Y71.659 E2.10372
G1 X52.505 Y71.103 E2.13795
G1 X51.863 Y70.643 E2.16421
G1 X51.251 Y70.102 E2.19138
G1 X50.608 Y69.47 E2.22137
G1 X50.074 Y68.888 E2.24764
G1 X49.601 Y68.256 E2.2739
G1 X49.321 Y67.807 E2.2915
G1 X48.922 Y67.116 E2.31803
G1 X48.562 Y66.413 E2.3443
G1 X48.276 Y65.678 E2.37054
G1 X48.01 Y64.652 E2.40579
G1 X47.877 Y63.942 E2.42981
G1 X47.771 Y63.16 E2.45606
G1 X47.745 Y62.37 E2.48235
G1 X47.799 Y61.582 E2.50862
G1 X47.868 Y61.121 E2.52413
G1 X47.997 Y60.406 E2.54829
G1 X48.176 Y59.637 E2.57455
G1 X48.433 Y58.89 E2.60083
G1 X48.907 Y57.91 E2.63703
G1 X49.304 Y57.218 E2.66357
G1 X49.731 Y56.553 E2.68985
G1 X50.224 Y55.936 E2.71612
G1 X50.594 Y55.545 E2.73402
G1 X51.235 Y54.913 E2.76396
G0 F2400 X51.516 Y55.198
G1 F900 X52.091 Y54.687 E2.78955
G1 X52.71 Y54.242 E2.81491
G1 X53.575 Y53.686 E2.84911
G1 X54.243 Y53.304 E2.8747
G1 X54.643 Y53.117 E2.88939
G1 X55.697 Y52.662 E2.92757
G1 X56.418 Y52.394 E2.95315
G1 X56.836 Y52.277 E2.96759
G1 X58.681 Y51.816 E3.03084
G1 X59.699 Y51.636 E3.06523
G1 X61.037 Y51.495 E3.10997
G1 X61.802 Y51.454 E3.13546
G1 X63.164 Y51.452 E3.18076
G1 X64.134 Y51.514 E3.21308
G1 X66.116 Y51.773 E3.27957
G1 X67.17 Y51.99 E3.31536
G1 X68.373 Y52.33 E3.35694
G1 X69.285 Y52.654 E3.38913
G1 X70.34 Y53.108 E3.42733
G1 X71.03 Y53.448 E3.45291
G1 X71.411 Y53.677 E3.4677
G1 X72.276 Y54.232 E3.50188
G1 X72.901 Y54.68 E3.52746
G1 X73.467 Y55.183 E3.55264
G1 X74.111 Y55.816 E3.58268
G1 X74.631 Y56.382 E3.60824
G1 X75.089 Y57 E3.63382
G1 X75.332 Y57.393 E3.64919
G1 X75.731 Y58.084 E3.67573
G1 X76.081 Y58.769 E3.70132
G1 X76.357 Y59.487 E3.7269
G1 X76.596 Y60.422 E3.759
G1 X76.729 Y61.132 E3.78302
G1 X76.832 Y61.894 E3.8086
G1 X76.854 Y62.663 E3.83419
G1 X76.738 Y63.808 E3.87246
G1 X76.609 Y64.523 E3.89663
G1 X76.434 Y65.272 E3.92221
G1 X76.181 Y65.998 E3.94778
G1 X75.746 Y66.891 E3.98082
G1 X75.349 Y67.583 E4.00735
G1 X74.932 Y68.23 E4.03296
G1 X74.45 Y68.829 E4.05853
G1 X74.125 Y69.17 E4.0742
G1 X73.484 Y69.802 E4.10414
G1 X72.909 Y70.313 E4.12972
G1 X72.29 Y70.758 E4.15508
G1 X71.425 Y71.314 E4.18928
G1 X70.757 Y71.696 E4.21487
G1 X70.357 Y71.883 E4.22956
G1 X69.303 Y72.338 E4.26774
G1 X68.582 Y72.606 E4.29332
G1 X68.164 Y72.723 E4.30776
G1 X66.319 Y73.184 E4.37101
G1 X65.301 Y73.364 E4.4054
G1 X63.963 Y73.505 E4.45015
G1 X63.198 Y73.546 E4.47563
G1 X61.836 Y73.548 E4.52093
G1 X60.866 Y73.486 E4.55326
G1 X58.884 Y73.227 E4.61974
G1 X57.83 Y73.01 E4.65553
G1 X56.627 Y72.67 E4.69711
G1 X55.715 Y72.346 E4.7293
G1 X54.66 Y71.892 E4.7675
G1 X53.97 Y71.552 E4.79308
G1 X53.587 Y71.322 E4.80794
G1 X52.721 Y70.766 E4.84217
G1 X52.096 Y70.317 E4.86777
G1 X51.532 Y69.817 E4.89284
G1 X50.889 Y69.185 E4.92282
G1 X50.369 Y68.618 E4.94841
G1 X49.911 Y68 E4.974
G1 X49.668 Y67.607 E4.98936
G1 X49.269 Y66.916 E5.0159
G1 X48.919 Y66.231 E5.04149
G1 X48.643 Y65.513 E5.06707
G1 X48.404 Y64.578 E5.09917
G1 X48.271 Y63.868 E5.1232
G1 X48.168 Y63.106 E5.14877
G1 X48.146 Y62.337 E5.17436
G1 X48.262 Y61.192 E5.21264
G1 X48.391 Y60.477 E5.2368
G1 X48.566 Y59.728 E5.26238
G1 X48.819 Y59.002 E5.28795
G1 X49.254 Y58.109 E5.32099
G1 X49.651 Y57.417 E5.34753
G1 X50.068 Y56.77 E5.37313
G1 X50.55 Y56.171 E5.3987
G1 X50.875 Y55.83 E5.41437
G1 X51.516 Y55.198 E5.44431
G0 F2400 X51.796 Y55.482
G1 F900 X52.356 Y54.986 E5.46919
G1 X52.926 Y54.579 E5.49248
G1 X53.791 Y54.023 E5.52668
G1 X54.441 Y53.652 E5.55158
G1 X54.802 Y53.484 E5.56482
G1 X55.856 Y53.029 E5.603
G1 X56.557 Y52.77 E5.62786
G1 X56.933 Y52.665 E5.64084
G1 X58.778 Y52.204 E5.7041
G1 X59.741 Y52.034 E5.73662
G1 X61.079 Y51.893 E5.78137
G1 X61.803 Y51.854 E5.80548
G1 X63.165 Y51.852 E5.85078
G1 X64.082 Y51.911 E5.88135
G1 X66.064 Y52.17 E5.94783
G1 X67.061 Y52.375 E5.98168
G1 X68.264 Y52.715 E6.02326
G1 X69.127 Y53.021 E6.05372
G1 X70.182 Y53.475 E6.09192
G1 X70.852 Y53.807 E6.11679
G1 X71.195 Y54.013 E6.1301
G1 X72.06 Y54.568 E6.16428
G1 X72.667 Y55.005 E6.18915
G1 X73.187 Y55.468 E6.21231
G1 X73.831 Y56.101 E6.24235
G1 X74.336 Y56.653 E6.26723
G1 X74.779 Y57.256 E6.29212
G1 X74.986 Y57.593 E6.30527
G1 X75.385 Y58.284 E6.33181
G1 X75.724 Y58.951 E6.3567
G1 X75.99 Y59.65 E6.38157
G1 X76.203 Y60.495 E6.41055
G1 X76.336 Y61.205 E6.43458
G1 X76.435 Y61.947 E6.45948
G1 X76.453 Y62.695 E6.48436
G1 X76.345 Y63.737 E6.51921
G1 X76.216 Y64.452 E6.54337
G1 X76.044 Y65.18 E6.56825
G1 X75.795 Y65.885 E6.59312
G1 X75.399 Y66.692 E6.62302
G1 X75.002 Y67.384 E6.64955
G1 X74.595 Y68.012 E6.67444
G1 X74.124 Y68.594 E6.69934
G1 X73.845 Y68.886 E6.71278
G1 X73.204 Y69.518 E6.74272
G1 X72.644 Y70.014 E6.7676
G1 X72.074 Y70.421 E6.79089
G1 X71.209 Y70.977 E6.82509
G1 X70.559 Y71.348 E6.84999
G1 X70.198 Y71.516 E6.86323
G1 X69.144 Y71.971 E6.90141
G1 X68.443 Y72.23 E6.92627
G1 X68.067 Y72.335 E6.93925
G1 X66.222 Y72.796 E7.0025
G1 X65.259 Y72.966 E7.03503
G1 X63.921 Y73.107 E7.07978
G1 X63.197 Y73.146 E7.10389
G1 X61.835 Y73.148 E7.14919
G1 X60.918 Y73.089 E7.17976
G1 X58.936 Y72.83 E7.24624
G1 X57.939 Y72.625 E7.28009
G1 X56.736 Y72.285 E7.32167
G1 X55.873 Y71.979 E7.35213
G1 X54.818 Y71.525 E7.39033
G1 X54.148 Y71.193 E7.4152
G1 X53.803 Y70.985 E7.4286
G1 X52.937 Y70.429 E7.46282
G1 X52.33 Y69.992 E7.4877
G1 X51.812 Y69.531 E7.51076
G1 X51.169 Y68.899 E7.54075
G1 X50.664 Y68.347 E7.56564
G1 X50.221 Y67.744 E7.59052
G1 X50.014 Y67.407 E7.60368
G1 X49.615 Y66.716 E7.63022
G1 X49.276 Y66.049 E7.6551
G1 X49.01 Y65.35 E7.67998
G1 X48.797 Y64.505 E7.70896
G1 X48.664 Y63.795 E7.73299
G1 X48.565 Y63.053 E7.75788
G1 X48.547 Y62.305 E7.78277
G1 X48.655 Y61.263 E7.81761
G1 X48.784 Y60.548 E7.84178
G1 X48.956 Y59.82 E7.86666
G1 X49.205 Y59.115 E7.89152
G1 X49.601 Y58.308 E7.92142
G1 X49.998 Y57.616 E7.94796
G1 X50.405 Y56.988 E7.97285
G1 X50.876 Y56.406 E7.99775
G1 X51.155 Y56.114 E8.01118
G1 X51.796 Y55.482 E8.04112
G0 F2400 X52.077 Y55.767
G1 F900 X52.622 Y55.286 E8.0653
G1 X53.142 Y54.915 E8.08655
G1 X54.007 Y54.359 E8.12075
G1 X54.96 Y53.852 E8.15665
G1 X56.014 Y53.397 E8.19483
G1 X57.03 Y53.053 E8.23051
G1 X58.875 Y52.592 E8.29376
G1 X59.783 Y52.431 E8.32443
G1 X61.121 Y52.29 E8.36918
G1 X61.803 Y52.254 E8.3919
G1 X63.165 Y52.252 E8.4372
G1 X64.03 Y52.308 E8.46603
G1 X66.012 Y52.567 E8.53251
G1 X66.952 Y52.76 E8.56442
G1 X68.155 Y53.1 E8.606
G1 X68.969 Y53.389 E8.63473
G1 X70.024 Y53.843 E8.67293
G1 X70.979 Y54.35 E8.7089
G1 X71.844 Y54.905 E8.74308
G1 X72.433 Y55.33 E8.76724
G1 X72.907 Y55.753 E8.78837
G1 X73.551 Y56.386 E8.8184
G1 X74.04 Y56.923 E8.84256
G1 X74.64 Y57.793 E8.87771
G1 X75.039 Y58.484 E8.90425
G1 X75.367 Y59.132 E8.9284
G1 X75.621 Y59.812 E8.95255
G1 X75.81 Y60.569 E8.9785
G1 X75.943 Y61.279 E9.00252
G1 X76.037 Y61.999 E9.02667
G1 X76.052 Y62.725 E9.05082
G1 X75.951 Y63.666 E9.0823
G1 X75.822 Y64.381 E9.10647
G1 X75.654 Y65.087 E9.1306
G1 X75.409 Y65.771 E9.15477
G1 X75.052 Y66.493 E9.18156
G1 X74.655 Y67.185 E9.20809
G1 X74.259 Y67.795 E9.23228
G1 X73.564 Y68.601 E9.26768
G1 X72.923 Y69.233 E9.29762
G1 X72.378 Y69.714 E9.3218
G1 X71.858 Y70.085 E9.34304
G1 X70.993 Y70.641 E9.37724
G1 X70.04 Y71.148 E9.41315
G1 X68.986 Y71.603 E9.45133
G1 X67.97 Y71.947 E9.48701
G1 X66.125 Y72.408 E9.55026
G1 X65.217 Y72.569 E9.58093
G1 X63.879 Y72.71 E9.62568
G1 X63.197 Y72.746 E9.64839
G1 X61.835 Y72.748 E9.69369
G1 X60.97 Y72.692 E9.72252
G1 X58.988 Y72.433 E9.78901
G1 X58.048 Y72.24 E9.82092
G1 X56.845 Y71.9 E9.8625
G1 X56.031 Y71.611 E9.89123
G1 X54.976 Y71.157 E9.92943
G1 X54.019 Y70.649 E9.96547
G1 X53.153 Y70.093 E9.9997
G1 X52.565 Y69.667 E10.02385
G1 X52.093 Y69.246 E10.04488
G1 X51.45 Y68.614 E10.07487
G1 X50.96 Y68.077 E10.09905
G1 X50.36 Y67.207 E10.1342
G1 X49.961 Y66.516 E10.16074
G1 X49.633 Y65.868 E10.1849
G1 X49.379 Y65.188 E10.20904
G1 X49.19 Y64.431 E10.23499
G1 X49.057 Y63.721 E10.25901
G1 X48.963 Y63.001 E10.28317
G1 X48.948 Y62.275 E10.30732
G1 X49.049 Y61.334 E10.33879
G1 X49.178 Y60.619 E10.36296
G1 X49.346 Y59.913 E10.3871
G1 X49.591 Y59.229 E10.41126
G1 X49.948 Y58.507 E10.43805
G1 X50.345 Y57.815 E10.46459
G1 X50.741 Y57.205 E10.48877
G1 X51.436 Y56.399 E10.52417
G1 X52.077 Y55.767 E10.55411
G0 F2400 X52.358 Y56.052
G1 F900 X52.887 Y55.587 E10.57754
G1 X53.359 Y55.251 E10.59681
G1 X54.224 Y54.695 E10.63101
G1 X55.119 Y54.219 E10.66473
G1 X56.173 Y53.764 E10.70291
G1 X57.127 Y53.441 E10.73641
G1 X58.972 Y52.98 E10.79966
G1 X59.825 Y52.829 E10.82847
G1 X61.163 Y52.688 E10.87322
G1 X61.804 Y52.654 E10.89457
G1 X63.166 Y52.652 E10.93987
G1 X63.978 Y52.704 E10.96693
G1 X65.96 Y52.963 E11.03341
G1 X66.843 Y53.145 E11.0634
G1 X68.046 Y53.485 E11.10498
G1 X68.811 Y53.756 E11.13197
G1 X69.866 Y54.21 E11.17017
G1 X70.763 Y54.687 E11.20396
G1 X71.628 Y55.242 E11.23815
G1 X72.198 Y55.655 E11.26156
G1 X72.626 Y56.038 E11.28066
G1 X73.27 Y56.671 E11.3107
G1 X73.743 Y57.193 E11.33412
G1 X74.293 Y57.993 E11.36641
G1 X74.692 Y58.684 E11.39295
G1 X75.009 Y59.312 E11.41635
G1 X75.253 Y59.973 E11.43979
G1 X75.417 Y60.642 E11.4627
G1 X75.55 Y61.352 E11.48672
G1 X75.64 Y62.051 E11.51016
G1 X75.651 Y62.755 E11.53358
G1 X75.557 Y63.595 E11.56169
G1 X75.428 Y64.31 E11.58586
G1 X75.264 Y64.994 E11.60925
G1 X75.024 Y65.656 E11.63267
G1 X74.705 Y66.294 E11.6564
G1 X74.308 Y66.986 E11.68293
G1 X73.923 Y67.576 E11.70636
G1 X73.283 Y68.316 E11.7389
G1 X72.642 Y68.948 E11.76884
G1 X72.113 Y69.413 E11.79227
G1 X71.641 Y69.749 E11.81154
G1 X70.776 Y70.305 E11.84574
G1 X69.881 Y70.781 E11.87946
G1 X68.827 Y71.236 E11.91764
G1 X67.873 Y71.559 E11.95114
G1 X66.028 Y72.02 E12.01439
G1 X65.175 Y72.171 E12.0432
G1 X63.837 Y72.312 E12.08795
G1 X63.196 Y72.346 E12.1093
G1 X61.834 Y72.348 E12.1546
G1 X61.022 Y72.296 E12.18166
G1 X59.04 Y72.037 E12.24815
G1 X58.157 Y71.855 E12.27813
G1 X56.954 Y71.515 E12.31971
G1 X56.189 Y71.244 E12.34671
G1 X55.134 Y70.79 E12.38491
G1 X54.235 Y70.312 E12.41877
G1 X53.369 Y69.756 E12.453
G1 X52.799 Y69.343 E12.47641
G1 X52.373 Y68.961 E12.49544
G1 X51.73 Y68.329 E12.52543
G1 X51.257 Y67.808 E12.54883
G1 X50.707 Y67.007 E12.58115
G1 X50.308 Y66.316 E12.60769
G1 X49.991 Y65.688 E12.63109
G1 X49.747 Y65.027 E12.65452
G1 X49.583 Y64.358 E12.67743
G1 X49.45 Y63.648 E12.70146
G1 X49.36 Y62.949 E12.7249
G1 X49.349 Y62.245 E12.74832
G1 X49.443 Y61.405 E12.77643
G1 X49.572 Y60.69 E12.80059
G1 X49.736 Y60.006 E12.82399
G1 X49.976 Y59.344 E12.84741
G1 X50.295 Y58.706 E12.87113
G1 X50.692 Y58.014 E12.89767
G1 X51.077 Y57.424 E12.9211
G1 X51.717 Y56.684 E12.95364
G1 X52.358 Y56.052 E12.98358
G0 F2400 X52.639 Y56.337
G1 F900 X53.151 Y55.888 E13.00623
G1 X53.575 Y55.588 E13.02351
G1 X54.44 Y55.032 E13.05771
G1 X55.277 Y54.586 E13.08925
G1 X56.331 Y54.131 E13.12743
G1 X57.224 Y53.829 E13.15879
G1 X59.069 Y53.368 E13.22204
G1 X59.867 Y53.227 E13.24899
G1 X61.205 Y53.086 E13.29374
G1 X61.804 Y53.054 E13.31369
G1 X63.166 Y53.052 E13.35899
G1 X63.927 Y53.101 E13.38436
G1 X65.909 Y53.36 E13.45084
G1 X66.734 Y53.53 E13.47885
G1 X67.937 Y53.87 E13.52043
G1 X68.653 Y54.123 E13.54569
G1 X69.708 Y54.577 E13.58389
G1 X70.547 Y55.023 E13.61549
G1 X71.412 Y55.578 E13.64968
G1 X71.963 Y55.979 E13.67234
G1 X72.346 Y56.324 E13.68949
G1 X72.99 Y56.957 E13.71952
G1 X73.446 Y57.462 E13.74215
G1 X73.947 Y58.193 E13.77163
G1 X74.346 Y58.884 E13.79817
G1 X74.651 Y59.492 E13.82079
G1 X74.883 Y60.133 E13.84346
G1 X75.024 Y60.716 E13.86341
G1 X75.157 Y61.426 E13.88744
G1 X75.243 Y62.102 E13.9101
G1 X75.249 Y62.782 E13.93272
G1 X75.164 Y63.524 E13.95756
G1 X75.035 Y64.239 E13.98173
G1 X74.875 Y64.901 E14.00438
G1 X74.638 Y65.539 E14.02702
G1 X74.358 Y66.095 E14.04772
G1 X73.961 Y66.787 E14.07426
G1 X73.588 Y67.357 E14.09691
G1 X73.002 Y68.031 E14.12662
G1 X72.361 Y68.663 E14.15656
G1 X71.849 Y69.112 E14.17921
G1 X71.425 Y69.412 E14.19648
G1 X70.56 Y69.968 E14.23068
G1 X69.723 Y70.414 E14.26223
G1 X68.669 Y70.869 E14.30041
G1 X67.776 Y71.171 E14.33177
G1 X65.931 Y71.632 E14.39502
G1 X65.133 Y71.773 E14.42197
G1 X63.795 Y71.914 E14.46672
G1 X63.196 Y71.946 E14.48667
G1 X61.834 Y71.948 E14.53197
G1 X61.073 Y71.899 E14.55733
G1 X59.091 Y71.64 E14.62382
G1 X58.266 Y71.47 E14.65183
G1 X57.063 Y71.13 E14.69341
G1 X56.347 Y70.877 E14.71867
G1 X55.292 Y70.423 E14.75687
G1 X54.451 Y69.976 E14.78855
G1 X53.585 Y69.42 E14.82277
G1 X53.035 Y69.019 E14.84541
G1 X52.653 Y68.675 E14.86251
G1 X52.01 Y68.043 E14.8925
G1 X51.554 Y67.538 E14.91513
G1 X51.053 Y66.807 E14.9446
G1 X50.654 Y66.116 E14.97114
G1 X50.349 Y65.508 E14.99377
G1 X50.117 Y64.867 E15.01644
G1 X49.976 Y64.284 E15.03639
G1 X49.843 Y63.574 E15.06042
G1 X49.757 Y62.898 E15.08308
G1 X49.751 Y62.218 E15.1057
G1 X49.836 Y61.476 E15.13054
G1 X49.965 Y60.761 E15.1547
G1 X50.125 Y60.099 E15.17736
G1 X50.362 Y59.461 E15.19999
G1 X50.642 Y58.905 E15.2207
G1 X51.039 Y58.213 E15.24723
G1 X51.412 Y57.643 E15.26989
G1 X51.998 Y56.969 E15.29959
G1 X52.639 Y56.337 E15.32953
G0 F2400 X52.92 Y56.622
G1 F900 X53.415 Y56.19 E15.35139
G1 X53.791 Y55.924 E15.36671
G1 X54.656 Y55.368 E15.40091
G1 X55.436 Y54.953 E15.43029
G1 X56.49 Y54.498 E15.46848
G1 X57.321 Y54.217 E15.49765
G1 X59.166 Y53.756 E15.5609
G1 X59.909 Y53.625 E15.586
G1 X61.247 Y53.484 E15.63075
G1 X61.805 Y53.454 E15.64933
G1 X63.167 Y53.452 E15.69463
G1 X63.875 Y53.498 E15.71823
G1 X65.857 Y53.757 E15.78471
G1 X66.626 Y53.915 E15.81082
G1 X67.829 Y54.255 E15.8524
G1 X68.495 Y54.491 E15.8759
G1 X69.55 Y54.945 E15.9141
G1 X70.331 Y55.36 E15.94352
G1 X71.196 Y55.915 E15.9777
G1 X71.726 Y56.303 E15.99955
G1 X72.065 Y56.609 E16.01474
G1 X72.709 Y57.242 E16.04477
G1 X73.149 Y57.73 E16.06663
G1 X73.6 Y58.393 E16.0933
G1 X73.999 Y59.084 E16.11984
G1 X74.293 Y59.672 E16.1417
G1 X74.512 Y60.291 E16.16354
G1 X74.631 Y60.79 E16.1806
G1 X74.764 Y61.5 E16.20463
G1 X74.845 Y62.152 E16.22648
G1 X74.847 Y62.809 E16.24833
G1 X74.77 Y63.453 E16.2699
G1 X74.641 Y64.168 E16.29407
G1 X74.485 Y64.806 E16.31591
G1 X74.253 Y65.421 E16.33778
G1 X74.011 Y65.896 E16.35551
G1 X73.614 Y66.588 E16.38204
G1 X73.253 Y67.137 E16.40389
G1 X72.721 Y67.746 E16.43079
G1 X72.08 Y68.378 E16.46073
